; generated by Slic3r 0.9.8 on 2013-05-27 at 19:30:19

; layer_height = 0.18
; perimeters = 3
; top_solid_layers = 3
; bottom_solid_layers = 3
; fill_density = 0.4
; perimeter_speed = 30
; infill_speed = 60
; travel_speed = 130
; scale = 1
; nozzle_diameter = 0.4
; filament_diameter = 2.8
; extrusion_multiplier = 1
; perimeters extrusion width = 0.64mm
; infill extrusion width = 0.64mm
; first layer extrusion width = 0.80mm

M107
M190 S5 ; wait for bed temperature to be reached
M104 S220 ; set temperature
G28 ; home all axes
M92 E865.888; init extruder
nozzle 0.4
M109 S220 ; wait for temperature to be reached
G90 ; use absolute coordinates
G21 ; set units to millimeters
G92 E0
M82 ; use absolute distances for extrusion
G1 F1800.000 E-1.00000
G92 E0
G1 Z0.400 F7800.000
G1 X138.610 Y136.850
G1 F1800.000 E1.00000
G1 X136.850 Y138.610 F540.000 E1.11547
G1 X134.700 Y140.530 E1.24920
G1 X134.340 Y140.830 E1.27094
G1 X132.370 Y142.350 E1.38638
G1 X129.640 Y144.200 E1.53937
G1 X127.500 Y145.470 E1.65482
G1 X127.130 Y145.680 E1.67455
G1 X124.920 Y146.810 E1.78971
G1 X124.500 Y147.000 E1.81109
G1 X121.860 Y148.120 E1.94413
G1 X119.520 Y148.970 E2.05963
G1 X119.090 Y149.110 E2.08061
G1 X116.700 Y149.800 E2.19602
G1 X113.880 Y150.440 E2.33017
G1 X113.470 Y150.520 E2.34955
G1 X110.580 Y150.970 E2.48524
G1 X108.000 Y151.210 E2.60545
G1 X105.190 Y151.300 E2.73588
G1 X102.320 Y151.230 E2.86907
G1 X101.860 Y151.200 E2.89046
G1 X98.980 Y150.910 E3.02474
G1 X96.520 Y150.520 E3.14029
G1 X93.290 Y149.800 E3.29382
G1 X90.900 Y149.110 E3.40923
G1 X90.470 Y148.970 E3.43021
G1 X88.130 Y148.120 E3.54571
G1 X85.070 Y146.810 E3.70013
G1 X82.860 Y145.680 E3.81528
G1 X80.350 Y144.200 E3.95046
G1 X77.620 Y142.350 E4.10346
G1 X75.650 Y140.830 E4.21889
G1 X75.290 Y140.530 E4.24063
G1 X73.140 Y138.610 E4.37436
G1 X71.380 Y136.850 E4.48983
G1 X69.380 Y134.600 E4.62949
G1 X67.650 Y132.370 E4.76043
G1 X67.410 Y132.040 E4.77936
G1 X65.790 Y129.640 E4.91369
G1 X64.310 Y127.130 E5.04887
G1 X63.180 Y124.920 E5.16403
G1 X61.870 Y121.860 E5.31845
G1 X61.020 Y119.520 E5.43395
G1 X60.880 Y119.090 E5.45493
G1 X60.190 Y116.700 E5.57034
G1 X59.470 Y113.470 E5.72386
G1 X59.030 Y110.660 E5.85581
G1 X58.800 Y108.470 E5.95797
G1 X58.770 Y107.960 E5.98167
G1 X58.690 Y105.180 E6.11070
G1 X58.770 Y102.030 E6.25688
G1 X58.800 Y101.520 E6.28058
G1 X59.030 Y99.330 E6.38274
G1 X59.470 Y96.520 E6.51469
G1 X60.090 Y93.690 E6.64910
G1 X60.190 Y93.290 E6.66823
G1 X60.880 Y90.900 E6.78363
G1 X61.020 Y90.470 E6.80461
G1 X61.870 Y88.130 E6.92011
G1 X62.990 Y85.490 E7.05315
G1 X63.180 Y85.070 E7.07454
G1 X64.310 Y82.860 E7.18969
G1 X64.520 Y82.490 E7.20943
G1 X65.790 Y80.350 E7.32488
G1 X67.410 Y77.950 E7.45921
G1 X69.380 Y75.390 E7.60907
G1 X71.090 Y73.450 E7.72905
G1 X73.140 Y71.380 E7.86420
G1 X73.450 Y71.100 E7.88358
G1 X75.550 Y69.250 E8.01342
G1 X77.590 Y67.660 E8.13341
G1 X80.350 Y65.790 E8.28808
G1 X82.860 Y64.310 E8.42326
G1 X85.070 Y63.180 E8.53841
G1 X88.130 Y61.870 E8.69283
G1 X90.470 Y61.020 E8.80833
G1 X90.900 Y60.880 E8.82931
G1 X93.290 Y60.190 E8.94472
G1 X96.520 Y59.470 E9.09824
G1 X99.380 Y59.030 E9.23249
G1 X102.310 Y58.760 E9.36900
G1 X105.090 Y58.690 E9.49801
G1 X107.960 Y58.770 E9.63121
G1 X108.470 Y58.800 E9.65491
G1 X110.660 Y59.030 E9.75707
G1 X113.470 Y59.470 E9.88902
G1 X116.700 Y60.190 E10.04254
G1 X119.090 Y60.880 E10.15795
G1 X119.520 Y61.020 E10.17893
G1 X121.860 Y61.870 E10.29443
G1 X124.920 Y63.180 E10.44885
G1 X127.130 Y64.310 E10.56401
G1 X129.640 Y65.790 E10.69919
G1 X132.040 Y67.410 E10.83352
G1 X134.260 Y69.110 E10.96324
G1 X134.600 Y69.380 E10.98338
G1 X136.850 Y71.380 E11.12304
G1 X138.610 Y73.140 E11.23852
G1 X140.530 Y75.290 E11.37224
G1 X140.830 Y75.650 E11.39398
G1 X142.350 Y77.620 E11.50942
G1 X144.200 Y80.350 E11.66241
G1 X145.470 Y82.490 E11.77786
G1 X145.680 Y82.860 E11.79760
G1 X146.810 Y85.070 E11.91275
G1 X147.000 Y85.490 E11.93413
G1 X148.120 Y88.130 E12.06718
G1 X148.970 Y90.470 E12.18268
G1 X149.110 Y90.900 E12.20366
G1 X149.800 Y93.290 E12.31906
G1 X150.440 Y96.110 E12.45322
G1 X150.520 Y96.520 E12.47260
G1 X150.960 Y99.380 E12.60684
G1 X151.230 Y102.320 E12.74381
G1 X151.300 Y104.800 E12.85891
G1 X151.230 Y107.670 E12.99209
G1 X151.200 Y108.130 E13.01348
G1 X150.910 Y111.010 E13.14777
G1 X150.520 Y113.470 E13.26332
G1 X149.800 Y116.700 E13.41684
G1 X149.110 Y119.090 E13.53225
G1 X148.970 Y119.520 E13.55323
G1 X148.120 Y121.860 E13.66873
G1 X146.810 Y124.920 E13.82315
G1 X145.680 Y127.130 E13.93831
G1 X144.200 Y129.640 E14.07349
G1 X142.350 Y132.370 E14.22648
G1 X140.830 Y134.340 E14.34192
G1 X140.530 Y134.700 E14.36366
G1 X138.683 Y136.772 E14.49242
G1 X138.610 Y136.850 E14.49738
G1 F1800.000 E13.49738
G92 E0
G1 X68.028 Y114.493 F7800.000
G1 F1800.000 E1.00000
G1 X67.505 Y112.152 F540.000 E1.11125
G1 X67.130 Y109.784 E1.22250
G1 X66.905 Y107.397 E1.33374
G1 X66.829 Y105.000 E1.44499
G1 X66.905 Y102.603 E1.55624
G1 X67.130 Y100.216 E1.66748
G1 X67.505 Y97.848 E1.77873
G1 X68.028 Y95.507 E1.88998
G1 X68.697 Y93.205 E2.00123
G1 X69.510 Y90.948 E2.11247
G1 X70.462 Y88.748 E2.22372
G1 X71.551 Y86.611 E2.33496
G1 X72.771 Y84.547 E2.44621
G1 X74.119 Y82.564 E2.55746
G1 X75.589 Y80.669 E2.66871
G1 X77.175 Y78.870 E2.77996
G1 X78.870 Y77.175 E2.89120
G1 X80.669 Y75.589 E3.00245
G1 X82.564 Y74.119 E3.11370
G1 X84.547 Y72.771 E3.22494
G1 X86.611 Y71.551 E3.33619
G1 X88.748 Y70.462 E3.44744
G1 X90.948 Y69.510 E3.55868
G1 X93.205 Y68.697 E3.66993
G1 X95.507 Y68.028 E3.78118
G1 X97.848 Y67.505 E3.89243
G1 X100.216 Y67.130 E4.00367
G1 X102.603 Y66.905 E4.11492
G1 X105.000 Y66.829 E4.22617
G1 X107.397 Y66.905 E4.33741
G1 X109.784 Y67.130 E4.44866
G1 X112.152 Y67.505 E4.55991
G1 X114.493 Y68.028 E4.67116
G1 X116.795 Y68.697 E4.78240
G1 X119.052 Y69.510 E4.89365
G1 X121.252 Y70.462 E5.00490
G1 X123.389 Y71.551 E5.11614
G1 X125.453 Y72.771 E5.22739
G1 X127.436 Y74.119 E5.33864
G1 X129.331 Y75.589 E5.44989
G1 X131.130 Y77.175 E5.56113
G1 X132.825 Y78.870 E5.67238
G1 X134.411 Y80.669 E5.78362
G1 X135.881 Y82.564 E5.89487
G1 X137.229 Y84.547 E6.00612
G1 X138.449 Y86.611 E6.11737
G1 X139.538 Y88.748 E6.22861
G1 X140.490 Y90.948 E6.33986
G1 X141.303 Y93.205 E6.45111
G1 X141.972 Y95.507 E6.56235
G1 X142.495 Y97.848 E6.67361
G1 X142.870 Y100.216 E6.78485
G1 X143.095 Y102.603 E6.89610
G1 X143.171 Y105.000 E7.00734
G1 X143.095 Y107.397 E7.11859
G1 X142.870 Y109.784 E7.22984
G1 X142.495 Y112.152 E7.34108
G1 X141.972 Y114.493 E7.45233
G1 X141.303 Y116.795 E7.56358
G1 X140.490 Y119.052 E7.67482
G1 X139.538 Y121.252 E7.78607
G1 X138.449 Y123.389 E7.89732
G1 X137.229 Y125.453 E8.00857
G1 X135.881 Y127.436 E8.11981
G1 X134.411 Y129.331 E8.23106
G1 X132.825 Y131.130 E8.34231
G1 X131.130 Y132.825 E8.45355
G1 X129.331 Y134.411 E8.56480
G1 X127.436 Y135.881 E8.67605
G1 X125.453 Y137.229 E8.78729
G1 X123.389 Y138.449 E8.89855
G1 X121.252 Y139.538 E9.00979
G1 X119.052 Y140.490 E9.12104
G1 X116.795 Y141.303 E9.23228
G1 X114.493 Y141.972 E9.34353
G1 X112.153 Y142.495 E9.45478
G1 X109.784 Y142.870 E9.56603
G1 X107.397 Y143.095 E9.67727
G1 X105.000 Y143.171 E9.78852
G1 X102.603 Y143.095 E9.89977
G1 X100.216 Y142.870 E10.01102
G1 X97.848 Y142.495 E10.12226
G1 X95.507 Y141.972 E10.23351
G1 X93.205 Y141.303 E10.34476
G1 X90.948 Y140.490 E10.45600
G1 X88.748 Y139.538 E10.56725
G1 X86.611 Y138.449 E10.67850
G1 X84.547 Y137.229 E10.78975
G1 X82.564 Y135.881 E10.90099
G1 X80.669 Y134.411 E11.01224
G1 X78.870 Y132.825 E11.12349
G1 X77.175 Y131.130 E11.23473
G1 X75.589 Y129.331 E11.34598
G1 X74.119 Y127.436 E11.45723
G1 X72.771 Y125.453 E11.56847
G1 X71.551 Y123.389 E11.67973
G1 X70.462 Y121.252 E11.79097
G1 X69.510 Y119.052 E11.90222
G1 X68.697 Y116.795 E12.01346
G1 X68.058 Y114.596 E12.11974
G1 X68.028 Y114.493 E12.12471
G1 X67.336 Y114.670 F7800.000
G1 X66.803 Y112.286 F540.000 E12.23804
G1 X66.421 Y109.874 E12.35137
G1 X66.191 Y107.442 E12.46470
G1 X66.115 Y105.000 E12.57803
G1 X66.191 Y102.558 E12.69136
G1 X66.421 Y100.126 E12.80469
G1 X66.803 Y97.714 E12.91802
G1 X67.336 Y95.330 E13.03135
G1 X68.018 Y92.984 E13.14468
G1 X68.845 Y90.685 E13.25801
G1 X69.816 Y88.443 E13.37134
G1 X70.925 Y86.267 E13.48466
G1 X72.168 Y84.164 E13.59800
G1 X73.541 Y82.144 E13.71132
G1 X75.038 Y80.214 E13.82466
G1 X76.654 Y78.381 E13.93798
G1 X78.381 Y76.654 E14.05131
G1 X80.214 Y75.038 E14.16464
G1 X82.144 Y73.541 E14.27797
G1 X84.164 Y72.168 E14.39130
G1 X86.267 Y70.925 E14.50463
G1 X88.443 Y69.816 E14.61796
G1 X90.685 Y68.845 E14.73129
G1 X92.984 Y68.018 E14.84462
G1 X95.330 Y67.336 E14.95795
G1 X97.714 Y66.803 E15.07128
G1 X100.464 Y66.368 E15.20045
G1 X100.464 Y66.389 E15.20145
G1 X102.558 Y66.191 E15.29906
G1 X105.000 Y66.115 E15.41239
G1 X107.442 Y66.191 E15.52572
G1 X109.874 Y66.421 E15.63905
G1 X112.286 Y66.803 E15.75238
G1 X114.670 Y67.336 E15.86571
G1 X117.016 Y68.018 E15.97904
G1 X119.315 Y68.845 E16.09237
G1 X121.557 Y69.816 E16.20570
G1 X123.733 Y70.925 E16.31902
G1 X125.836 Y72.168 E16.43236
G1 X127.856 Y73.541 E16.54568
G1 X129.786 Y75.038 E16.65902
G1 X131.619 Y76.654 E16.77235
G1 X133.346 Y78.381 E16.88567
G1 X134.962 Y80.214 E16.99900
G1 X136.459 Y82.144 E17.11233
G1 X137.832 Y84.164 E17.22566
G1 X139.075 Y86.267 E17.33900
G1 X140.184 Y88.443 E17.45232
G1 X141.155 Y90.685 E17.56565
G1 X141.982 Y92.984 E17.67898
G1 X142.664 Y95.330 E17.79231
G1 X143.197 Y97.714 E17.90564
G1 X143.579 Y100.126 E18.01897
G1 X143.809 Y102.558 E18.13230
G1 X143.885 Y105.000 E18.24563
G1 X143.809 Y107.442 E18.35896
G1 X143.579 Y109.874 E18.47229
G1 X143.197 Y112.286 E18.58562
G1 X142.664 Y114.670 E18.69895
G1 X141.982 Y117.016 E18.81228
G1 X141.155 Y119.315 E18.92560
G1 X140.184 Y121.557 E19.03894
G1 X139.075 Y123.733 E19.15226
G1 X137.832 Y125.836 E19.26560
G1 X136.459 Y127.856 E19.37892
G1 X134.962 Y129.786 E19.49226
G1 X133.346 Y131.619 E19.60558
G1 X131.619 Y133.346 E19.71891
G1 X129.786 Y134.962 E19.83224
G1 X127.856 Y136.459 E19.94557
G1 X125.836 Y137.832 E20.05890
G1 X123.733 Y139.075 E20.17223
G1 X121.557 Y140.184 E20.28556
G1 X119.315 Y141.155 E20.39889
G1 X117.016 Y141.982 E20.51222
G1 X114.670 Y142.664 E20.62555
G1 X112.286 Y143.197 E20.73888
G1 X109.874 Y143.579 E20.85221
G1 X107.442 Y143.809 E20.96554
G1 X105.000 Y143.885 E21.07887
G1 X102.558 Y143.809 E21.19220
G1 X100.126 Y143.579 E21.30552
G1 X97.714 Y143.197 E21.41885
G1 X95.330 Y142.664 E21.53219
G1 X92.984 Y141.982 E21.64551
G1 X90.685 Y141.155 E21.75884
G1 X88.443 Y140.184 E21.87217
G1 X86.267 Y139.075 E21.98550
G1 X84.164 Y137.832 E22.09883
G1 X82.144 Y136.459 E22.21216
G1 X80.214 Y134.962 E22.32549
G1 X78.381 Y133.346 E22.43882
G1 X76.654 Y131.619 E22.55215
G1 X75.038 Y129.786 E22.66548
G1 X73.541 Y127.856 E22.77881
G1 X72.168 Y125.836 E22.89214
G1 X70.925 Y123.733 E23.00547
G1 X69.816 Y121.557 E23.11880
G1 X68.845 Y119.315 E23.23213
G1 X68.018 Y117.016 E23.34546
G1 X67.366 Y114.773 E23.45382
G1 X67.336 Y114.670 E23.45879
G1 X66.644 Y114.848 F7800.000
G1 X66.102 Y112.420 F540.000 E23.57420
G1 X65.712 Y109.963 E23.68961
G1 X65.506 Y107.775 E23.79158
G1 X65.487 Y107.775 E23.79243
G1 X65.400 Y105.000 E23.92122
G1 X65.487 Y102.225 E24.05002
G1 X65.506 Y102.225 E24.05087
G1 X65.712 Y100.037 E24.15284
G1 X66.102 Y97.580 E24.26825
G1 X66.644 Y95.152 E24.38366
G1 X67.338 Y92.763 E24.49908
G1 X68.181 Y90.422 E24.61449
G1 X69.169 Y88.139 E24.72990
G1 X70.298 Y85.923 E24.84531
G1 X71.565 Y83.781 E24.96073
G1 X72.963 Y81.724 E25.07613
G1 X74.488 Y79.758 E25.19155
G1 X76.133 Y77.892 E25.30696
G1 X77.892 Y76.133 E25.42237
G1 X79.758 Y74.488 E25.53778
G1 X81.724 Y72.963 E25.65320
G1 X83.781 Y71.565 E25.76861
G1 X85.923 Y70.298 E25.88402
G1 X88.139 Y69.169 E25.99943
G1 X90.422 Y68.181 E26.11484
G1 X92.763 Y67.338 E26.23025
G1 X95.152 Y66.644 E26.34567
G1 X97.580 Y66.102 E26.46108
G1 X100.037 Y65.712 E26.57649
G1 X102.514 Y65.478 E26.69190
G1 X105.000 Y65.400 E26.80731
G1 X107.775 Y65.487 E26.93611
G1 X107.775 Y65.506 E26.93696
G1 X109.963 Y65.712 E27.03893
G1 X112.420 Y66.102 E27.15434
G1 X114.848 Y66.644 E27.26975
G1 X117.237 Y67.338 E27.38517
G1 X119.578 Y68.181 E27.50058
G1 X121.861 Y69.169 E27.61599
G1 X124.077 Y70.298 E27.73140
G1 X126.133 Y71.514 E27.84222
G1 X128.276 Y72.963 E27.96222
G1 X130.242 Y74.488 E28.07763
G1 X132.108 Y76.133 E28.19304
G1 X133.867 Y77.892 E28.30845
G1 X135.512 Y79.758 E28.42386
G1 X137.037 Y81.724 E28.53928
G1 X138.435 Y83.781 E28.65469
G1 X139.702 Y85.923 E28.77010
G1 X140.831 Y88.139 E28.88551
G1 X141.819 Y90.422 E29.00092
G1 X142.662 Y92.763 E29.11634
G1 X143.356 Y95.152 E29.23175
G1 X143.898 Y97.580 E29.34716
G1 X144.288 Y100.037 E29.46257
G1 X144.522 Y102.514 E29.57798
G1 X144.600 Y105.000 E29.69340
G1 X144.522 Y107.486 E29.80881
G1 X144.288 Y109.963 E29.92422
G1 X143.898 Y112.420 E30.03963
G1 X143.356 Y114.848 E30.15504
G1 X142.662 Y117.237 E30.27046
G1 X141.819 Y119.578 E30.38587
G1 X140.831 Y121.861 E30.50128
G1 X139.702 Y124.077 E30.61669
G1 X138.435 Y126.219 E30.73210
G1 X137.037 Y128.276 E30.84751
G1 X135.512 Y130.242 E30.96293
G1 X133.867 Y132.108 E31.07834
G1 X132.108 Y133.867 E31.19375
G1 X130.242 Y135.512 E31.30916
G1 X128.276 Y137.037 E31.42457
G1 X126.219 Y138.435 E31.53998
G1 X124.077 Y139.702 E31.65540
G1 X121.861 Y140.831 E31.77081
G1 X119.578 Y141.819 E31.88622
G1 X117.237 Y142.662 E32.00163
G1 X114.848 Y143.356 E32.11705
G1 X112.420 Y143.898 E32.23246
G1 X109.963 Y144.288 E32.34787
G1 X107.486 Y144.522 E32.46328
G1 X105.000 Y144.600 E32.57869
G1 X102.514 Y144.522 E32.69411
G1 X100.037 Y144.288 E32.80952
G1 X97.580 Y143.898 E32.92493
G1 X95.152 Y143.356 E33.04034
G1 X92.763 Y142.662 E33.15575
G1 X90.422 Y141.819 E33.27116
G1 X88.139 Y140.831 E33.38658
G1 X85.923 Y139.702 E33.50199
G1 X83.781 Y138.435 E33.61740
G1 X81.724 Y137.037 E33.73281
G1 X79.758 Y135.512 E33.84823
G1 X77.892 Y133.867 E33.96364
G1 X76.133 Y132.108 E34.07905
G1 X74.488 Y130.242 E34.19446
G1 X72.907 Y128.194 E34.31446
G1 X71.565 Y126.219 E34.42527
G1 X70.298 Y124.077 E34.54069
G1 X69.169 Y121.861 E34.65610
G1 X68.181 Y119.578 E34.77151
G1 X67.338 Y117.237 E34.88692
G1 X66.674 Y114.951 E34.99737
G1 X66.644 Y114.848 E35.00233
G1 X67.160 Y114.354 F7800.000
G1 F1800.000 E34.00233
G92 E0
G1 X73.638 Y125.565 F7800.000
G1 F1800.000 E1.00000
G1 X84.435 Y136.362 F1080.000 E1.71417
G1 X87.083 Y137.992 E1.85958
G1 X72.008 Y122.917 E2.85665
G1 X70.934 Y120.824 E2.96666
G1 X89.176 Y139.066 E4.17319
G1 X90.984 Y139.857 E4.26553
G1 X70.143 Y119.016 E5.64401
G1 X69.521 Y117.375 E5.72609
G1 X92.627 Y140.481 E7.25440
G1 X94.163 Y140.999 E7.33018
G1 X69.001 Y115.837 E8.99439
G1 X68.585 Y114.402 E9.06428
G1 X95.598 Y141.415 E10.85098
G1 X96.936 Y141.736 E10.91534
G1 X68.264 Y113.064 E12.81174
G1 X67.974 Y111.756 E12.87442
G1 X98.244 Y142.026 E14.87655
G1 X99.454 Y142.218 E14.93384
G1 X67.783 Y110.546 E17.02866
G1 X67.600 Y109.345 E17.08545
G1 X100.655 Y142.400 E19.27175
G1 X101.779 Y142.506 E19.32457
G1 X67.494 Y108.221 E21.59226
G1 X67.389 Y107.098 E21.64499
G1 X102.902 Y142.611 E23.99386
G1 X103.953 Y142.643 E24.04302
G1 X67.356 Y106.047 E26.46357
G1 X67.323 Y104.996 E26.51276
G1 X105.004 Y142.677 E29.00504
G1 X106.005 Y142.659 E29.05184
G1 X67.341 Y103.995 E31.60914
G1 X67.372 Y103.008 E31.65533
G1 X106.992 Y142.628 E34.27587
G1 X107.955 Y142.573 E34.32099
G1 X67.426 Y102.044 E37.00165
G1 X67.514 Y101.114 E37.04535
G1 X108.885 Y142.485 E39.78174
G1 X109.817 Y142.398 E39.82548
G1 X67.602 Y100.183 E42.61765
G1 X67.735 Y99.299 E42.65949
G1 X110.701 Y142.265 E45.50133
G1 X111.580 Y142.125 E45.54296
G1 X67.874 Y98.420 E48.43373
G1 X68.025 Y97.552 E48.47491
G1 X112.448 Y141.975 E51.41310
G1 X113.280 Y141.789 E51.45299
G1 X68.211 Y96.720 E54.43392
G1 X68.397 Y95.888 E54.47381
G1 X114.112 Y141.603 E57.49749
G1 X114.924 Y141.396 E57.53666
G1 X68.604 Y95.076 E60.60034
G1 X68.833 Y94.287 E60.63877
G1 X115.712 Y141.167 E63.73944
G1 X116.501 Y140.938 E63.77787
G1 X69.062 Y93.499 E66.91557
G1 X69.317 Y92.734 E66.95323
G1 X117.266 Y140.684 E70.12468
G1 X118.014 Y140.414 E70.16187
G1 X69.586 Y91.986 E73.36497
G1 X69.856 Y91.237 E73.40219
G1 X118.763 Y140.144 E76.63699
G1 X119.486 Y139.849 E76.67352
G1 X70.150 Y90.514 E79.93668
