; generated by Slic3r 0.9.8 on 2013-07-03 at 20:32:49

; layer_height = 0.18
; perimeters = 3
; top_solid_layers = 3
; bottom_solid_layers = 7
; fill_density = 0.4
; perimeter_speed = 30
; infill_speed = 60
; travel_speed = 130
; scale = 1
; nozzle_diameter = 0.4
; filament_diameter = 2.8
; extrusion_multiplier = 1
; perimeters extrusion width = 0.64mm
; infill extrusion width = 0.64mm
; first layer extrusion width = 0.80mm

M107
M190 S5 ; wait for bed temperature to be reached
M104 S220 ; set temperature
G28 ; home all axes
M109 S220 ; wait for temperature to be reached
G90 ; use absolute coordinates
G21 ; set units to millimeters
G92 E0
M82 ; use absolute distances for extrusion
G1 F1800.000 E-1.00000
G92 E0
G1 Z0.400 F7800.000
G1 X118.580 Y118.040
G1 F1800.000 E1.00000
G1 X117.720 Y118.880 F540.000 E1.05577
G1 X117.150 Y119.380 E1.09095
G1 X115.910 Y120.350 E1.16398
G1 X115.280 Y120.780 E1.19937
G1 X114.250 Y121.400 E1.25514
G1 X113.200 Y121.950 E1.31013
G1 X112.800 Y122.130 E1.33048
G1 X111.740 Y122.580 E1.38391
G1 X111.020 Y122.840 E1.41942
G1 X109.870 Y123.180 E1.47506
G1 X108.770 Y123.440 E1.52749
G1 X108.320 Y123.530 E1.54878
G1 X107.130 Y123.710 E1.60462
G1 X106.380 Y123.780 E1.63957
G1 X105.180 Y123.820 E1.69527
G1 X103.610 Y123.780 E1.76813
G1 X102.860 Y123.710 E1.80307
G1 X101.670 Y123.530 E1.85891
G1 X100.120 Y123.180 E1.93263
G1 X98.970 Y122.840 E1.98826
G1 X98.250 Y122.580 E2.02378
G1 X96.790 Y121.950 E2.09755
G1 X96.120 Y121.610 E2.13240
G1 X94.710 Y120.780 E2.20831
G1 X94.080 Y120.350 E2.24369
G1 X93.130 Y119.620 E2.29928
G1 X92.270 Y118.880 E2.35191
G1 X91.950 Y118.580 E2.37226
G1 X91.110 Y117.720 E2.42803
G1 X90.610 Y117.150 E2.46321
G1 X89.640 Y115.910 E2.53625
G1 X89.210 Y115.280 E2.57163
G1 X88.590 Y114.250 E2.62741
G1 X88.040 Y113.200 E2.68240
G1 X87.860 Y112.800 E2.70275
G1 X87.410 Y111.740 E2.75617
G1 X87.150 Y111.020 E2.79168
G1 X86.810 Y109.870 E2.84732
G1 X86.550 Y108.770 E2.89976
G1 X86.460 Y108.320 E2.92105
G1 X86.280 Y107.130 E2.97688
G1 X86.210 Y106.380 E3.01183
G1 X86.170 Y105.180 E3.06753
G1 X86.210 Y103.610 E3.14039
G1 X86.280 Y102.860 E3.17533
G1 X86.460 Y101.670 E3.23117
G1 X86.810 Y100.120 E3.30489
G1 X87.150 Y98.970 E3.36052
G1 X87.410 Y98.250 E3.39604
G1 X88.040 Y96.790 E3.46981
G1 X88.380 Y96.120 E3.50466
G1 X89.210 Y94.710 E3.58057
G1 X89.640 Y94.080 E3.61596
G1 X90.370 Y93.130 E3.67154
G1 X91.110 Y92.270 E3.72417
G1 X91.410 Y91.950 E3.74452
G1 X92.270 Y91.110 E3.80029
G1 X92.840 Y90.610 E3.83547
G1 X94.080 Y89.640 E3.90851
G1 X94.710 Y89.210 E3.94389
G1 X95.740 Y88.590 E3.99967
G1 X96.790 Y88.040 E4.05466
G1 X97.190 Y87.860 E4.07501
G1 X98.250 Y87.410 E4.12843
G1 X98.970 Y87.150 E4.16394
G1 X100.120 Y86.810 E4.21958
G1 X101.220 Y86.550 E4.27202
G1 X101.670 Y86.460 E4.29331
G1 X102.860 Y86.280 E4.34914
G1 X103.610 Y86.210 E4.38409
G1 X104.810 Y86.170 E4.43979
G1 X106.380 Y86.210 E4.51265
G1 X107.130 Y86.280 E4.54760
G1 X108.320 Y86.460 E4.60343
G1 X109.870 Y86.810 E4.67715
G1 X111.020 Y87.150 E4.73278
G1 X111.740 Y87.410 E4.76830
G1 X113.200 Y88.040 E4.84207
G1 X113.870 Y88.380 E4.87692
G1 X115.280 Y89.210 E4.95283
G1 X115.910 Y89.640 E4.98822
G1 X116.860 Y90.370 E5.04380
G1 X117.720 Y91.110 E5.09643
G1 X118.040 Y91.410 E5.11678
G1 X118.880 Y92.270 E5.17255
G1 X119.380 Y92.840 E5.20773
G1 X120.350 Y94.080 E5.28077
G1 X120.780 Y94.710 E5.31615
G1 X121.400 Y95.740 E5.37193
G1 X121.950 Y96.790 E5.42692
G1 X122.130 Y97.190 E5.44727
G1 X122.580 Y98.250 E5.50069
G1 X122.840 Y98.970 E5.53621
G1 X123.180 Y100.120 E5.59184
G1 X123.440 Y101.220 E5.64428
G1 X123.530 Y101.670 E5.66557
G1 X123.710 Y102.860 E5.72140
G1 X123.780 Y103.610 E5.75635
G1 X123.820 Y104.810 E5.81205
G1 X123.780 Y106.380 E5.88491
G1 X123.710 Y107.130 E5.91986
G1 X123.530 Y108.320 E5.97569
G1 X123.180 Y109.870 E6.04941
G1 X122.840 Y111.020 E6.10505
G1 X122.580 Y111.740 E6.14056
G1 X121.950 Y113.200 E6.21433
G1 X121.610 Y113.870 E6.24919
G1 X120.780 Y115.280 E6.32509
G1 X120.350 Y115.910 E6.36048
G1 X119.620 Y116.860 E6.41606
G1 X118.653 Y117.962 E6.48406
G1 X118.580 Y118.040 E6.48903
G1 F1800.000 E5.48903
G92 E0
G1 X94.832 Y108.304 F7800.000
G1 F1800.000 E1.00000
G1 X94.645 Y107.659 F540.000 E1.03116
G1 X94.499 Y107.003 E1.06231
G1 X94.394 Y106.340 E1.09347
G1 X94.330 Y105.671 E1.12463
G1 X94.309 Y105.000 E1.15579
G1 X94.330 Y104.329 E1.18694
G1 X94.394 Y103.660 E1.21810
G1 X94.499 Y102.997 E1.24926
G1 X94.645 Y102.341 E1.28042
G1 X94.832 Y101.696 E1.31158
G1 X95.060 Y101.064 E1.34273
G1 X95.327 Y100.448 E1.37389
G1 X95.632 Y99.850 E1.40505
G1 X95.973 Y99.272 E1.43621
G1 X96.351 Y98.716 E1.46737
G1 X96.763 Y98.185 E1.49852
G1 X97.207 Y97.682 E1.52968
G1 X97.682 Y97.207 E1.56084
G1 X98.185 Y96.763 E1.59199
G1 X98.716 Y96.351 E1.62315
G1 X99.272 Y95.973 E1.65431
G1 X99.850 Y95.632 E1.68547
G1 X100.448 Y95.327 E1.71663
G1 X101.064 Y95.060 E1.74779
G1 X101.696 Y94.832 E1.77894
G1 X102.341 Y94.645 E1.81010
G1 X102.997 Y94.499 E1.84126
G1 X103.660 Y94.394 E1.87241
G1 X104.329 Y94.330 E1.90358
G1 X105.000 Y94.309 E1.93473
G1 X105.671 Y94.330 E1.96589
G1 X106.340 Y94.394 E1.99705
G1 X107.003 Y94.499 E2.02821
G1 X107.659 Y94.645 E2.05936
G1 X108.304 Y94.832 E2.09052
G1 X108.935 Y95.060 E2.12168
G1 X109.552 Y95.327 E2.15284
G1 X110.150 Y95.632 E2.18400
G1 X110.728 Y95.973 E2.21515
G1 X111.284 Y96.351 E2.24631
G1 X111.815 Y96.763 E2.27747
G1 X112.318 Y97.207 E2.30863
G1 X112.793 Y97.682 E2.33978
G1 X113.237 Y98.185 E2.37094
G1 X113.649 Y98.716 E2.40210
G1 X114.027 Y99.272 E2.43326
G1 X114.368 Y99.850 E2.46441
G1 X114.673 Y100.448 E2.49557
G1 X114.940 Y101.064 E2.52673
G1 X115.168 Y101.696 E2.55789
G1 X115.355 Y102.341 E2.58905
G1 X115.501 Y102.997 E2.62020
G1 X115.606 Y103.660 E2.65136
G1 X115.670 Y104.329 E2.68252
G1 X115.691 Y105.000 E2.71368
G1 X115.670 Y105.671 E2.74483
G1 X115.606 Y106.340 E2.77599
G1 X115.501 Y107.003 E2.80715
G1 X115.355 Y107.659 E2.83831
G1 X115.168 Y108.304 E2.86946
G1 X114.940 Y108.935 E2.90062
G1 X114.673 Y109.552 E2.93178
G1 X114.368 Y110.150 E2.96294
G1 X114.027 Y110.728 E2.99410
G1 X113.649 Y111.284 E3.02526
G1 X113.237 Y111.815 E3.05641
G1 X112.793 Y112.318 E3.08757
G1 X112.318 Y112.793 E3.11873
G1 X111.815 Y113.237 E3.14988
G1 X111.284 Y113.649 E3.18104
G1 X110.728 Y114.027 E3.21220
G1 X110.150 Y114.368 E3.24336
G1 X109.552 Y114.673 E3.27452
G1 X108.936 Y114.940 E3.30567
G1 X108.304 Y115.168 E3.33683
G1 X107.659 Y115.355 E3.36799
G1 X107.003 Y115.501 E3.39915
G1 X106.340 Y115.606 E3.43030
G1 X105.671 Y115.670 E3.46147
G1 X105.000 Y115.691 E3.49262
G1 X104.329 Y115.670 E3.52378
G1 X103.660 Y115.606 E3.55494
G1 X102.997 Y115.501 E3.58610
G1 X102.341 Y115.355 E3.61725
G1 X101.696 Y115.168 E3.64841
G1 X101.064 Y114.940 E3.67957
G1 X100.448 Y114.673 E3.71073
G1 X99.850 Y114.368 E3.74188
G1 X99.272 Y114.027 E3.77304
G1 X98.716 Y113.649 E3.80420
G1 X98.185 Y113.237 E3.83536
G1 X97.682 Y112.793 E3.86651
G1 X97.207 Y112.318 E3.89767
G1 X96.763 Y111.815 E3.92883
G1 X96.351 Y111.284 E3.95999
G1 X95.973 Y110.728 E3.99114
G1 X95.632 Y110.150 E4.02230
G1 X95.327 Y109.552 E4.05346
G1 X95.060 Y108.936 E4.08462
G1 X94.869 Y108.404 E4.11081
G1 X94.832 Y108.304 E4.11578
G1 X94.153 Y108.524 F7800.000
G1 X93.953 Y107.836 F540.000 E4.14902
G1 X93.797 Y107.137 E4.18226
G1 X93.685 Y106.429 E4.21550
G1 X93.617 Y105.716 E4.24874
G1 X93.595 Y105.000 E4.28198
G1 X93.617 Y104.284 E4.31522
G1 X93.685 Y103.571 E4.34846
G1 X93.797 Y102.863 E4.38170
G1 X93.953 Y102.164 E4.41494
G1 X94.153 Y101.476 E4.44818
G1 X94.396 Y100.801 E4.48142
G1 X94.680 Y100.144 E4.51466
G1 X95.005 Y99.505 E4.54790
G1 X95.370 Y98.889 E4.58114
G1 X95.773 Y98.296 E4.61438
G1 X96.212 Y97.730 E4.64762
G1 X96.686 Y97.193 E4.68086
G1 X97.193 Y96.686 E4.71410
G1 X97.730 Y96.212 E4.74734
G1 X98.296 Y95.773 E4.78058
G1 X98.889 Y95.370 E4.81382
G1 X99.505 Y95.006 E4.84706
G1 X100.144 Y94.680 E4.88030
G1 X100.801 Y94.396 E4.91354
G1 X101.476 Y94.153 E4.94678
G1 X102.164 Y93.953 E4.98002
G1 X102.863 Y93.797 E5.01326
G1 X103.571 Y93.685 E5.04650
G1 X104.284 Y93.617 E5.07974
G1 X105.000 Y93.595 E5.11298
G1 X105.716 Y93.617 E5.14622
G1 X106.429 Y93.685 E5.17946
G1 X107.137 Y93.797 E5.21270
G1 X107.836 Y93.953 E5.24594
G1 X108.524 Y94.153 E5.27918
G1 X109.199 Y94.396 E5.31242
G1 X109.856 Y94.680 E5.34566
G1 X110.495 Y95.005 E5.37890
G1 X111.111 Y95.370 E5.41214
G1 X111.704 Y95.773 E5.44539
G1 X112.270 Y96.212 E5.47862
G1 X112.807 Y96.686 E5.51186
G1 X113.314 Y97.193 E5.54510
G1 X113.788 Y97.730 E5.57834
G1 X114.227 Y98.296 E5.61158
G1 X114.630 Y98.889 E5.64483
G1 X114.994 Y99.505 E5.67806
G1 X115.320 Y100.144 E5.71131
G1 X115.604 Y100.801 E5.74455
G1 X115.847 Y101.476 E5.77779
G1 X116.047 Y102.164 E5.81103
G1 X116.203 Y102.863 E5.84426
G1 X116.315 Y103.571 E5.87750
G1 X116.383 Y104.284 E5.91075
G1 X116.405 Y105.000 E5.94399
G1 X116.383 Y105.716 E5.97723
G1 X116.315 Y106.429 E6.01047
G1 X116.203 Y107.137 E6.04371
G1 X116.047 Y107.836 E6.07695
G1 X115.847 Y108.524 E6.11019
G1 X115.604 Y109.199 E6.14343
G1 X115.320 Y109.856 E6.17667
G1 X114.994 Y110.495 E6.20991
G1 X114.630 Y111.111 E6.24315
G1 X114.227 Y111.704 E6.27639
G1 X113.788 Y112.270 E6.30963
G1 X113.314 Y112.807 E6.34287
G1 X112.807 Y113.314 E6.37611
G1 X112.270 Y113.788 E6.40935
G1 X111.704 Y114.227 E6.44259
G1 X111.111 Y114.630 E6.47583
G1 X110.495 Y114.994 E6.50907
G1 X109.856 Y115.320 E6.54231
G1 X109.199 Y115.604 E6.57555
G1 X108.524 Y115.847 E6.60879
G1 X107.836 Y116.047 E6.64203
G1 X107.137 Y116.203 E6.67527
G1 X106.429 Y116.315 E6.70851
G1 X105.716 Y116.383 E6.74175
G1 X105.000 Y116.405 E6.77499
G1 X104.284 Y116.383 E6.80823
G1 X103.571 Y116.315 E6.84147
G1 X102.863 Y116.203 E6.87471
G1 X102.164 Y116.047 E6.90795
G1 X101.476 Y115.847 E6.94119
G1 X100.801 Y115.604 E6.97443
G1 X100.144 Y115.320 E7.00767
G1 X99.505 Y114.994 E7.04091
G1 X98.889 Y114.630 E7.07415
G1 X98.296 Y114.227 E7.10740
G1 X97.730 Y113.788 E7.14063
G1 X97.193 Y113.314 E7.17387
G1 X96.686 Y112.807 E7.20712
G1 X96.212 Y112.270 E7.24035
G1 X95.773 Y111.704 E7.27359
G1 X95.370 Y111.111 E7.30683
G1 X95.006 Y110.495 E7.34007
G1 X94.680 Y109.856 E7.37332
G1 X94.396 Y109.199 E7.40656
G1 X94.189 Y108.625 E7.43483
G1 X94.153 Y108.524 E7.43980
G1 X93.473 Y108.745 F7800.000
G1 X93.261 Y108.014 F324.000 E7.47512
G1 X93.095 Y107.271 E7.51044
G1 X92.976 Y106.519 E7.54576
G1 X92.904 Y105.761 E7.58109
G1 X92.880 Y105.000 E7.61641
G1 X92.904 Y104.239 E7.65173
G1 X92.976 Y103.481 E7.68705
G1 X93.095 Y102.729 E7.72238
G1 X93.261 Y101.986 E7.75770
G1 X93.473 Y101.255 E7.79302
G1 X93.731 Y100.538 E7.82834
G1 X94.034 Y99.840 E7.86367
G1 X94.379 Y99.161 E7.89899
G1 X94.767 Y98.506 E7.93431
G1 X95.195 Y97.876 E7.96964
G1 X95.662 Y97.275 E8.00496
G1 X96.165 Y96.703 E8.04028
G1 X96.703 Y96.165 E8.07560
G1 X97.275 Y95.662 E8.11092
G1 X97.876 Y95.195 E8.14625
G1 X98.506 Y94.767 E8.18157
G1 X99.161 Y94.379 E8.21689
G1 X99.840 Y94.034 E8.25222
G1 X100.538 Y93.731 E8.28754
G1 X101.255 Y93.473 E8.32286
G1 X101.986 Y93.261 E8.35818
G1 X102.729 Y93.095 E8.39351
G1 X103.481 Y92.976 E8.42883
G1 X104.239 Y92.904 E8.46415
G1 X105.000 Y92.880 E8.49947
G1 X105.761 Y92.904 E8.53480
G1 X106.519 Y92.976 E8.57012
G1 X107.271 Y93.095 E8.60544
G1 X108.014 Y93.261 E8.64076
G1 X108.745 Y93.473 E8.67609
G1 X109.462 Y93.731 E8.71141
G1 X110.160 Y94.034 E8.74673
G1 X110.839 Y94.379 E8.78205
G1 X111.494 Y94.767 E8.81738
G1 X112.124 Y95.195 E8.85270
G1 X112.725 Y95.662 E8.88802
G1 X113.297 Y96.165 E8.92335
G1 X113.835 Y96.703 E8.95867
G1 X114.338 Y97.275 E8.99399
G1 X114.805 Y97.876 E9.02931
G1 X115.233 Y98.506 E9.06464
G1 X115.621 Y99.161 E9.09996
G1 X115.966 Y99.840 E9.13528
G1 X116.269 Y100.538 E9.17060
G1 X116.527 Y101.255 E9.20593
G1 X116.739 Y101.986 E9.24125
G1 X116.905 Y102.729 E9.27657
G1 X117.024 Y103.481 E9.31189
G1 X117.096 Y104.239 E9.34722
G1 X117.120 Y105.000 E9.38254
G1 X117.096 Y105.761 E9.41786
G1 X117.024 Y106.519 E9.45318
G1 X116.905 Y107.271 E9.48851
G1 X116.739 Y108.014 E9.52383
G1 X116.527 Y108.745 E9.55915
G1 X116.269 Y109.462 E9.59447
G1 X115.966 Y110.160 E9.62980
G1 X115.621 Y110.839 E9.66512
G1 X115.233 Y111.494 E9.70044
G1 X114.805 Y112.124 E9.73577
G1 X114.338 Y112.725 E9.77109
G1 X113.835 Y113.297 E9.80641
G1 X113.297 Y113.835 E9.84173
G1 X112.725 Y114.338 E9.87705
G1 X112.124 Y114.805 E9.91238
G1 X111.494 Y115.233 E9.94770
G1 X110.839 Y115.621 E9.98302
G1 X110.160 Y115.966 E10.01835
G1 X109.462 Y116.269 E10.05367
G1 X108.745 Y116.527 E10.08899
G1 X108.014 Y116.739 E10.12431
G1 X107.271 Y116.905 E10.15964
G1 X106.519 Y117.024 E10.19496
G1 X105.761 Y117.096 E10.23028
G1 X105.000 Y117.120 E10.26560
G1 X104.239 Y117.096 E10.30093
G1 X103.481 Y117.024 E10.33625
G1 X102.729 Y116.905 E10.37157
G1 X101.986 Y116.739 E10.40689
G1 X101.255 Y116.527 E10.44222
G1 X100.538 Y116.269 E10.47754
G1 X99.840 Y115.966 E10.51286
G1 X99.161 Y115.621 E10.54819
G1 X98.506 Y115.233 E10.58351
G1 X97.876 Y114.805 E10.61883
G1 X97.275 Y114.338 E10.65415
G1 X96.703 Y113.835 E10.68948
G1 X96.165 Y113.297 E10.72480
G1 X95.662 Y112.725 E10.76012
G1 X95.195 Y112.124 E10.79544
G1 X94.767 Y111.494 E10.83077
G1 X94.379 Y110.839 E10.86609
G1 X94.034 Y110.160 E10.90141
G1 X93.731 Y109.462 E10.93673
G1 X93.510 Y108.846 E10.96709
G1 X93.473 Y108.745 E10.97206
G1 X93.957 Y108.220 F7800.000
G1 F1800.000 E9.97206
G92 E0
G1 X95.024 Y105.325 F7800.000
G1 F1800.000 E1.00000
G1 X95.024 Y104.675 F1080.000 E1.03116
G1 F1800.000 E0.03116
G92 E0
G1 X95.763 Y100.917 F7800.000
G1 F1800.000 E1.00000
G1 X95.763 Y109.083 F1080.000 E1.39200
G1 X96.502 Y110.540 E1.47044
G1 X96.502 Y99.460 E2.00235
G1 X97.241 Y98.413 E2.06388
G1 X97.241 Y111.587 E2.69632
G1 X97.980 Y112.403 E2.74915
G1 X97.980 Y97.597 E3.45990
G1 X98.719 Y96.931 E3.50765
G1 X98.719 Y113.069 E4.28233
G1 X99.458 Y113.611 E4.32633
G1 X99.458 Y96.389 E5.15307
G1 X100.197 Y95.935 E5.19471
G1 X100.197 Y114.065 E6.06506
G1 X100.936 Y114.428 E6.10457
G1 X100.936 Y95.572 E7.00972
G1 X101.675 Y95.278 E7.04791
G1 X101.675 Y114.722 E7.98134
G1 X102.414 Y114.954 E8.01851
G1 X102.414 Y95.046 E8.97417
G1 X103.153 Y94.875 E9.01058
G1 X103.153 Y115.124 E9.98264
G1 X103.891 Y115.232 E10.01849
G1 X103.891 Y94.768 E11.00091
G1 X104.630 Y94.714 E11.03648
G1 X104.630 Y115.286 E12.02406
G1 X105.370 Y115.286 E12.05953
G1 X105.370 Y94.714 E13.04711
G1 X106.108 Y94.768 E13.08268
G1 X106.108 Y115.232 E14.06510
G1 X106.847 Y115.124 E14.10095
G1 X106.847 Y94.875 E15.07301
G1 X107.586 Y95.046 E15.10942
G1 X107.586 Y114.954 E16.06508
G1 X108.325 Y114.722 E16.10225
G1 X108.325 Y95.278 E17.03568
G1 X109.064 Y95.572 E17.07387
G1 X109.064 Y114.428 E17.97902
G1 X109.803 Y114.065 E18.01853
G1 X109.803 Y95.935 E18.88888
G1 X110.542 Y96.389 E18.93052
G1 X110.542 Y113.611 E19.75726
G1 X111.281 Y113.069 E19.80126
G1 X111.281 Y96.931 E20.57594
G1 X112.020 Y97.597 E20.62369
G1 X112.020 Y112.403 E21.33444
G1 X112.759 Y111.587 E21.38727
G1 X112.759 Y98.413 E22.01971
G1 X113.498 Y99.460 E22.08123
G1 X113.498 Y110.540 E22.61314
G1 X114.237 Y109.083 E22.69158
G1 X114.237 Y100.917 E23.08358
G1 F1800.000 E22.08358
G92 E0
G1 X114.976 Y104.676 F7800.000
G1 F1800.000 E1.00000
G1 X114.976 Y105.324 F1080.000 E1.03114
M106 S240
M104 S215 ; set temperature
G1 F1800.000 E0.03114
G92 E0
G1 Z0.580 F7800.000
G1 X99.092 Y95.691
G1 F1800.000 E1.00000
G1 X99.688 Y95.338 F1800.000 E1.01218
G1 X100.306 Y95.024 E1.02435
G1 X100.941 Y94.749 E1.03653
G1 X101.593 Y94.514 E1.04871
G1 X102.258 Y94.321 E1.06088
G1 X102.934 Y94.170 E1.07306
G1 X103.618 Y94.061 E1.08523
G1 X104.308 Y93.996 E1.09741
G1 X105.000 Y93.974 E1.10959
G1 X105.692 Y93.996 E1.12176
G1 X106.382 Y94.061 E1.13394
G1 X107.066 Y94.170 E1.14612
G1 X107.742 Y94.321 E1.15829
G1 X108.407 Y94.514 E1.17047
G1 X109.059 Y94.749 E1.18264
G1 X109.694 Y95.024 E1.19482
G1 X110.312 Y95.338 E1.20700
G1 X110.908 Y95.691 E1.21917
G1 X111.481 Y96.080 E1.23135
G1 X112.028 Y96.505 E1.24353
G1 X112.548 Y96.963 E1.25570
G1 X113.037 Y97.453 E1.26788
G1 X113.495 Y97.972 E1.28005
G1 X113.920 Y98.519 E1.29223
G1 X114.309 Y99.092 E1.30441
G1 X114.662 Y99.688 E1.31658
G1 X114.976 Y100.306 E1.32876
G1 X115.251 Y100.941 E1.34094
G1 X115.486 Y101.593 E1.35311
