; generated by Slic3r 0.9.8 on 2013-07-03 at 21:04:45

; layer_height = 0.18
; perimeters = 3
; top_solid_layers = 3
; bottom_solid_layers = 7
; fill_density = 0.4
; perimeter_speed = 30
; infill_speed = 60
; travel_speed = 130
; scale = 1
; nozzle_diameter = 0.4
; filament_diameter = 2.8
; extrusion_multiplier = 1
; perimeters extrusion width = 0.64mm
; infill extrusion width = 0.64mm
; first layer extrusion width = 0.36mm

M107
M104 S220 ; set temperature
G28 ; home all axes
G1 Z20 F2000 ; down some millimeters
M109 S220 ; wait for temperature to be reached
G90 ; use absolute coordinates
G21 ; set units to millimeters
G92 E0
M82 ; use absolute distances for extrusion
G1 F1800.000 E-1.00000
G92 E0
G1 Z0.180 F7800.000
G1 X113.840 Y113.740
G1 F1800.000 E1.00000
G1 X113.290 Y114.270 F540.000 E1.00823
G1 X112.740 Y114.730 E1.01596
G1 X111.970 Y115.300 E1.02628
G1 X111.320 Y115.710 E1.03456
G1 X110.770 Y116.020 E1.04136
G1 X110.430 Y116.190 E1.04546
G1 X109.920 Y116.410 E1.05144
G1 X109.210 Y116.690 E1.05966
G1 X108.450 Y116.940 E1.06828
G1 X107.710 Y117.130 E1.07652
G1 X106.970 Y117.270 E1.08463
G1 X106.220 Y117.370 E1.09278
G1 X105.540 Y117.430 E1.10014
G1 X105.150 Y117.440 E1.10434
G1 X103.810 Y117.370 E1.11880
G1 X103.210 Y117.310 E1.12530
G1 X102.840 Y117.250 E1.12934
G1 X102.280 Y117.130 E1.13551
G1 X101.540 Y116.940 E1.14374
G1 X100.600 Y116.630 E1.15440
G1 X99.900 Y116.340 E1.16257
G1 X99.330 Y116.060 E1.16941
G1 X98.660 Y115.690 E1.17766
G1 X98.250 Y115.440 E1.18283
G1 X97.930 Y115.230 E1.18695
G1 X97.310 Y114.770 E1.19527
G1 X96.730 Y114.280 E1.20345
G1 X96.340 Y113.920 E1.20917
G1 X95.710 Y113.260 E1.21900
G1 X95.220 Y112.680 E1.22718
G1 X94.690 Y111.970 E1.23673
G1 X94.280 Y111.320 E1.24501
G1 X93.800 Y110.430 E1.25591
G1 X93.300 Y109.210 E1.27011
G1 X93.130 Y108.730 E1.27560
G1 X93.020 Y108.370 E1.27965
G1 X92.850 Y107.680 E1.28731
G1 X92.710 Y106.930 E1.29553
G1 X92.640 Y106.430 E1.30097
G1 X92.560 Y105.380 E1.31232
G1 X92.560 Y104.610 E1.32061
G1 X92.600 Y103.940 E1.32785
G1 X92.710 Y103.060 E1.33740
G1 X92.850 Y102.310 E1.34562
G1 X93.020 Y101.620 E1.35328
G1 X93.300 Y100.780 E1.36282
G1 X93.800 Y99.560 E1.37703
G1 X94.280 Y98.670 E1.38792
G1 X94.690 Y98.020 E1.39620
G1 X95.030 Y97.550 E1.40245
G1 X95.720 Y96.700 E1.41425
G1 X96.250 Y96.150 E1.42248
G1 X96.790 Y95.640 E1.43048
G1 X97.550 Y95.030 E1.44098
G1 X98.020 Y94.690 E1.44723
G1 X98.670 Y94.280 E1.45551
G1 X99.560 Y93.800 E1.46641
G1 X100.780 Y93.300 E1.48061
G1 X101.540 Y93.050 E1.48923
G1 X102.280 Y92.860 E1.49746
G1 X103.020 Y92.720 E1.50558
G1 X103.770 Y92.620 E1.51373
G1 X104.610 Y92.560 E1.52281
G1 X105.380 Y92.560 E1.53110
G1 X106.050 Y92.600 E1.53833
G1 X106.930 Y92.710 E1.54789
G1 X107.680 Y92.850 E1.55611
G1 X108.370 Y93.020 E1.56377
G1 X109.210 Y93.300 E1.57331
G1 X110.430 Y93.800 E1.58751
G1 X111.320 Y94.280 E1.59841
G1 X111.970 Y94.690 E1.60669
G1 X112.440 Y95.030 E1.61294
G1 X113.200 Y95.640 E1.62344
G1 X113.480 Y95.900 E1.62756
G1 X114.270 Y96.700 E1.63967
G1 X114.960 Y97.550 E1.65147
G1 X115.300 Y98.020 E1.65772
G1 X115.710 Y98.670 E1.66600
G1 X116.190 Y99.560 E1.67689
G1 X116.690 Y100.780 E1.69110
G1 X116.940 Y101.540 E1.69972
G1 X117.130 Y102.280 E1.70795
G1 X117.270 Y103.020 E1.71607
G1 X117.370 Y103.770 E1.72422
G1 X117.430 Y104.610 E1.73329
G1 X117.430 Y105.380 E1.74159
G1 X117.390 Y106.050 E1.74882
G1 X117.280 Y106.930 E1.75838
G1 X117.140 Y107.680 E1.76660
G1 X116.970 Y108.370 E1.77425
G1 X116.630 Y109.390 E1.78584
G1 X116.420 Y109.910 E1.79188
G1 X116.100 Y110.600 E1.80008
G1 X115.710 Y111.320 E1.80890
G1 X115.300 Y111.970 E1.81718
G1 X114.730 Y112.740 E1.82750
G1 X114.350 Y113.200 E1.83393
G1 X113.878 Y113.700 E1.84134
G1 X113.840 Y113.740 E1.84193
G1 F1800.000 E0.84193
G92 E0
G1 X101.598 Y109.112 F7800.000
G1 F1800.000 E1.00000
G1 X101.347 Y108.890 F540.000 E1.00361
G1 X100.888 Y108.402 E1.01083
G1 X100.682 Y108.137 E1.01445
G1 X100.323 Y107.571 E1.02167
G1 X100.171 Y107.272 E1.02528
G1 X99.924 Y106.649 E1.03250
G1 X99.831 Y106.327 E1.03611
G1 X99.705 Y105.669 E1.04334
G1 X99.663 Y105.000 E1.05056
G1 X99.705 Y104.331 E1.05778
G1 X99.831 Y103.673 E1.06500
G1 X99.924 Y103.351 E1.06861
G1 X100.171 Y102.728 E1.07583
G1 X100.323 Y102.429 E1.07945
G1 X100.682 Y101.863 E1.08667
G1 X100.888 Y101.598 E1.09028
G1 X101.347 Y101.110 E1.09750
G1 X101.598 Y100.888 E1.10111
G1 X101.863 Y100.682 E1.10472
G1 X102.429 Y100.323 E1.11195
G1 X102.728 Y100.171 E1.11556
G1 X103.351 Y99.924 E1.12278
G1 X103.673 Y99.831 E1.12639
G1 X104.331 Y99.705 E1.13361
G1 X105.000 Y99.663 E1.14083
G1 X105.669 Y99.705 E1.14806
G1 X106.327 Y99.831 E1.15528
G1 X106.649 Y99.924 E1.15889
G1 X106.965 Y100.038 E1.16250
G1 X107.571 Y100.323 E1.16972
G1 X108.137 Y100.682 E1.17694
G1 X108.402 Y100.888 E1.18056
G1 X108.653 Y101.110 E1.18417
G1 X109.112 Y101.598 E1.19139
G1 X109.318 Y101.863 E1.19500
G1 X109.677 Y102.429 E1.20222
G1 X109.829 Y102.728 E1.20584
G1 X110.076 Y103.351 E1.21306
G1 X110.169 Y103.673 E1.21667
G1 X110.295 Y104.331 E1.22389
G1 X110.337 Y105.000 E1.23111
G1 X110.295 Y105.669 E1.23833
G1 X110.169 Y106.327 E1.24556
G1 X110.076 Y106.649 E1.24917
G1 X109.829 Y107.272 E1.25639
G1 X109.677 Y107.571 E1.26000
G1 X109.318 Y108.137 E1.26722
G1 X109.112 Y108.402 E1.27084
G1 X108.890 Y108.653 E1.27445
G1 X108.402 Y109.112 E1.28167
G1 X108.137 Y109.318 E1.28528
G1 X107.571 Y109.677 E1.29250
G1 X107.272 Y109.829 E1.29612
G1 X106.649 Y110.076 E1.30334
G1 X106.327 Y110.169 E1.30695
G1 X105.669 Y110.295 E1.31417
G1 X105.335 Y110.326 E1.31778
G1 X104.665 Y110.326 E1.32500
G1 X104.331 Y110.295 E1.32862
G1 X103.673 Y110.169 E1.33584
G1 X103.351 Y110.076 E1.33945
G1 X102.728 Y109.829 E1.34667
G1 X102.140 Y109.506 E1.35389
G1 X101.642 Y109.146 E1.36052
G1 X101.598 Y109.112 E1.36111
G1 X101.363 Y109.396 F7800.000
G1 X100.841 Y108.906 F540.000 E1.36883
G1 X100.604 Y108.637 E1.37270
G1 X100.384 Y108.354 E1.37656
G1 X100.000 Y107.749 E1.38428
G1 X99.837 Y107.429 E1.38814
G1 X99.574 Y106.763 E1.39586
G1 X99.474 Y106.419 E1.39972
G1 X99.339 Y105.715 E1.40744
G1 X99.294 Y105.000 E1.41516
G1 X99.339 Y104.285 E1.42288
G1 X99.474 Y103.581 E1.43060
G1 X99.574 Y103.237 E1.43447
G1 X99.837 Y102.571 E1.44219
G1 X100.000 Y102.251 E1.44605
G1 X100.384 Y101.646 E1.45377
G1 X100.604 Y101.363 E1.45763
G1 X101.094 Y100.841 E1.46535
G1 X101.363 Y100.604 E1.46921
G1 X101.646 Y100.384 E1.47308
G1 X102.251 Y100.000 E1.48080
G1 X102.571 Y99.837 E1.48466
G1 X103.237 Y99.574 E1.49238
G1 X103.581 Y99.474 E1.49624
G1 X104.285 Y99.339 E1.50396
G1 X105.000 Y99.294 E1.51168
G1 X105.715 Y99.339 E1.51940
G1 X106.419 Y99.474 E1.52712
G1 X106.763 Y99.574 E1.53098
G1 X107.429 Y99.837 E1.53870
G1 X107.749 Y100.000 E1.54257
G1 X108.354 Y100.384 E1.55029
G1 X108.637 Y100.604 E1.55415
G1 X108.906 Y100.841 E1.55801
G1 X109.396 Y101.363 E1.56573
G1 X109.616 Y101.646 E1.56959
G1 X110.000 Y102.251 E1.57731
G1 X110.163 Y102.571 E1.58117
G1 X110.426 Y103.237 E1.58889
G1 X110.526 Y103.581 E1.59276
G1 X110.661 Y104.285 E1.60048
G1 X110.706 Y105.000 E1.60820
G1 X110.661 Y105.715 E1.61592
G1 X110.526 Y106.419 E1.62364
G1 X110.426 Y106.763 E1.62750
G1 X110.163 Y107.429 E1.63522
G1 X110.000 Y107.749 E1.63908
G1 X109.616 Y108.354 E1.64680
G1 X109.396 Y108.637 E1.65066
G1 X109.159 Y108.906 E1.65453
G1 X108.637 Y109.396 E1.66225
G1 X108.354 Y109.616 E1.66611
G1 X107.749 Y110.000 E1.67383
G1 X107.429 Y110.163 E1.67769
G1 X106.763 Y110.426 E1.68541
G1 X106.419 Y110.526 E1.68927
G1 X105.715 Y110.661 E1.69699
G1 X105.358 Y110.694 E1.70086
G1 X104.642 Y110.694 E1.70858
G1 X104.285 Y110.661 E1.71244
G1 X103.581 Y110.526 E1.72016
G1 X103.237 Y110.426 E1.72402
G1 X102.571 Y110.163 E1.73174
G1 X101.943 Y109.817 E1.73946
G1 X101.407 Y109.430 E1.74659
G1 X101.363 Y109.396 E1.74718
G1 X101.128 Y109.680 F7800.000
G1 X100.572 Y109.158 F540.000 E1.75540
G1 X100.320 Y108.872 E1.75951
G1 X100.086 Y108.570 E1.76362
G1 X99.677 Y107.926 E1.77184
G1 X99.504 Y107.586 E1.77595
G1 X99.223 Y106.877 E1.78417
G1 X99.116 Y106.511 E1.78829
G1 X98.973 Y105.761 E1.79650
G1 X98.926 Y105.000 E1.80472
G1 X98.973 Y104.239 E1.81294
G1 X99.116 Y103.489 E1.82116
G1 X99.223 Y103.123 E1.82527
G1 X99.504 Y102.414 E1.83349
G1 X99.677 Y102.074 E1.83761
G1 X100.086 Y101.430 E1.84582
G1 X100.320 Y101.128 E1.84994
G1 X100.842 Y100.572 E1.85816
G1 X101.128 Y100.320 E1.86227
G1 X101.430 Y100.086 E1.86638
G1 X102.074 Y99.677 E1.87460
G1 X102.414 Y99.504 E1.87871
G1 X103.123 Y99.223 E1.88693
G1 X103.489 Y99.116 E1.89104
G1 X104.239 Y98.973 E1.89926
G1 X105.000 Y98.926 E1.90748
G1 X105.761 Y98.973 E1.91570
G1 X106.511 Y99.116 E1.92392
G1 X106.877 Y99.223 E1.92803
G1 X107.586 Y99.504 E1.93625
G1 X107.926 Y99.677 E1.94036
G1 X108.570 Y100.086 E1.94858
G1 X108.872 Y100.320 E1.95269
G1 X109.158 Y100.572 E1.95680
G1 X109.680 Y101.128 E1.96502
G1 X109.914 Y101.430 E1.96913
G1 X110.323 Y102.074 E1.97735
G1 X110.496 Y102.414 E1.98146
G1 X110.777 Y103.123 E1.98968
G1 X110.884 Y103.489 E1.99379
G1 X111.027 Y104.239 E2.00201
G1 X111.074 Y105.000 E2.01023
G1 X111.027 Y105.761 E2.01845
G1 X110.884 Y106.511 E2.02667
G1 X110.777 Y106.877 E2.03078
G1 X110.648 Y107.236 E2.03490
G1 X110.323 Y107.926 E2.04311
G1 X109.914 Y108.570 E2.05133
G1 X109.680 Y108.872 E2.05545
G1 X109.428 Y109.158 E2.05956
G1 X108.872 Y109.680 E2.06778
G1 X108.570 Y109.914 E2.07189
G1 X107.926 Y110.323 E2.08011
G1 X107.586 Y110.496 E2.08422
G1 X106.877 Y110.777 E2.09244
G1 X106.511 Y110.884 E2.09655
G1 X105.761 Y111.027 E2.10477
G1 X105.381 Y111.062 E2.10888
G1 X104.619 Y111.062 E2.11710
G1 X104.239 Y111.027 E2.12121
G1 X103.489 Y110.884 E2.12943
G1 X103.123 Y110.777 E2.13354
G1 X102.414 Y110.496 E2.14176
G1 X101.745 Y110.129 E2.14998
G1 X101.172 Y109.714 E2.15760
G1 X101.128 Y109.680 E2.15820
G1 X101.197 Y109.318 F7800.000
G1 F1800.000 E1.15820
G92 E0
G1 X100.042 Y105.479 F7800.000
G1 F1800.000 E1.00000
G1 X100.042 Y104.521 F1080.000 E1.01069
G1 X100.423 Y102.924 E1.02902
G1 X100.423 Y107.076 E1.07536
G1 X100.805 Y107.810 E1.08459
G1 X100.805 Y102.190 E1.14731
G1 X101.187 Y101.651 E1.15468
G1 X101.187 Y108.349 E1.22943
G1 X101.569 Y108.755 E1.23566
G1 X101.569 Y101.245 E1.31948
G1 X101.951 Y100.915 E1.32511
G1 X101.951 Y109.078 E1.41622
G1 X102.332 Y109.357 E1.42149
G1 X102.332 Y100.654 E1.51862
G1 X102.714 Y100.426 E1.52359
G1 X102.714 Y109.568 E1.62562
G1 X103.096 Y109.753 E1.63035
G1 X103.096 Y100.255 E1.73635
G1 X103.478 Y100.106 E1.74093
G1 X103.478 Y109.885 E1.85007
G1 X103.860 Y109.999 E1.85452
G1 X103.860 Y100.008 E1.96603
G1 X104.241 Y99.932 E1.97037
G1 X104.241 Y110.073 E2.08355
G1 X104.623 Y110.110 E2.08783
G1 X104.623 Y99.884 E2.20197
G1 X105.005 Y99.876 E2.20623
G1 X105.005 Y110.134 E2.32072
G1 X105.387 Y110.115 E2.32498
G1 X105.387 Y99.883 E2.43918
G1 X105.769 Y99.933 E2.44348
G1 X105.769 Y110.067 E2.55657
G1 X106.150 Y109.990 E2.56092
G1 X106.150 Y100.006 E2.67235
G1 X106.532 Y100.108 E2.67676
G1 X106.532 Y109.892 E2.78595
G1 X106.914 Y109.741 E2.79053
G1 X106.914 Y100.255 E2.89640
G1 X107.296 Y100.434 E2.90111
G1 X107.296 Y109.569 E3.00306
G1 X107.677 Y109.339 E3.00804
G1 X107.677 Y100.661 E3.10490
G1 X108.059 Y100.923 E3.11007
G1 X108.059 Y109.077 E3.20108
G1 X108.441 Y108.737 E3.20679
G1 X108.441 Y101.255 E3.29029
G1 X108.823 Y101.662 E3.29651
G1 X108.823 Y108.339 E3.37104
G1 X109.205 Y107.794 E3.37846
G1 X109.205 Y102.206 E3.44083
G1 X109.586 Y102.948 E3.45015
G1 X109.586 Y107.051 E3.49594
G1 X109.968 Y105.167 E3.51740
G1 X109.968 Y104.831 E3.52115
M106 S255
M104 S215 ; set temperature
G1 F1800.000 E2.52115
G92 E0
G1 Z0.360 F7800.000
G1 X105.594 Y109.703
G1 F1800.000 E1.00000
G1 X105.298 Y109.731 F609.091 E1.00523
G1 X104.702 Y109.731 E1.01570
G1 X104.406 Y109.703 E1.02093
G1 X103.821 Y109.591 E1.03140
G1 X103.535 Y109.508 E1.03663
G1 X102.982 Y109.289 E1.04710
G1 X102.460 Y109.002 E1.05756
G1 X102.214 Y108.835 E1.06280
G1 X101.755 Y108.455 E1.07326
G1 X101.348 Y108.021 E1.08373
G1 X101.165 Y107.786 E1.08896
G1 X100.846 Y107.284 E1.09942
G1 X100.711 Y107.018 E1.10466
G1 X100.492 Y106.465 E1.11512
G1 X100.409 Y106.179 E1.12036
G1 X100.297 Y105.594 E1.13082
G1 X100.269 Y105.298 E1.13606
G1 X100.269 Y104.702 E1.14652
G1 X100.297 Y104.406 E1.15176
G1 X100.409 Y103.821 E1.16222
G1 X100.492 Y103.535 E1.16746
G1 X100.711 Y102.982 E1.17792
G1 X100.846 Y102.716 E1.18315
G1 X101.165 Y102.214 E1.19362
G1 X101.545 Y101.755 E1.20408
G1 X101.979 Y101.348 E1.21455
G1 X102.214 Y101.165 E1.21978
G1 X102.716 Y100.846 E1.23025
G1 X102.982 Y100.711 E1.23548
G1 X103.535 Y100.492 E1.24595
G1 X103.821 Y100.409 E1.25118
G1 X104.406 Y100.297 E1.26165
G1 X104.702 Y100.269 E1.26688
G1 X105.298 Y100.269 E1.27734
G1 X105.594 Y100.297 E1.28258
G1 X106.179 Y100.409 E1.29304
G1 X106.465 Y100.492 E1.29828
G1 X107.018 Y100.711 E1.30874
G1 X107.284 Y100.846 E1.31398
G1 X107.786 Y101.165 E1.32444
G1 X108.245 Y101.545 E1.33491
G1 X108.652 Y101.979 E1.34537
G1 X108.835 Y102.214 E1.35060
G1 X109.154 Y102.716 E1.36107
G1 X109.289 Y102.982 E1.36630
G1 X109.508 Y103.535 E1.37677
G1 X109.591 Y103.821 E1.38200
G1 X109.703 Y104.406 E1.39247
G1 X109.731 Y104.702 E1.39770
G1 X109.731 Y105.298 E1.40817
G1 X109.703 Y105.594 E1.41340
G1 X109.591 Y106.179 E1.42387
G1 X109.508 Y106.465 E1.42910
G1 X109.289 Y107.018 E1.43956
G1 X109.154 Y107.284 E1.44480
G1 X108.835 Y107.786 E1.45526
G1 X108.652 Y108.021 E1.46050
G1 X108.245 Y108.455 E1.47096
G1 X107.786 Y108.835 E1.48143
G1 X107.540 Y109.002 E1.48666
G1 X107.284 Y109.154 E1.49190
G1 X106.745 Y109.407 E1.50236
G1 X106.179 Y109.591 E1.51283
G1 X105.683 Y109.689 E1.52171
G1 X105.594 Y109.703 E1.52329
G1 X105.669 Y110.300 F7800.000
G1 X105.335 Y110.331 F609.091 E1.52919
G1 X104.665 Y110.331 E1.54098
G1 X104.331 Y110.300 E1.54688
G1 X103.672 Y110.174 E1.55867
G1 X103.349 Y110.080 E1.56457
G1 X102.726 Y109.833 E1.57637
G1 X102.427 Y109.681 E1.58227
G1 X101.860 Y109.322 E1.59406
G1 X101.343 Y108.894 E1.60585
G1 X100.884 Y108.405 E1.61764
G1 X100.678 Y108.140 E1.62354
G1 X100.319 Y107.573 E1.63534
G1 X100.167 Y107.274 E1.64123
G1 X99.920 Y106.651 E1.65303
G1 X99.826 Y106.328 E1.65893
G1 X99.700 Y105.669 E1.67072
G1 X99.669 Y105.335 E1.67662
G1 X99.669 Y104.665 E1.68841
G1 X99.700 Y104.331 E1.69431
G1 X99.826 Y103.672 E1.70610
G1 X99.920 Y103.349 E1.71200
G1 X100.167 Y102.726 E1.72379
G1 X100.319 Y102.427 E1.72969
G1 X100.678 Y101.860 E1.74149
G1 X101.106 Y101.343 E1.75328
G1 X101.595 Y100.884 E1.76507
G1 X101.860 Y100.678 E1.77097
G1 X102.427 Y100.319 E1.78276
G1 X102.726 Y100.167 E1.78866
G1 X103.349 Y99.920 E1.80046
G1 X103.672 Y99.826 E1.80635
G1 X104.331 Y99.700 E1.81815
G1 X104.665 Y99.669 E1.82405
G1 X105.335 Y99.669 E1.83584
G1 X105.669 Y99.700 E1.84174
G1 X106.328 Y99.826 E1.85353
G1 X106.651 Y99.920 E1.85943
G1 X107.274 Y100.167 E1.87122
G1 X107.573 Y100.319 E1.87712
G1 X108.140 Y100.678 E1.88892
G1 X108.657 Y101.106 E1.90071
G1 X109.116 Y101.595 E1.91250
G1 X109.322 Y101.860 E1.91840
G1 X109.681 Y102.427 E1.93019
G1 X109.833 Y102.726 E1.93609
G1 X110.080 Y103.349 E1.94788
G1 X110.174 Y103.672 E1.95378
G1 X110.300 Y104.331 E1.96558
G1 X110.331 Y104.665 E1.97147
G1 X110.331 Y105.335 E1.98327
G1 X110.300 Y105.669 E1.98917
G1 X110.174 Y106.328 E2.00096
G1 X110.080 Y106.651 E2.00686
G1 X109.833 Y107.274 E2.01865
G1 X109.681 Y107.573 E2.02455
G1 X109.322 Y108.140 E2.03634
G1 X109.116 Y108.405 E2.04224
G1 X108.657 Y108.894 E2.05404
G1 X108.140 Y109.322 E2.06583
G1 X107.862 Y109.510 E2.07173
G1 X107.573 Y109.681 E2.07763
G1 X106.966 Y109.967 E2.08942
G1 X106.328 Y110.174 E2.10121
G1 X105.759 Y110.285 E2.11142
G1 X105.669 Y110.300 E2.11301
G1 X105.745 Y110.896 F7800.000
G1 X105.373 Y110.932 F609.091 E2.11957
G1 X104.627 Y110.932 E2.13269
G1 X104.255 Y110.896 E2.13925
G1 X103.522 Y110.757 E2.15237
G1 X103.163 Y110.652 E2.15894
G1 X102.469 Y110.378 E2.17206
G1 X102.137 Y110.208 E2.17862
G1 X101.507 Y109.808 E2.19174
G1 X100.931 Y109.333 E2.20486
G1 X100.421 Y108.788 E2.21799
G1 X100.192 Y108.493 E2.22455
G1 X99.792 Y107.863 E2.23767
G1 X99.622 Y107.531 E2.24423
G1 X99.348 Y106.837 E2.25735
G1 X99.243 Y106.478 E2.26392
G1 X99.104 Y105.745 E2.27704
G1 X99.068 Y105.373 E2.28360
