; generated by Slic3r 0.9.8 on 2013-07-03 at 20:57:07

; layer_height = 0.18
; perimeters = 3
; top_solid_layers = 3
; bottom_solid_layers = 7
; fill_density = 0.4
; perimeter_speed = 30
; infill_speed = 60
; travel_speed = 130
; scale = 1
; nozzle_diameter = 0.4
; filament_diameter = 2.8
; extrusion_multiplier = 1
; perimeters extrusion width = 0.64mm
; infill extrusion width = 0.64mm
; first layer extrusion width = 0.80mm

M107
M190 S5 ; wait for bed temperature to be reached
M104 S220 ; set temperature
G28 ; home all axes
G1 Z20 F2000 ; down some millimeters
M109 S220 ; wait for temperature to be reached
G90 ; use absolute coordinates
G21 ; set units to millimeters
G92 E0
M82 ; use absolute distances for extrusion
G1 F1800.000 E-1.00000
G92 E0
G1 Z0.400 F7800.000
G1 X113.830 Y113.940
G1 F1800.000 E1.00000
G1 X113.290 Y114.440 F540.000 E1.03414
G1 X112.900 Y114.770 E1.05784
G1 X112.610 Y115.000 E1.07501
G1 X112.010 Y115.420 E1.10899
G1 X110.890 Y116.100 E1.16978
G1 X109.970 Y116.540 E1.21709
G1 X109.290 Y116.810 E1.25103
G1 X108.440 Y117.080 E1.29241
G1 X107.720 Y117.260 E1.32684
G1 X106.910 Y117.410 E1.36506
G1 X106.180 Y117.500 E1.39918
G1 X105.190 Y117.560 E1.44519
G1 X103.900 Y117.510 E1.50508
G1 X103.160 Y117.430 E1.53961
G1 X102.800 Y117.370 E1.55655
G1 X102.270 Y117.260 E1.58166
G1 X101.550 Y117.080 E1.61609
G1 X100.780 Y116.840 E1.65351
G1 X100.440 Y116.710 E1.67039
G1 X99.350 Y116.220 E1.72584
G1 X98.660 Y115.850 E1.76216
G1 X97.910 Y115.380 E1.80322
G1 X97.280 Y114.920 E1.83941
G1 X96.710 Y114.450 E1.87368
G1 X96.050 Y113.830 E1.91569
G1 X95.550 Y113.290 E1.94984
G1 X95.220 Y112.900 E1.97354
G1 X94.990 Y112.610 E1.99071
G1 X94.570 Y112.010 E2.02469
G1 X93.890 Y110.890 E2.08547
G1 X93.450 Y109.970 E2.13279
G1 X93.180 Y109.290 E2.16673
G1 X92.950 Y108.610 E2.20003
G1 X92.730 Y107.730 E2.24211
G1 X92.590 Y107.010 E2.27614
G1 X92.490 Y106.270 E2.31078
G1 X92.440 Y105.360 E2.35306
G1 X92.460 Y104.090 E2.41199
G1 X92.490 Y103.720 E2.42921
G1 X92.590 Y102.980 E2.46385
G1 X92.850 Y101.740 E2.52263
G1 X92.950 Y101.380 E2.53997
G1 X93.180 Y100.700 E2.57327
G1 X93.450 Y100.020 E2.60721
G1 X93.720 Y99.430 E2.63731
G1 X94.180 Y98.600 E2.68134
G1 X94.570 Y97.980 E2.71532
G1 X94.990 Y97.380 E2.74930
G1 X95.620 Y96.610 E2.79545
G1 X96.160 Y96.050 E2.83154
G1 X96.700 Y95.550 E2.86568
G1 X97.380 Y94.990 E2.90655
G1 X97.980 Y94.570 E2.94053
G1 X98.600 Y94.180 E2.97451
G1 X99.430 Y93.720 E3.01853
G1 X100.020 Y93.450 E3.04864
G1 X100.700 Y93.180 E3.08258
G1 X101.550 Y92.910 E3.12395
G1 X102.270 Y92.730 E3.15839
G1 X103.080 Y92.580 E3.19660
G1 X103.810 Y92.490 E3.23073
G1 X104.630 Y92.440 E3.26884
G1 X105.900 Y92.460 E3.32776
G1 X106.270 Y92.490 E3.34499
G1 X107.010 Y92.590 E3.37963
G1 X108.250 Y92.850 E3.43841
G1 X108.610 Y92.950 E3.45574
G1 X109.290 Y93.180 E3.48904
G1 X109.970 Y93.450 E3.52298
G1 X110.560 Y93.720 E3.55309
G1 X111.390 Y94.180 E3.59711
G1 X112.010 Y94.570 E3.63109
G1 X112.610 Y94.990 E3.66507
G1 X112.900 Y95.220 E3.68224
G1 X113.290 Y95.550 E3.70594
G1 X113.830 Y96.050 E3.74008
G1 X114.370 Y96.610 E3.77617
G1 X114.610 Y96.890 E3.79328
G1 X115.000 Y97.380 E3.82234
G1 X115.420 Y97.980 E3.85632
G1 X116.100 Y99.100 E3.91710
G1 X116.540 Y100.020 E3.96441
G1 X116.810 Y100.700 E3.99836
G1 X117.080 Y101.550 E4.03973
G1 X117.260 Y102.270 E4.07416
G1 X117.410 Y103.080 E4.11238
G1 X117.500 Y103.810 E4.14650
G1 X117.550 Y104.630 E4.18461
G1 X117.530 Y105.900 E4.24354
G1 X117.500 Y106.270 E4.26076
G1 X117.400 Y107.010 E4.29540
G1 X117.140 Y108.250 E4.35418
G1 X117.040 Y108.610 E4.37152
G1 X116.810 Y109.290 E4.40482
G1 X116.540 Y109.970 E4.43876
G1 X116.270 Y110.560 E4.46886
G1 X115.810 Y111.390 E4.51289
G1 X115.420 Y112.010 E4.54687
G1 X115.000 Y112.610 E4.58085
G1 X114.610 Y113.100 E4.60990
G1 X114.370 Y113.380 E4.62701
G1 X113.904 Y113.863 E4.65813
G1 X113.830 Y113.940 E4.66310
G1 F1800.000 E3.66310
G92 E0
G1 X102.176 Y108.414 F7800.000
G1 F1800.000 E1.00000
G1 X101.967 Y108.230 F540.000 E1.01291
G1 X101.586 Y107.824 E1.03873
G1 X101.415 Y107.604 E1.05164
G1 X101.117 Y107.135 E1.07745
G1 X100.991 Y106.887 E1.09037
G1 X100.786 Y106.369 E1.11618
G1 X100.708 Y106.102 E1.12909
G1 X100.604 Y105.555 E1.15491
G1 X100.578 Y105.278 E1.16782
G1 X100.578 Y104.722 E1.19364
G1 X100.604 Y104.445 E1.20655
G1 X100.708 Y103.898 E1.23236
G1 X100.786 Y103.631 E1.24528
G1 X100.991 Y103.113 E1.27109
G1 X101.117 Y102.865 E1.28400
G1 X101.415 Y102.396 E1.30982
G1 X101.770 Y101.967 E1.33563
G1 X102.176 Y101.586 E1.36145
G1 X102.396 Y101.415 E1.37436
G1 X102.865 Y101.117 E1.40017
G1 X103.113 Y100.991 E1.41309
G1 X103.631 Y100.786 E1.43890
G1 X103.898 Y100.708 E1.45181
G1 X104.445 Y100.604 E1.47763
G1 X104.722 Y100.578 E1.49054
G1 X105.278 Y100.578 E1.51635
G1 X105.555 Y100.604 E1.52927
G1 X106.102 Y100.708 E1.55508
G1 X106.631 Y100.880 E1.58090
G1 X106.887 Y100.991 E1.59381
G1 X107.135 Y101.117 E1.60672
G1 X107.604 Y101.415 E1.63254
G1 X108.033 Y101.770 E1.65835
G1 X108.414 Y102.176 E1.68416
G1 X108.585 Y102.396 E1.69708
G1 X108.883 Y102.865 E1.72289
G1 X109.120 Y103.369 E1.74870
G1 X109.214 Y103.631 E1.76162
G1 X109.292 Y103.898 E1.77453
G1 X109.396 Y104.445 E1.80035
G1 X109.431 Y105.000 E1.82616
G1 X109.422 Y105.278 E1.83907
G1 X109.396 Y105.555 E1.85198
G1 X109.292 Y106.102 E1.87780
G1 X109.214 Y106.369 E1.89071
G1 X109.009 Y106.887 E1.91653
G1 X108.883 Y107.135 E1.92944
G1 X108.585 Y107.604 E1.95525
G1 X108.230 Y108.033 E1.98107
G1 X107.824 Y108.414 E2.00688
G1 X107.604 Y108.585 E2.01979
G1 X107.135 Y108.883 E2.04561
G1 X106.887 Y109.009 E2.05852
G1 X106.369 Y109.214 E2.08434
G1 X106.102 Y109.292 E2.09725
G1 X105.555 Y109.396 E2.12306
G1 X105.000 Y109.431 E2.14888
G1 X104.722 Y109.422 E2.16179
G1 X104.445 Y109.396 E2.17470
G1 X103.898 Y109.292 E2.20052
G1 X103.631 Y109.214 E2.21343
G1 X103.113 Y109.009 E2.23925
G1 X102.626 Y108.741 E2.26506
G1 X102.260 Y108.480 E2.28591
G1 X102.176 Y108.414 E2.29088
G1 X101.720 Y108.965 F7800.000
G1 X101.478 Y108.751 F540.000 E2.30587
G1 X101.035 Y108.280 E2.33585
G1 X100.837 Y108.024 E2.35084
G1 X100.491 Y107.479 E2.38082
G1 X100.344 Y107.191 E2.39582
G1 X100.107 Y106.590 E2.42579
G1 X100.016 Y106.280 E2.44079
G1 X99.895 Y105.645 E2.47077
G1 X99.865 Y105.323 E2.48576
G1 X99.865 Y104.677 E2.51574
G1 X99.895 Y104.355 E2.53073
G1 X100.016 Y103.720 E2.56071
G1 X100.107 Y103.410 E2.57571
G1 X100.344 Y102.809 E2.60568
G1 X100.491 Y102.521 E2.62068
G1 X100.837 Y101.976 E2.65065
G1 X101.249 Y101.478 E2.68063
G1 X101.720 Y101.035 E2.71061
G1 X101.976 Y100.837 E2.72560
G1 X102.521 Y100.491 E2.75558
G1 X102.809 Y100.344 E2.77058
G1 X103.410 Y100.107 E2.80055
G1 X103.720 Y100.016 E2.81555
G1 X104.355 Y99.895 E2.84553
G1 X104.677 Y99.865 E2.86052
G1 X105.323 Y99.865 E2.89050
G1 X105.645 Y99.895 E2.90549
G1 X106.280 Y100.016 E2.93547
G1 X106.590 Y100.107 E2.95047
G1 X107.191 Y100.344 E2.98044
G1 X107.479 Y100.491 E2.99544
G1 X108.024 Y100.837 E3.02541
G1 X108.522 Y101.249 E3.05539
G1 X108.965 Y101.720 E3.08537
G1 X109.163 Y101.976 E3.10036
G1 X109.509 Y102.521 E3.13034
G1 X109.656 Y102.809 E3.14533
G1 X109.893 Y103.410 E3.17531
G1 X109.984 Y103.720 E3.19031
G1 X110.105 Y104.355 E3.22029
G1 X110.135 Y104.677 E3.23528
G1 X110.135 Y105.323 E3.26526
G1 X110.105 Y105.645 E3.28025
G1 X109.984 Y106.280 E3.31023
G1 X109.893 Y106.590 E3.32523
G1 X109.656 Y107.191 E3.35520
G1 X109.509 Y107.479 E3.37020
G1 X109.163 Y108.024 E3.40017
G1 X108.751 Y108.522 E3.43015
G1 X108.280 Y108.965 E3.46013
G1 X108.024 Y109.163 E3.47512
G1 X107.479 Y109.509 E3.50510
G1 X107.191 Y109.656 E3.52010
G1 X106.590 Y109.893 E3.55007
G1 X106.280 Y109.984 E3.56507
G1 X105.645 Y110.105 E3.59505
G1 X105.323 Y110.135 E3.61004
G1 X104.677 Y110.135 E3.64002
G1 X104.355 Y110.105 E3.65501
G1 X103.720 Y109.984 E3.68499
G1 X103.410 Y109.893 E3.69999
G1 X102.809 Y109.656 E3.72996
G1 X102.243 Y109.344 E3.75994
G1 X101.805 Y109.030 E3.78495
G1 X101.720 Y108.965 E3.78992
G1 X101.265 Y109.515 F7800.000
G1 X100.989 Y109.272 F540.000 E3.80700
G1 X100.485 Y108.735 E3.84114
G1 X100.259 Y108.444 E3.85821
G1 X99.865 Y107.823 E3.89235
G1 X99.698 Y107.495 E3.90943
G1 X99.427 Y106.811 E3.94357
G1 X99.324 Y106.457 E3.96065
G1 X99.186 Y105.734 E3.99479
G1 X99.140 Y105.000 E4.02893
G1 X99.186 Y104.266 E4.06307
G1 X99.324 Y103.543 E4.09721
G1 X99.427 Y103.189 E4.11429
G1 X99.698 Y102.505 E4.14842
G1 X99.865 Y102.177 E4.16550
G1 X100.259 Y101.556 E4.19964
G1 X100.485 Y101.265 E4.21672
G1 X100.728 Y100.989 E4.23380
G1 X101.265 Y100.485 E4.26794
G1 X101.556 Y100.259 E4.28502
G1 X102.177 Y99.865 E4.31915
G1 X102.505 Y99.698 E4.33623
G1 X103.189 Y99.427 E4.37037
G1 X103.543 Y99.324 E4.38745
G1 X104.266 Y99.186 E4.42159
G1 X105.000 Y99.140 E4.45573
G1 X105.734 Y99.186 E4.48987
G1 X106.457 Y99.324 E4.52401
G1 X106.811 Y99.427 E4.54109
G1 X107.495 Y99.698 E4.57523
G1 X107.823 Y99.865 E4.59230
G1 X108.444 Y100.259 E4.62644
G1 X108.735 Y100.485 E4.64352
G1 X109.272 Y100.989 E4.67766
G1 X109.515 Y101.265 E4.69474
G1 X109.741 Y101.556 E4.71182
G1 X110.135 Y102.177 E4.74596
G1 X110.302 Y102.505 E4.76303
G1 X110.573 Y103.189 E4.79717
G1 X110.756 Y103.902 E4.83131
G1 X110.848 Y104.632 E4.86545
G1 X110.848 Y105.368 E4.89959
G1 X110.814 Y105.734 E4.91667
G1 X110.676 Y106.457 E4.95081
G1 X110.573 Y106.811 E4.96789
G1 X110.302 Y107.495 E5.00203
G1 X110.135 Y107.823 E5.01911
G1 X109.741 Y108.444 E5.05325
G1 X109.515 Y108.735 E5.07032
G1 X109.272 Y109.011 E5.08740
G1 X108.735 Y109.515 E5.12154
G1 X108.444 Y109.741 E5.13862
G1 X107.823 Y110.135 E5.17276
G1 X107.495 Y110.302 E5.18984
G1 X106.811 Y110.573 E5.22398
G1 X106.457 Y110.676 E5.24105
G1 X105.734 Y110.814 E5.27519
G1 X105.368 Y110.848 E5.29227
G1 X104.632 Y110.848 E5.32641
G1 X104.266 Y110.814 E5.34349
G1 X103.543 Y110.676 E5.37763
G1 X103.189 Y110.573 E5.39471
G1 X102.505 Y110.302 E5.42885
G1 X101.860 Y109.948 E5.46299
G1 X101.349 Y109.581 E5.49216
G1 X101.265 Y109.515 E5.49713
G1 X101.384 Y108.811 F7800.000
G1 F1800.000 E4.49713
G92 E0
G1 X101.291 Y105.556 F7800.000
G1 F1800.000 E1.00000
G1 X101.291 Y104.444 F1080.000 E1.05362
G1 X102.034 Y102.442 E1.15660
G1 X102.034 Y107.558 E1.40334
G1 X102.776 Y108.295 E1.45383
G1 X102.776 Y101.703 E1.77183
G1 X103.519 Y101.276 E1.81314
G1 X103.519 Y108.723 E2.17237
G1 X104.261 Y108.962 E2.20999
G1 X104.261 Y101.039 E2.59218
G1 X105.004 Y100.970 E2.62815
G1 X105.004 Y109.038 E3.01731
G1 X105.746 Y108.959 E3.05333
G1 X105.746 Y101.045 E3.43506
G1 X106.489 Y101.279 E3.47261
G1 X106.489 Y108.721 E3.83159
G1 X107.231 Y108.292 E3.87296
G1 X107.231 Y101.708 E4.19051
G1 X107.974 Y102.452 E4.24120
G1 X107.974 Y107.548 E4.48702
G1 X108.716 Y105.323 E4.60018
G1 X108.716 Y104.676 E4.63140
M106 S255
M104 S215 ; set temperature
G1 F1800.000 E3.63140
G92 E0
G1 Z0.580 F7800.000
G1 X101.339 Y108.028
G1 F1800.000 E1.00000
G1 X101.156 Y107.793 F610.360 E1.00525
G1 X100.837 Y107.289 E1.01574
G1 X100.701 Y107.023 E1.02098
G1 X100.482 Y106.468 E1.03147
G1 X100.398 Y106.182 E1.03672
G1 X100.286 Y105.595 E1.04721
G1 X100.249 Y105.000 E1.05770
G1 X100.286 Y104.405 E1.06818
G1 X100.398 Y103.818 E1.07867
G1 X100.482 Y103.532 E1.08392
G1 X100.701 Y102.977 E1.09441
G1 X100.837 Y102.711 E1.09966
G1 X101.156 Y102.207 E1.11014
G1 X101.339 Y101.972 E1.11539
G1 X101.537 Y101.748 E1.12064
G1 X101.972 Y101.339 E1.13113
G1 X102.207 Y101.156 E1.13637
G1 X102.711 Y100.837 E1.14686
G1 X103.251 Y100.583 E1.15735
G1 X103.532 Y100.482 E1.16260
G1 X103.818 Y100.398 E1.16784
G1 X104.405 Y100.286 E1.17833
G1 X104.702 Y100.258 E1.18358
G1 X105.298 Y100.258 E1.19407
G1 X105.890 Y100.333 E1.20456
G1 X106.468 Y100.482 E1.21505
G1 X107.023 Y100.701 E1.22553
G1 X107.289 Y100.837 E1.23078
G1 X107.793 Y101.156 E1.24127
G1 X108.028 Y101.339 E1.24652
G1 X108.252 Y101.537 E1.25176
G1 X108.661 Y101.972 E1.26225
G1 X108.844 Y102.207 E1.26750
G1 X109.163 Y102.711 E1.27799
G1 X109.299 Y102.977 E1.28323
G1 X109.518 Y103.532 E1.29372
G1 X109.602 Y103.818 E1.29897
G1 X109.714 Y104.405 E1.30946
G1 X109.751 Y105.000 E1.31995
G1 X109.714 Y105.595 E1.33044
G1 X109.602 Y106.182 E1.34092
G1 X109.518 Y106.468 E1.34617
G1 X109.299 Y107.023 E1.35666
G1 X109.163 Y107.289 E1.36191
G1 X108.844 Y107.793 E1.37240
G1 X108.661 Y108.028 E1.37764
G1 X108.252 Y108.463 E1.38813
G1 X108.028 Y108.661 E1.39338
G1 X107.793 Y108.844 E1.39863
G1 X107.289 Y109.163 E1.40911
G1 X107.023 Y109.299 E1.41436
G1 X106.468 Y109.518 E1.42485
G1 X106.182 Y109.602 E1.43010
G1 X105.595 Y109.714 E1.44059
G1 X105.298 Y109.742 E1.44583
G1 X104.702 Y109.742 E1.45632
G1 X104.405 Y109.714 E1.46157
G1 X103.818 Y109.602 E1.47206
G1 X103.532 Y109.518 E1.47730
G1 X102.977 Y109.299 E1.48779
G1 X102.711 Y109.163 E1.49304
G1 X102.207 Y108.844 E1.50353
G1 X101.748 Y108.463 E1.51402
G1 X101.399 Y108.096 E1.52292
G1 X101.339 Y108.028 E1.52451
G1 X100.876 Y108.412 F7800.000
G1 X100.670 Y108.146 F610.360 E1.53042
G1 X100.309 Y107.579 E1.54223
G1 X100.157 Y107.279 E1.54815
G1 X99.909 Y106.654 E1.55996
G1 X99.815 Y106.331 E1.56587
G1 X99.690 Y105.671 E1.57769
G1 X99.658 Y105.336 E1.58360
G1 X99.658 Y104.664 E1.59542
G1 X99.742 Y103.997 E1.60724
G1 X99.909 Y103.346 E1.61905
G1 X100.157 Y102.721 E1.63087
G1 X100.309 Y102.421 E1.63678
G1 X100.670 Y101.854 E1.64860
G1 X100.876 Y101.588 E1.65451
G1 X101.098 Y101.336 E1.66042
G1 X101.588 Y100.876 E1.67224
G1 X101.854 Y100.670 E1.67815
G1 X102.421 Y100.309 E1.68997
G1 X103.030 Y100.023 E1.70178
G1 X103.346 Y99.909 E1.70769
G1 X103.669 Y99.815 E1.71361
G1 X104.329 Y99.690 E1.72542
G1 X104.664 Y99.658 E1.73133
G1 X105.336 Y99.658 E1.74315
G1 X106.003 Y99.742 E1.75497
G1 X106.654 Y99.909 E1.76678
G1 X107.279 Y100.157 E1.77860
G1 X107.579 Y100.309 E1.78451
G1 X108.146 Y100.670 E1.79633
G1 X108.412 Y100.876 E1.80224
G1 X108.664 Y101.098 E1.80815
G1 X109.124 Y101.588 E1.81997
G1 X109.330 Y101.854 E1.82588
G1 X109.691 Y102.421 E1.83770
G1 X109.843 Y102.721 E1.84361
G1 X110.091 Y103.346 E1.85543
G1 X110.185 Y103.669 E1.86134
G1 X110.310 Y104.329 E1.87315
G1 X110.342 Y104.664 E1.87907
G1 X110.342 Y105.336 E1.89088
G1 X110.258 Y106.003 E1.90270
G1 X110.091 Y106.654 E1.91452
G1 X109.843 Y107.279 E1.92633
G1 X109.691 Y107.579 E1.93224
G1 X109.330 Y108.146 E1.94406
G1 X109.124 Y108.412 E1.94997
G1 X108.664 Y108.902 E1.96179
G1 X108.412 Y109.124 E1.96770
G1 X108.146 Y109.330 E1.97361
G1 X107.579 Y109.691 E1.98543
G1 X107.279 Y109.843 E1.99134
G1 X106.654 Y110.091 E2.00316
G1 X106.331 Y110.185 E2.00907
G1 X105.671 Y110.310 E2.02089
G1 X105.336 Y110.342 E2.02680
G1 X104.664 Y110.342 E2.03861
G1 X104.329 Y110.310 E2.04453
G1 X103.669 Y110.185 E2.05634
G1 X103.346 Y110.091 E2.06225
G1 X102.721 Y109.843 E2.07407
G1 X102.421 Y109.691 E2.07998
G1 X101.854 Y109.330 E2.09180
G1 X101.336 Y108.902 E2.10362
G1 X100.935 Y108.480 E2.11385
G1 X100.876 Y108.412 E2.11543
G1 X100.419 Y108.803 F7800.000
G1 X100.183 Y108.500 F610.360 E2.12220
G1 X99.782 Y107.869 E2.13534
G1 X99.612 Y107.535 E2.14192
G1 X99.337 Y106.840 E2.15506
G1 X99.233 Y106.481 E2.16164
G1 X99.093 Y105.746 E2.17479
G1 X99.057 Y105.374 E2.18136
G1 X99.057 Y104.626 E2.19451
G1 X99.151 Y103.884 E2.20765
G1 X99.334 Y103.170 E2.22061
G1 X99.464 Y102.808 E2.22737
G1 X99.782 Y102.131 E2.24052
G1 X100.183 Y101.500 E2.25366
G1 X100.412 Y101.205 E2.26024
G1 X100.667 Y100.916 E2.26700
G1 X101.205 Y100.412 E2.27996
G1 X101.500 Y100.183 E2.28654
G1 X102.131 Y99.782 E2.29968
G1 X102.465 Y99.612 E2.30626
G1 X103.160 Y99.337 E2.31940
G1 X103.519 Y99.233 E2.32598
G1 X104.254 Y99.093 E2.33912
G1 X104.626 Y99.057 E2.34570
G1 X105.374 Y99.057 E2.35884
G1 X105.746 Y99.093 E2.36542
G1 X106.481 Y99.233 E2.37856
G1 X106.840 Y99.337 E2.38514
G1 X107.535 Y99.612 E2.39829
G1 X107.869 Y99.782 E2.40486
G1 X108.500 Y100.183 E2.41801
G1 X109.076 Y100.659 E2.43115
G1 X109.581 Y101.197 E2.44411
G1 X109.817 Y101.500 E2.45087
G1 X110.218 Y102.131 E2.46402
G1 X110.536 Y102.808 E2.47716
G1 X110.663 Y103.160 E2.48374
G1 X110.767 Y103.519 E2.49032
G1 X110.907 Y104.254 E2.50346
G1 X110.943 Y104.626 E2.51004
G1 X110.943 Y105.374 E2.52318
G1 X110.849 Y106.116 E2.53633
G1 X110.663 Y106.840 E2.54947
G1 X110.536 Y107.192 E2.55605
G1 X110.218 Y107.869 E2.56919
