; generated by Slic3r 0.9.8 on 2013-03-13 at 17:18:44

; layer_height = 0.4
; perimeters = 3
; top_solid_layers = 3
; bottom_solid_layers = 3
; fill_density = 0.4
; perimeter_speed = 30
; infill_speed = 60
; travel_speed = 130
; scale = 1
; nozzle_diameter = 0.5
; filament_diameter = 3
; extrusion_multiplier = 1
; perimeters extrusion width = 0.53mm
; infill extrusion width = 0.53mm
; first layer extrusion width = 0.80mm

M107
M104 S200 ; set temperature
G28 ; home all axes
M109 S200 ; wait for temperature to be reached
G90 ; use absolute coordinates
G21 ; set units to millimeters
G92 E0
M82 ; use absolute distances for extrusion
G1 F1800.000 E-1.00000
G92 E0
G1 Z0.400 F7800.000
G1 X107.990 Y119.154
G1 F1800.000 E1.00000
G1 X106.890 Y119.884 F540.000 E1.05496
G1 X106.640 Y120.034 E1.06709
G1 X106.120 Y120.294 E1.09129
G1 X105.570 Y120.504 E1.11580
G1 X105.010 Y120.674 E1.14016
G1 X104.150 Y120.824 E1.17650
G1 X103.860 Y120.854 E1.18864
G1 X103.270 Y120.864 E1.21320
G1 X96.420 Y120.744 E1.49840
G1 X95.810 Y120.714 E1.52382
G1 X95.210 Y120.614 E1.54914
G1 X94.320 Y120.374 E1.58751
G1 X93.750 Y120.144 E1.61310
G1 X93.210 Y119.864 E1.63842
G1 X92.140 Y119.254 E1.68969
G1 X91.620 Y118.884 E1.71626
G1 X91.370 Y118.684 E1.72959
G1 X90.110 Y117.504 E1.80145
G1 X89.780 Y117.174 E1.82087
G1 X70.470 Y96.254 E3.00600
G1 X70.150 Y95.884 E3.02636
G1 X69.480 Y95.044 E3.07109
G1 X69.130 Y94.554 E3.09615
G1 X68.570 Y93.704 E3.13853
G1 X68.260 Y93.194 E3.16337
G1 X67.790 Y92.324 E3.20453
G1 X67.480 Y91.654 E3.23526
G1 X67.120 Y90.764 E3.27523
G1 X66.890 Y90.124 E3.30354
G1 X66.630 Y89.234 E3.34214
G1 X66.460 Y88.464 E3.37496
G1 X66.310 Y87.574 E3.41253
G1 X66.230 Y86.864 E3.44227
G1 X66.200 Y86.374 E3.46271
G1 X66.200 Y85.574 E3.49601
G1 X66.250 Y85.034 E3.51859
G1 X66.340 Y84.514 E3.54056
G1 X66.560 Y83.734 E3.57429
G1 X66.870 Y82.994 E3.60769
G1 X67.270 Y82.294 E3.64125
G1 X67.580 Y81.864 E3.66332
G1 X67.920 Y81.444 E3.68581
G1 X68.300 Y81.064 E3.70818
G1 X68.910 Y80.544 E3.74155
G1 X69.360 Y80.244 E3.76406
G1 X69.820 Y79.984 E3.78606
G1 X70.310 Y79.754 E3.80859
G1 X70.810 Y79.564 E3.83086
G1 X71.070 Y79.484 E3.84218
G1 X71.850 Y79.314 E3.87541
G1 X72.120 Y79.274 E3.88677
G1 X72.920 Y79.224 E3.92014
G1 X127.070 Y79.224 E6.17427
G1 X127.870 Y79.274 E6.20764
G1 X128.140 Y79.314 E6.21900
G1 X128.920 Y79.484 E6.25223
G1 X129.430 Y79.654 E6.27461
G1 X129.930 Y79.864 E6.29719
G1 X130.630 Y80.244 E6.33034
G1 X131.080 Y80.544 E6.35286
G1 X131.690 Y81.064 E6.38622
G1 X132.070 Y81.444 E6.40859
G1 X132.570 Y82.074 E6.44208
G1 X132.990 Y82.754 E6.47535
G1 X133.230 Y83.244 E6.49806
G1 X133.430 Y83.734 E6.52009
G1 X133.650 Y84.514 E6.55383
G1 X133.770 Y85.304 E6.58709
G1 X133.800 Y86.104 E6.62042
G1 X133.760 Y86.864 E6.65210
G1 X133.680 Y87.574 E6.68184
G1 X133.530 Y88.464 E6.71941
G1 X133.360 Y89.234 E6.75223
G1 X133.100 Y90.124 E6.79083
G1 X132.870 Y90.764 E6.81914
G1 X132.510 Y91.654 E6.85911
G1 X132.200 Y92.324 E6.88984
G1 X131.730 Y93.194 E6.93100
G1 X131.420 Y93.704 E6.95584
G1 X130.860 Y94.554 E6.99822
G1 X130.510 Y95.044 E7.02328
G1 X129.840 Y95.884 E7.06801
G1 X129.520 Y96.254 E7.08837
G1 X110.210 Y117.174 E8.27350
G1 X108.860 Y118.464 E8.35123
G1 X108.076 Y119.085 E8.39286
G1 X107.990 Y119.154 E8.39745
G1 F1800.000 E7.39745
G92 E0
G1 X105.807 Y106.244 F7800.000
G1 F1800.000 E1.00000
G1 X105.398 Y105.642 F540.000 E1.03028
G1 X105.141 Y105.311 E1.04772
G1 X104.864 Y104.997 E1.06517
G1 X104.568 Y104.700 E1.08261
G1 X104.253 Y104.423 E1.10006
G1 X103.922 Y104.166 E1.11751
G1 X103.575 Y103.931 E1.13496
G1 X103.214 Y103.717 E1.15241
G1 X102.841 Y103.527 E1.16986
G1 X101.769 Y103.063 E1.21848
G1 X101.788 Y102.860 E1.22699
G1 X103.325 Y102.516 E1.29257
G1 X104.132 Y102.282 E1.32754
G1 X104.923 Y101.997 E1.36251
G1 X105.694 Y101.664 E1.39748
G1 X106.442 Y101.282 E1.43244
G1 X107.166 Y100.854 E1.46744
G1 X107.860 Y100.382 E1.50239
G1 X108.524 Y99.868 E1.53735
G1 X109.154 Y99.312 E1.57234
G1 X109.748 Y98.718 E1.60729
G1 X110.778 Y97.549 E1.67216
G1 X111.130 Y97.767 E1.68940
G1 X110.420 Y99.510 E1.76776
G1 X109.881 Y100.667 E1.82087
G1 X109.304 Y101.758 E1.87226
G1 X108.691 Y102.780 E1.92185
G1 X108.046 Y103.727 E1.96955
G1 X107.374 Y104.597 E2.01531
G1 X106.678 Y105.385 E2.05910
G1 X105.885 Y106.166 E2.10542
G1 X105.807 Y106.244 E2.11001
G1 F1800.000 E1.11001
G92 E0
G1 X89.222 Y97.549 F7800.000
G1 F1800.000 E1.00000
G1 X90.252 Y98.718 F540.000 E1.06489
G1 X90.846 Y99.312 E1.09984
G1 X91.476 Y99.868 E1.13482
G1 X92.140 Y100.382 E1.16977
G1 X92.835 Y100.855 E1.20474
G1 X93.558 Y101.282 E1.23971
G1 X94.307 Y101.664 E1.27469
G1 X95.078 Y101.997 E1.30966
G1 X95.868 Y102.282 E1.34462
G1 X96.674 Y102.516 E1.37959
G1 X98.212 Y102.860 E1.44518
G1 X98.231 Y103.063 E1.45368
G1 X97.159 Y103.527 E1.50230
G1 X96.786 Y103.717 E1.51976
G1 X96.425 Y103.931 E1.53721
G1 X96.078 Y104.166 E1.55465
G1 X95.747 Y104.423 E1.57211
G1 X95.432 Y104.700 E1.58956
G1 X95.136 Y104.997 E1.60700
G1 X94.859 Y105.311 E1.62444
G1 X94.602 Y105.642 E1.64189
G1 X94.193 Y106.244 E1.67216
G1 X93.322 Y105.385 E1.72307
G1 X92.626 Y104.597 E1.76686
G1 X91.954 Y103.727 E1.81263
G1 X91.309 Y102.780 E1.86033
G1 X90.696 Y101.758 E1.90991
G1 X90.119 Y100.667 E1.96131
G1 X89.580 Y99.510 E2.01442
G1 X88.870 Y97.767 E2.09277
G1 X89.128 Y97.607 E2.10542
G1 X89.222 Y97.549 E2.11001
G1 F1800.000 E1.11001
G92 E0
G1 X74.624 Y87.435 F7800.000
G1 F1800.000 E1.00000
G1 X86.805 Y87.435 F540.000 E1.50705
G1 X86.733 Y87.888 E1.52614
G1 X86.654 Y88.724 E1.56110
G1 X86.628 Y89.564 E1.59607
G1 X86.654 Y90.404 E1.63105
G1 X86.733 Y91.240 E1.66600
G1 X86.865 Y92.070 E1.70097
G1 X87.048 Y92.890 E1.73596
G1 X87.282 Y93.696 E1.77092
G1 X87.567 Y94.487 E1.80589
G1 X87.901 Y95.258 E1.84087
G1 X88.282 Y96.006 E1.87583
G1 X89.121 Y97.425 E1.94445
G1 X87.290 Y96.916 E2.02356
G1 X85.878 Y96.460 E2.08534
G1 X84.526 Y95.959 E2.14534
G1 X83.241 Y95.416 E2.20341
G1 X82.029 Y94.833 E2.25940
G1 X80.894 Y94.214 E2.31321
G1 X79.842 Y93.563 E2.36471
G1 X78.877 Y92.884 E2.41383
G1 X78.002 Y92.182 E2.46051
G1 X77.221 Y91.462 E2.50474
G1 X76.536 Y90.729 E2.54652
G1 X75.948 Y89.987 E2.58593
G1 X75.456 Y89.242 E2.62309
G1 X75.060 Y88.498 E2.65818
G1 X74.666 Y87.537 E2.70139
G1 X74.624 Y87.435 E2.70598
G1 F1800.000 E1.70598
G92 E0
G1 X110.879 Y97.425 F7800.000
G1 F1800.000 E1.00000
G1 X111.718 Y96.006 F540.000 E1.06862
G1 X112.100 Y95.257 E1.10360
G1 X112.433 Y94.487 E1.13856
G1 X112.718 Y93.696 E1.17354
G1 X112.952 Y92.890 E1.20849
G1 X113.135 Y92.070 E1.24347
G1 X113.267 Y91.240 E1.27843
G1 X113.346 Y90.404 E1.31339
G1 X113.372 Y89.564 E1.34837
G1 X113.346 Y88.724 E1.38336
G1 X113.267 Y87.888 E1.41832
G1 X113.195 Y87.435 E1.43740
G1 X125.376 Y87.435 E1.94445
G1 X124.940 Y88.498 E1.99225
G1 X124.544 Y89.242 E2.02735
G1 X124.052 Y89.987 E2.06450
G1 X123.464 Y90.729 E2.10391
G1 X122.779 Y91.462 E2.14570
G1 X121.998 Y92.182 E2.18992
G1 X121.123 Y92.884 E2.23660
G1 X120.158 Y93.563 E2.28573
G1 X119.106 Y94.214 E2.33723
G1 X117.971 Y94.833 E2.39103
G1 X116.759 Y95.416 E2.44703
G1 X115.474 Y95.959 E2.50510
G1 X114.123 Y96.460 E2.56510
G1 X112.710 Y96.916 E2.62687
G1 X110.985 Y97.395 E2.70139
G1 X110.879 Y97.425 E2.70599
G1 X110.223 Y96.991 F7800.000
G1 X110.669 Y96.335 F540.000 E2.73903
G1 X111.073 Y95.652 E2.77207
G1 X111.434 Y94.944 E2.80512
G1 X111.749 Y94.216 E2.83816
G1 X112.018 Y93.469 E2.87121
G1 X112.239 Y92.707 E2.90425
G1 X112.412 Y91.932 E2.93729
G1 X112.537 Y91.148 E2.97033
G1 X112.611 Y90.358 E3.00337
G1 X112.636 Y89.564 E3.03643
G1 X112.611 Y88.770 E3.06948
G1 X112.537 Y87.980 E3.10252
G1 X112.412 Y87.196 E3.13556
G1 X112.301 Y86.700 E3.15675
G1 X126.260 Y86.700 E3.73779
G1 X126.175 Y87.188 E3.75842
G1 X125.939 Y88.000 E3.79362
G1 X125.607 Y88.811 E3.83010
G1 X125.177 Y89.618 E3.86818
G1 X124.648 Y90.419 E3.90812
G1 X124.022 Y91.209 E3.95010
G1 X123.297 Y91.984 E3.99426
G1 X122.478 Y92.740 E4.04068
G1 X121.565 Y93.473 E4.08938
G1 X120.563 Y94.177 E4.14038
G1 X119.476 Y94.850 E4.19362
G1 X118.307 Y95.488 E4.24904
G1 X117.062 Y96.087 E4.30656
G1 X115.745 Y96.643 E4.36605
G1 X114.363 Y97.156 E4.42740
G1 X112.922 Y97.621 E4.49046
G1 X111.827 Y97.925 E4.53776
G1 X111.603 Y98.555 E4.56560
G1 X111.094 Y99.804 E4.62175
G1 X110.540 Y100.994 E4.67638
G1 X109.945 Y102.120 E4.72938
G1 X109.311 Y103.176 E4.78067
G1 X108.642 Y104.159 E4.83018
G1 X107.941 Y105.065 E4.87787
G1 X107.212 Y105.891 E4.92371
G1 X106.459 Y106.633 E4.96773
G1 X105.556 Y107.400 E5.01703
G1 X105.202 Y106.704 E5.04953
G1 X105.012 Y106.383 E5.06505
G1 X104.574 Y105.780 E5.09609
G1 X104.327 Y105.500 E5.11161
G1 X103.784 Y104.990 E5.14264
G1 X103.181 Y104.552 E5.17367
G1 X102.527 Y104.193 E5.20471
G1 X101.834 Y103.918 E5.23574
G1 X101.112 Y103.733 E5.26677
G1 X100.744 Y103.675 E5.28230
G1 X100.000 Y103.628 E5.31333
G1 X99.256 Y103.675 E5.34435
G1 X98.888 Y103.733 E5.35989
G1 X98.166 Y103.918 E5.39092
G1 X97.473 Y104.193 E5.42194
G1 X96.819 Y104.552 E5.45298
G1 X96.216 Y104.990 E5.48401
G1 X95.673 Y105.500 E5.51504
G1 X95.426 Y105.780 E5.53057
G1 X94.988 Y106.383 E5.56160
G1 X94.798 Y106.704 E5.57713
G1 X94.444 Y107.400 E5.60962
G1 X93.541 Y106.633 E5.65892
G1 X92.788 Y105.891 E5.70294
G1 X92.059 Y105.065 E5.74878
G1 X91.358 Y104.159 E5.79647
G1 X90.689 Y103.176 E5.84598
G1 X90.055 Y102.120 E5.89727
G1 X89.460 Y100.994 E5.95027
G1 X88.906 Y99.804 E6.00490
G1 X88.397 Y98.555 E6.06105
G1 X88.173 Y97.925 E6.08889
G1 X87.078 Y97.621 E6.13619
G1 X85.637 Y97.156 E6.19925
G1 X84.255 Y96.643 E6.26060
G1 X82.938 Y96.087 E6.32010
G1 X81.693 Y95.488 E6.37761
G1 X80.524 Y94.850 E6.43303
G1 X79.437 Y94.177 E6.48628
G1 X78.435 Y93.473 E6.53727
G1 X77.522 Y92.740 E6.58597
G1 X76.703 Y91.984 E6.63239
G1 X75.978 Y91.209 E6.67655
G1 X75.352 Y90.419 E6.71854
G1 X74.823 Y89.618 E6.75847
G1 X74.393 Y88.811 E6.79655
G1 X74.061 Y88.000 E6.83303
G1 X73.825 Y87.188 E6.86823
G1 X73.740 Y86.700 E6.88886
G1 X87.699 Y86.700 E7.46991
G1 X87.588 Y87.196 E7.49109
G1 X87.463 Y87.980 E7.52414
G1 X87.389 Y88.771 E7.55718
G1 X87.364 Y89.564 E7.59022
G1 X87.389 Y90.358 E7.62327
G1 X87.463 Y91.148 E7.65631
G1 X87.588 Y91.932 E7.68935
G1 X87.761 Y92.707 E7.72241
G1 X87.982 Y93.469 E7.75545
G1 X88.251 Y94.216 E7.78849
G1 X88.566 Y94.944 E7.82154
G1 X88.927 Y95.652 E7.85458
G1 X89.331 Y96.335 E7.88763
G1 X89.777 Y96.991 E7.92067
G1 X90.264 Y97.619 E7.95372
G1 X90.789 Y98.214 E7.98677
G1 X91.350 Y98.775 E8.01981
G1 X91.914 Y99.273 E8.05113
G1 X92.573 Y99.787 E8.08589
G1 X93.229 Y100.233 E8.11894
G1 X93.912 Y100.637 E8.15198
G1 X94.620 Y100.998 E8.18503
G1 X95.348 Y101.313 E8.21808
G1 X96.095 Y101.582 E8.25112
G1 X96.857 Y101.803 E8.28416
G1 X97.632 Y101.976 E8.31721
G1 X98.416 Y102.101 E8.35025
G1 X99.207 Y102.175 E8.38330
G1 X100.000 Y102.200 E8.41634
G1 X100.793 Y102.175 E8.44939
G1 X101.584 Y102.101 E8.48243
G1 X102.368 Y101.976 E8.51548
G1 X103.142 Y101.803 E8.54852
G1 X103.905 Y101.582 E8.58157
G1 X104.652 Y101.313 E8.61462
G1 X105.380 Y100.998 E8.64766
G1 X106.087 Y100.637 E8.68069
G1 X106.735 Y100.254 E8.71203
G1 X107.427 Y99.787 E8.74679
G1 X108.055 Y99.300 E8.77983
G1 X108.650 Y98.775 E8.81289
G1 X109.211 Y98.214 E8.84592
G1 X109.736 Y97.619 E8.87897
G1 X110.155 Y97.078 E8.90743
G1 X110.223 Y96.991 E8.91202
G1 X109.627 Y96.559 F7800.000
G1 X110.048 Y95.940 F540.000 E8.94314
G1 X110.428 Y95.297 E8.97426
G1 X110.768 Y94.631 E9.00538
G1 X111.065 Y93.945 E9.03650
G1 X111.318 Y93.241 E9.06762
G1 X111.526 Y92.524 E9.09874
G1 X111.689 Y91.794 E9.12986
G1 X111.806 Y91.056 E9.16098
G1 X111.877 Y90.311 E9.19210
G1 X111.900 Y89.564 E9.22322
G1 X111.877 Y88.817 E9.25435
G1 X111.806 Y88.073 E9.28546
G1 X111.689 Y87.334 E9.31658
G1 X111.526 Y86.605 E9.34770
G1 X111.340 Y85.964 E9.37547
G1 X127.076 Y85.964 E10.03052
G1 X127.048 Y86.460 E10.05121
G1 X126.893 Y87.354 E10.08897
G1 X126.635 Y88.243 E10.12750
G1 X126.273 Y89.124 E10.16715
G1 X125.810 Y89.995 E10.20821
G1 X125.245 Y90.851 E10.25092
G1 X124.579 Y91.689 E10.29547
G1 X123.816 Y92.506 E10.34201
G1 X122.958 Y93.298 E10.39062
G1 X122.008 Y94.061 E10.44135
G1 X120.969 Y94.791 E10.49422
G1 X119.845 Y95.486 E10.54920
G1 X118.642 Y96.142 E10.60624
G1 X117.364 Y96.757 E10.66527
G1 X116.017 Y97.327 E10.72620
G1 X114.604 Y97.851 E10.78890
G1 X113.133 Y98.325 E10.85324
G1 X112.392 Y98.531 E10.88525
G1 X111.769 Y100.099 E10.95547
G1 X111.199 Y101.322 E11.01162
G1 X110.586 Y102.481 E11.06623
G1 X109.931 Y103.573 E11.11921
G1 X109.238 Y104.592 E11.17053
G1 X108.508 Y105.534 E11.22014
G1 X107.747 Y106.397 E11.26804
G1 X106.956 Y107.176 E11.31426
G1 X106.547 Y107.524 E11.33661
G1 X106.682 Y108.029 E11.35838
G1 X106.747 Y108.372 E11.37291
G1 X106.787 Y108.718 E11.38738
G1 X106.800 Y109.064 E11.40182
G1 X106.787 Y109.411 E11.41626
G1 X106.747 Y109.756 E11.43073
G1 X106.682 Y110.099 E11.44526
G1 X106.591 Y110.438 E11.45989
G1 X106.475 Y110.773 E11.47463
G1 X106.333 Y111.101 E11.48951
G1 X106.166 Y111.422 E11.50457
G1 X105.975 Y111.734 E11.51980
G1 X105.761 Y112.037 E11.53524
G1 X105.264 Y112.607 E11.56672
G1 X104.249 Y113.566 E11.62483
G1 X103.857 Y113.253 E11.64571
G1 X104.557 Y112.069 E11.70294
G1 X104.835 Y111.478 E11.73012
G1 X104.946 Y111.171 E11.74372
G1 X105.037 Y110.857 E11.75733
G1 X105.159 Y110.216 E11.78451
G1 X105.190 Y109.891 E11.79811
G1 X105.190 Y109.238 E11.82529
G1 X105.159 Y108.912 E11.83889
G1 X105.037 Y108.271 E11.86607
G1 X104.835 Y107.650 E11.89326
G1 X104.557 Y107.059 E11.92044
G1 X104.391 Y106.778 E11.93405
G1 X104.207 Y106.507 E11.94765
G1 X103.791 Y106.004 E11.97483
G1 X103.315 Y105.557 E12.00201
G1 X102.786 Y105.173 E12.02920
G1 X102.505 Y105.007 E12.04280
G1 X102.214 Y104.859 E12.05640
G1 X101.607 Y104.618 E12.08358
G1 X100.974 Y104.456 E12.11077
G1 X100.652 Y104.405 E12.12437
G1 X100.000 Y104.364 E12.15155
G1 X99.674 Y104.374 E12.16515
G1 X99.348 Y104.405 E12.17875
G1 X98.707 Y104.527 E12.20593
G1 X98.393 Y104.618 E12.21953
G1 X97.786 Y104.859 E12.24671
G1 X97.214 Y105.173 E12.27390
G1 X96.943 Y105.357 E12.28750
G1 X96.685 Y105.557 E12.30110
G1 X96.209 Y106.004 E12.32829
G1 X95.793 Y106.507 E12.35547
G1 X95.609 Y106.778 E12.36907
G1 X95.295 Y107.350 E12.39625
G1 X95.054 Y107.957 E12.42344
G1 X94.963 Y108.271 E12.43704
G1 X94.841 Y108.912 E12.46422
G1 X94.810 Y109.238 E12.47782
G1 X94.810 Y109.891 E12.50501
G1 X94.892 Y110.538 E12.53219
G1 X95.054 Y111.171 E12.55937
G1 X95.165 Y111.478 E12.57297
G1 X95.443 Y112.069 E12.60016
G1 X96.143 Y113.253 E12.65739
G1 X95.751 Y113.566 E12.67827
G1 X94.736 Y112.607 E12.73638
G1 X94.239 Y112.037 E12.76786
G1 X94.025 Y111.734 E12.78330
G1 X93.834 Y111.422 E12.79853
G1 X93.667 Y111.101 E12.81359
G1 X93.525 Y110.773 E12.82847
G1 X93.409 Y110.438 E12.84321
G1 X93.318 Y110.099 E12.85784
G1 X93.253 Y109.756 E12.87237
G1 X93.213 Y109.411 E12.88684
G1 X93.200 Y109.064 E12.90128
G1 X93.213 Y108.717 E12.91572
G1 X93.253 Y108.372 E12.93019
G1 X93.318 Y108.029 E12.94472
G1 X93.453 Y107.524 E12.96649
G1 X93.044 Y107.176 E12.98884
G1 X92.253 Y106.397 E13.03506
G1 X91.492 Y105.534 E13.08296
G1 X90.762 Y104.592 E13.13257
G1 X90.069 Y103.573 E13.18389
G1 X89.414 Y102.481 E13.23687
G1 X88.801 Y101.322 E13.29148
G1 X88.231 Y100.099 E13.34763
G1 X87.608 Y98.531 E13.41785
G1 X86.867 Y98.325 E13.44986
G1 X85.396 Y97.851 E13.51420
G1 X83.983 Y97.327 E13.57690
G1 X82.636 Y96.757 E13.63783
G1 X81.358 Y96.142 E13.69686
G1 X80.155 Y95.486 E13.75390
G1 X79.031 Y94.791 E13.80888
G1 X77.992 Y94.061 E13.86175
G1 X77.042 Y93.298 E13.91248
G1 X76.184 Y92.506 E13.96109
G1 X75.421 Y91.689 E14.00763
G1 X74.755 Y90.851 E14.05218
G1 X74.190 Y89.995 E14.09489
G1 X73.727 Y89.124 E14.13595
G1 X73.365 Y88.243 E14.17560
G1 X73.107 Y87.354 E14.21413
G1 X72.952 Y86.460 E14.25189
G1 X72.924 Y85.964 E14.27258
G1 X88.660 Y85.964 E14.92763
G1 X88.474 Y86.605 E14.95540
G1 X88.311 Y87.334 E14.98652
G1 X88.194 Y88.073 E15.01764
G1 X88.123 Y88.817 E15.04876
G1 X88.100 Y89.564 E15.07988
G1 X88.123 Y90.311 E15.11100
G1 X88.194 Y91.055 E15.14212
G1 X88.311 Y91.794 E15.17324
G1 X88.470 Y92.506 E15.20360
G1 X88.682 Y93.241 E15.23548
G1 X88.935 Y93.945 E15.26660
G1 X89.225 Y94.614 E15.29696
G1 X89.572 Y95.297 E15.32884
G1 X89.952 Y95.940 E15.35996
