; generated by Slic3r 0.9.8 on 2013-03-13 at 22:54:48

; layer_height = 0.2
; perimeters = 3
; top_solid_layers = 3
; bottom_solid_layers = 5
; fill_density = 0.4
; perimeter_speed = 75
; infill_speed = 75
; travel_speed = 150
; scale = 1
; nozzle_diameter = 0.4
; filament_diameter = 2.78
; extrusion_multiplier = 1
; perimeters extrusion width = 0.64mm
; infill extrusion width = 0.64mm
; support material extrusion width = 0.64mm
; first layer extrusion width = 0.60mm

M107
M104 S215 ; set temperature
G28 ; home all axes
M92 E865.888; init extruder
M109 S215 ; wait for temperature to be reached
G90 ; use absolute coordinates
G21 ; set units to millimeters
G92 E0
M82 ; use absolute distances for extrusion
G1 Z0.300 F9000.000
G1 X114.120 Y124.494
G1 X113.240 Y125.094 F2250.000 E0.02933
G1 X112.340 Y125.624 E0.05808
G1 X111.800 Y125.914 E0.07496
G1 X111.230 Y126.154 E0.09199
G1 X110.640 Y126.354 E0.10914
G1 X110.040 Y126.504 E0.12617
G1 X109.430 Y126.604 E0.14319
G1 X109.120 Y126.634 E0.15176
G1 X108.500 Y126.654 E0.16884
G1 X101.490 Y126.654 E0.36185
G1 X100.870 Y126.634 E0.37893
G1 X100.560 Y126.604 E0.38751
G1 X99.950 Y126.504 E0.40453
G1 X99.350 Y126.354 E0.42155
G1 X98.760 Y126.154 E0.43871
G1 X98.190 Y125.914 E0.45574
G1 X97.080 Y125.294 E0.49074
G1 X96.410 Y124.874 E0.51251
G1 X95.870 Y124.494 E0.53069
G1 X95.240 Y124.004 E0.55267
G1 X94.480 Y123.324 E0.58075
G1 X93.770 Y122.594 E0.60879
G1 X74.710 Y101.964 E1.38212
G1 X74.320 Y101.504 E1.39872
G1 X73.650 Y100.654 E1.42852
G1 X73.280 Y100.144 E1.44587
G1 X72.710 Y99.284 E1.47428
G1 X72.330 Y98.654 E1.49453
G1 X71.860 Y97.774 E1.52200
G1 X71.520 Y97.044 E1.54417
G1 X71.160 Y96.154 E1.57061
G1 X70.920 Y95.474 E1.59046
G1 X70.650 Y94.574 E1.61633
G1 X70.430 Y93.624 E1.64318
G1 X70.280 Y92.714 E1.66858
G1 X70.200 Y91.974 E1.68907
G1 X70.140 Y91.094 E1.71335
G1 X70.160 Y90.234 E1.73704
G1 X70.280 Y89.384 E1.76068
G1 X70.490 Y88.554 E1.78425
G1 X70.800 Y87.754 E1.80787
G1 X71.050 Y87.244 E1.82351
G1 X71.490 Y86.514 E1.84698
G1 X71.830 Y86.054 E1.86273
G1 X72.020 Y85.834 E1.87073
G1 X72.610 Y85.224 E1.89410
G1 X73.270 Y84.674 E1.91775
G1 X73.750 Y84.354 E1.93363
G1 X74.240 Y84.074 E1.94917
G1 X74.760 Y83.824 E1.96506
G1 X75.290 Y83.614 E1.98076
G1 X75.830 Y83.454 E1.99626
G1 X76.390 Y83.324 E2.01209
G1 X76.670 Y83.274 E2.01992
G1 X77.520 Y83.194 E2.04343
G1 X132.470 Y83.194 E3.55639
G1 X133.320 Y83.274 E3.57989
G1 X133.880 Y83.384 E3.59561
G1 X134.700 Y83.614 E3.61906
G1 X135.230 Y83.824 E3.63475
G1 X136.000 Y84.214 E3.65852
G1 X136.720 Y84.674 E3.68204
G1 X137.160 Y85.034 E3.69769
G1 X137.580 Y85.414 E3.71329
G1 X138.160 Y86.054 E3.73707
G1 X138.500 Y86.514 E3.75282
G1 X138.940 Y87.244 E3.77629
G1 X139.300 Y88.014 E3.79969
G1 X139.500 Y88.554 E3.81555
G1 X139.710 Y89.384 E3.83912
G1 X139.830 Y90.234 E3.86275
G1 X139.850 Y90.804 E3.87846
G1 X139.850 Y91.094 E3.88644
G1 X139.790 Y91.974 E3.91073
G1 X139.710 Y92.714 E3.93122
G1 X139.560 Y93.624 E3.95661
G1 X139.340 Y94.574 E3.98346
G1 X139.070 Y95.474 E4.00933
G1 X138.830 Y96.154 E4.02919
G1 X138.470 Y97.044 E4.05562
G1 X138.130 Y97.774 E4.07780
G1 X137.660 Y98.654 E4.10526
G1 X137.280 Y99.284 E4.12552
G1 X136.710 Y100.144 E4.15393
G1 X136.340 Y100.654 E4.17128
G1 X135.670 Y101.504 E4.20108
G1 X135.280 Y101.964 E4.21768
G1 X116.220 Y122.594 E4.99101
G1 X115.510 Y123.324 E5.01905
G1 X114.750 Y124.004 E5.04713
G1 X114.186 Y124.443 E5.06680
G1 X114.120 Y124.494 E5.06910
G1 X113.780 Y124.054 F9000.000
G1 X112.630 Y124.814 F2250.000 E5.10706
G1 X111.790 Y125.294 E5.13369
G1 X111.230 Y125.554 E5.15069
G1 X110.940 Y125.664 E5.15923
G1 X110.350 Y125.854 E5.17630
G1 X109.740 Y125.994 E5.19353
G1 X109.120 Y126.074 E5.21074
G1 X108.810 Y126.094 E5.21930
G1 X101.180 Y126.094 E5.42938
G1 X100.870 Y126.074 E5.43793
G1 X100.250 Y125.994 E5.45514
G1 X99.640 Y125.854 E5.47237
G1 X98.760 Y125.554 E5.49797
G1 X98.200 Y125.294 E5.51497
G1 X97.360 Y124.814 E5.54161
G1 X96.210 Y124.054 E5.57956
G1 X95.580 Y123.564 E5.60154
G1 X94.870 Y122.924 E5.62785
G1 X94.170 Y122.214 E5.65531
G1 X75.110 Y101.584 E6.42864
G1 X74.080 Y100.304 E6.47387
G1 X73.740 Y99.834 E6.48984
G1 X73.170 Y98.974 E6.51825
G1 X72.820 Y98.394 E6.53690
G1 X72.350 Y97.514 E6.56437
G1 X72.030 Y96.834 E6.58506
G1 X71.670 Y95.944 E6.61150
G1 X71.190 Y94.414 E6.65565
G1 X70.980 Y93.534 E6.68056
G1 X70.830 Y92.624 E6.70595
G1 X70.750 Y91.934 E6.72508
G1 X70.710 Y91.334 E6.74163
G1 X70.700 Y90.504 E6.76449
G1 X70.750 Y89.954 E6.77969
G1 X70.910 Y89.134 E6.80270
G1 X71.060 Y88.604 E6.81786
G1 X71.370 Y87.834 E6.84072
G1 X71.770 Y87.104 E6.86364
G1 X72.250 Y86.424 E6.88655
G1 X72.610 Y86.004 E6.90178
G1 X72.810 Y85.804 E6.90957
G1 X73.430 Y85.254 E6.93239
G1 X73.880 Y84.934 E6.94759
G1 X74.360 Y84.644 E6.96303
G1 X74.850 Y84.394 E6.97818
G1 X75.360 Y84.184 E6.99337
G1 X75.890 Y84.014 E7.00869
G1 X76.430 Y83.884 E7.02398
G1 X76.980 Y83.794 E7.03933
G1 X77.530 Y83.754 E7.05451
G1 X132.460 Y83.754 E8.56692
G1 X133.010 Y83.794 E8.58210
G1 X133.830 Y83.944 E8.60505
G1 X134.630 Y84.184 E8.62805
G1 X135.140 Y84.394 E8.64324
G1 X135.630 Y84.644 E8.65838
G1 X136.110 Y84.934 E8.67382
G1 X136.560 Y85.254 E8.68903
G1 X137.180 Y85.804 E8.71185
G1 X137.380 Y86.004 E8.71963
G1 X137.740 Y86.424 E8.73486
G1 X138.070 Y86.874 E8.75023
G1 X138.360 Y87.344 E8.76543
G1 X138.620 Y87.834 E8.78071
G1 X138.730 Y88.084 E8.78823
G1 X138.930 Y88.604 E8.80357
G1 X139.140 Y89.404 E8.82634
G1 X139.240 Y89.954 E8.84173
G1 X139.270 Y90.234 E8.84949
G1 X139.290 Y90.504 E8.85694
G1 X139.290 Y91.064 E8.87236
G1 X139.240 Y91.934 E8.89635
G1 X139.160 Y92.624 E8.91548
G1 X139.010 Y93.534 E8.94087
G1 X138.800 Y94.414 E8.96578
G1 X138.530 Y95.314 E8.99165
G1 X138.320 Y95.944 E9.00994
G1 X137.960 Y96.834 E9.03637
G1 X137.640 Y97.514 E9.05706
G1 X137.170 Y98.394 E9.08453
G1 X136.820 Y98.974 E9.10318
G1 X136.250 Y99.834 E9.13159
G1 X135.910 Y100.304 E9.14756
G1 X134.880 Y101.584 E9.19280
G1 X115.820 Y122.214 E9.96613
G1 X115.120 Y122.924 E9.99358
G1 X114.410 Y123.564 E10.01990
G1 X113.846 Y124.003 E10.03957
G1 X113.780 Y124.054 E10.04187
G1 X113.440 Y123.614 F9000.000
G1 X112.630 Y124.164 F2250.000 E10.06883
G1 X111.790 Y124.654 E10.09561
G1 X111.280 Y124.924 E10.11149
G1 X111.010 Y125.044 E10.11963
G1 X110.480 Y125.234 E10.13513
G1 X109.640 Y125.444 E10.15897
G1 X109.070 Y125.514 E10.17478
G1 X108.500 Y125.544 E10.19050
G1 X101.200 Y125.534 E10.39149
G1 X100.630 Y125.484 E10.40725
G1 X100.070 Y125.384 E10.42291
G1 X99.240 Y125.144 E10.44670
G1 X98.710 Y124.924 E10.46250
G1 X97.630 Y124.324 E10.49651
G1 X97.020 Y123.944 E10.51630
G1 X96.550 Y123.614 E10.53211
G1 X95.920 Y123.124 E10.55409
G1 X95.270 Y122.534 E10.57826
G1 X94.580 Y121.834 E10.60532
G1 X75.520 Y101.204 E11.37865
G1 X74.520 Y99.964 E11.42251
G1 X74.200 Y99.524 E11.43749
G1 X73.630 Y98.664 E11.46590
G1 X73.320 Y98.134 E11.48280
G1 X72.850 Y97.254 E11.51027
G1 X72.550 Y96.624 E11.52948
G1 X72.190 Y95.734 E11.55592
G1 X71.990 Y95.154 E11.57281
G1 X71.720 Y94.254 E11.59868
G1 X71.530 Y93.444 E11.62159
G1 X71.380 Y92.534 E11.64698
G1 X71.310 Y91.904 E11.66443
G1 X71.270 Y91.304 E11.68099
G1 X71.250 Y90.764 E11.69587
G1 X71.260 Y90.494 E11.70331
G1 X71.280 Y90.224 E11.71076
G1 X71.360 Y89.694 E11.72552
G1 X71.470 Y89.174 E11.74016
G1 X71.630 Y88.664 E11.75487
G1 X71.950 Y87.924 E11.77707
G1 X72.210 Y87.454 E11.79186
G1 X72.360 Y87.224 E11.79942
G1 X72.840 Y86.584 E11.82145
G1 X73.400 Y86.004 E11.84364
G1 X73.820 Y85.664 E11.85852
G1 X74.250 Y85.354 E11.87312
G1 X74.720 Y85.084 E11.88804
G1 X75.200 Y84.844 E11.90282
G1 X75.700 Y84.654 E11.91754
G1 X76.220 Y84.504 E11.93245
G1 X76.740 Y84.394 E11.94708
G1 X77.270 Y84.324 E11.96180
G1 X77.810 Y84.304 E11.97668
G1 X132.180 Y84.304 E13.47367
G1 X132.720 Y84.324 E13.48854
G1 X133.250 Y84.394 E13.50326
G1 X134.030 Y84.574 E13.52530
G1 X134.540 Y84.744 E13.54011
G1 X134.790 Y84.844 E13.54752
G1 X135.270 Y85.084 E13.56230
G1 X135.740 Y85.354 E13.57722
G1 X136.170 Y85.664 E13.59181
G1 X136.590 Y86.004 E13.60669
G1 X137.150 Y86.584 E13.62889
G1 X137.480 Y87.004 E13.64360
G1 X137.780 Y87.454 E13.65849
G1 X138.040 Y87.924 E13.67328
G1 X138.150 Y88.164 E13.68055
G1 X138.360 Y88.664 E13.69548
G1 X138.520 Y89.174 E13.71019
G1 X138.580 Y89.434 E13.71754
G1 X138.710 Y90.224 E13.73959
G1 X138.740 Y90.764 E13.75448
G1 X138.680 Y91.904 E13.78591
G1 X138.610 Y92.534 E13.80336
G1 X138.460 Y93.444 E13.82875
G1 X138.270 Y94.254 E13.85166
G1 X138.000 Y95.154 E13.87753
G1 X137.800 Y95.734 E13.89442
G1 X137.440 Y96.624 E13.92086
G1 X137.140 Y97.254 E13.94007
G1 X136.670 Y98.134 E13.96754
G1 X136.360 Y98.664 E13.98444
G1 X135.790 Y99.524 E14.01285
G1 X135.470 Y99.964 E14.02783
G1 X134.470 Y101.204 E14.07169
G1 X115.410 Y121.834 E14.84502
G1 X114.720 Y122.534 E14.87208
G1 X114.070 Y123.124 E14.89625
G1 X113.506 Y123.563 E14.91593
G1 X113.440 Y123.614 E14.91823
G1 X110.645 Y111.960 F9000.000
G1 X110.446 Y111.570 F2250.000 E14.93026
G1 X110.247 Y111.234 E14.94102
G1 X109.789 Y110.603 E14.96251
G1 X109.530 Y110.310 E14.97325
G1 X108.962 Y109.775 E14.99474
G1 X108.330 Y109.317 E15.01623
G1 X107.646 Y108.941 E15.03772
G1 X106.921 Y108.653 E15.05921
G1 X106.165 Y108.459 E15.08070
G1 X105.779 Y108.398 E15.09145
G1 X105.000 Y108.349 E15.11294
G1 X104.221 Y108.398 E15.13442
G1 X103.835 Y108.459 E15.14518
G1 X103.079 Y108.653 E15.16667
G1 X102.354 Y108.941 E15.18815
G1 X101.670 Y109.317 E15.20964
G1 X101.038 Y109.775 E15.23114
G1 X100.470 Y110.310 E15.25262
G1 X100.211 Y110.603 E15.26337
G1 X99.753 Y111.234 E15.28486
G1 X99.554 Y111.570 E15.29561
G1 X99.355 Y111.960 E15.30765
G1 X98.729 Y111.428 E15.33027
G1 X97.990 Y110.700 E15.35883
G1 X97.274 Y109.888 E15.38864
G1 X96.584 Y108.996 E15.41970
G1 X95.924 Y108.026 E15.45200
G1 X95.298 Y106.983 E15.48549
G1 X94.709 Y105.870 E15.52015
G1 X94.161 Y104.693 E15.55590
G1 X93.657 Y103.456 E15.59267
G1 X93.387 Y102.695 E15.61490
G1 X92.158 Y102.354 E15.65001
G1 X90.728 Y101.892 E15.69140
G1 X89.357 Y101.384 E15.73164
G1 X88.053 Y100.833 E15.77064
G1 X86.820 Y100.240 E15.80830
G1 X85.665 Y99.609 E15.84455
G1 X84.590 Y98.945 E15.87933
G1 X83.602 Y98.250 E15.91259
G1 X82.704 Y97.529 E15.94430
G1 X81.899 Y96.787 E15.97445
G1 X81.190 Y96.027 E16.00306
G1 X80.577 Y95.255 E16.03019
G1 X80.063 Y94.476 E16.05590
G1 X79.646 Y93.692 E16.08034
G1 X79.324 Y92.908 E16.10368
G1 X79.054 Y91.978 E16.13034
G1 X92.340 Y91.978 E16.49615
G1 X92.187 Y92.946 E16.52312
G1 X92.111 Y93.753 E16.54544
G1 X92.085 Y94.564 E16.56779
G1 X92.111 Y95.375 E16.59014
G1 X92.187 Y96.183 E16.61246
G1 X92.314 Y96.984 E16.63480
G1 X92.491 Y97.776 E16.65715
G1 X92.717 Y98.555 E16.67948
G1 X92.992 Y99.318 E16.70182
G1 X93.314 Y100.063 E16.72417
G1 X93.661 Y100.742 E16.74516
G1 X94.095 Y101.484 E16.76883
G1 X94.552 Y102.155 E16.79117
G1 X95.049 Y102.797 E16.81352
G1 X95.586 Y103.405 E16.83586
G1 X96.159 Y103.978 E16.85817
G1 X96.768 Y104.515 E16.88053
G1 X97.370 Y104.983 E16.90152
G1 X98.080 Y105.468 E16.92520
G1 X98.779 Y105.882 E16.94755
G1 X99.501 Y106.250 E16.96988
G1 X100.246 Y106.572 E16.99223
G1 X101.009 Y106.847 E17.01455
G1 X101.788 Y107.073 E17.03689
G1 X102.580 Y107.250 E17.05923
G1 X103.381 Y107.377 E17.08157
G1 X104.141 Y107.449 E17.10257
G1 X105.000 Y107.479 E17.12626
G1 X105.811 Y107.453 E17.14859
G1 X106.618 Y107.377 E17.17091
G1 X107.420 Y107.250 E17.19326
G1 X108.212 Y107.073 E17.21560
G1 X108.991 Y106.847 E17.23793
G1 X109.754 Y106.572 E17.26027
G1 X110.499 Y106.250 E17.28263
G1 X111.222 Y105.881 E17.30496
G1 X111.920 Y105.468 E17.32729
G1 X112.591 Y105.012 E17.34963
G1 X113.232 Y104.515 E17.37197
G1 X113.841 Y103.978 E17.39434
G1 X114.415 Y103.405 E17.41665
G1 X114.951 Y102.796 E17.43898
G1 X115.449 Y102.155 E17.46134
G1 X115.904 Y101.484 E17.48366
G1 X116.317 Y100.786 E17.50600
G1 X116.686 Y100.063 E17.52834
G1 X117.008 Y99.318 E17.55070
G1 X117.266 Y98.601 E17.57168
G1 X117.509 Y97.775 E17.59537
G1 X117.686 Y96.984 E17.61771
G1 X117.813 Y96.182 E17.64004
G1 X117.889 Y95.376 E17.66236
G1 X117.915 Y94.564 E17.68471
G1 X117.889 Y93.753 E17.70706
G1 X117.813 Y92.946 E17.72938
G1 X117.660 Y91.978 E17.75635
G1 X130.946 Y91.978 E18.12216
G1 X130.676 Y92.908 E18.14882
G1 X130.354 Y93.692 E18.17216
G1 X129.937 Y94.476 E18.19660
G1 X129.423 Y95.255 E18.22231
G1 X128.810 Y96.027 E18.24944
G1 X128.101 Y96.787 E18.27805
G1 X127.296 Y97.529 E18.30820
G1 X126.398 Y98.250 E18.33991
G1 X125.410 Y98.945 E18.37317
G1 X124.335 Y99.609 E18.40795
G1 X123.180 Y100.240 E18.44420
G1 X121.947 Y100.833 E18.48186
G1 X120.643 Y101.384 E18.52086
G1 X119.272 Y101.892 E18.56110
G1 X117.842 Y102.354 E18.60249
G1 X116.613 Y102.695 E18.63760
G1 X116.343 Y103.456 E18.65983
G1 X115.839 Y104.693 E18.69660
G1 X115.291 Y105.870 E18.73235
G1 X114.702 Y106.983 E18.76701
G1 X114.076 Y108.026 E18.80050
G1 X113.416 Y108.996 E18.83280
G1 X112.726 Y109.888 E18.86386
G1 X112.010 Y110.700 E18.89367
G1 X111.271 Y111.428 E18.92223
G1 X110.708 Y111.905 E18.94255
G1 X110.645 Y111.960 E18.94485
G1 X111.030 Y112.363 F9000.000
G1 X111.236 Y113.131 F2250.000 E18.96675
G1 X111.295 Y113.441 E18.97543
G1 X111.342 Y114.064 E18.99264
G1 X111.295 Y114.688 E19.00986
G1 X111.236 Y114.997 E19.01853
G1 X110.973 Y115.980 E19.04654
G1 X110.553 Y115.904 E19.05828
G1 X110.646 Y114.919 E19.08551
G1 X110.646 Y114.209 E19.10507
G1 X110.557 Y113.504 E19.12463
G1 X110.381 Y112.816 E19.14420
G1 X110.119 Y112.155 E19.16376
G1 X109.777 Y111.533 E19.18332
G1 X109.359 Y110.958 E19.20288
G1 X108.873 Y110.440 E19.22244
G1 X108.325 Y109.987 E19.24201
G1 X107.726 Y109.606 E19.26157
G1 X107.409 Y109.445 E19.27136
G1 X106.748 Y109.183 E19.29091
G1 X106.060 Y109.007 E19.31048
G1 X105.355 Y108.918 E19.33004
G1 X104.645 Y108.918 E19.34960
G1 X103.940 Y109.007 E19.36916
G1 X103.252 Y109.183 E19.38872
G1 X102.591 Y109.445 E19.40828
G1 X102.274 Y109.606 E19.41807
G1 X101.969 Y109.787 E19.42786
G1 X101.394 Y110.205 E19.44742
G1 X100.876 Y110.691 E19.46698
G1 X100.423 Y111.239 E19.48654
G1 X100.223 Y111.533 E19.49633
G1 X100.042 Y111.839 E19.50612
G1 X99.740 Y112.481 E19.52567
G1 X99.619 Y112.816 E19.53546
G1 X99.443 Y113.504 E19.55502
G1 X99.354 Y114.209 E19.57458
G1 X99.342 Y114.564 E19.58437
G1 X99.354 Y114.919 E19.59416
G1 X99.447 Y115.904 E19.62139
G1 X99.027 Y115.980 E19.63313
G1 X98.764 Y114.997 E19.66114
G1 X98.705 Y114.688 E19.66981
G1 X98.658 Y114.064 E19.68703
G1 X98.705 Y113.441 E19.70424
G1 X98.764 Y113.131 E19.71292
G1 X98.970 Y112.363 E19.73482
G1 X98.353 Y111.839 E19.75710
G1 X97.585 Y111.083 E19.78676
G1 X96.844 Y110.243 E19.81760
G1 X96.133 Y109.323 E19.84963
G1 X95.454 Y108.326 E19.88282
G1 X94.812 Y107.257 E19.91717
G1 X94.210 Y106.118 E19.95263
G1 X93.650 Y104.916 E19.98915
G1 X93.136 Y103.655 E20.02665
G1 X92.959 Y103.155 E20.04125
G1 X91.998 Y102.888 E20.06871
G1 X90.545 Y102.419 E20.11074
G1 X89.152 Y101.902 E20.15166
G1 X87.824 Y101.340 E20.19137
G1 X86.566 Y100.736 E20.22979
G1 X85.384 Y100.091 E20.26685
G1 X84.283 Y99.410 E20.30250
G1 X83.267 Y98.695 E20.33670
G1 X82.340 Y97.951 E20.36942
G1 X81.506 Y97.182 E20.40067
G1 X80.767 Y96.391 E20.43047
G1 X80.126 Y95.583 E20.45889
G1 X79.583 Y94.761 E20.48600
G1 X79.141 Y93.930 E20.51193
G1 X78.797 Y93.092 E20.53685
G1 X78.553 Y92.251 E20.56097
G1 X78.409 Y91.421 E20.58415
G1 X93.046 Y91.421 E20.98715
G1 X92.861 Y92.249 E21.01050
G1 X92.740 Y93.015 E21.03187
G1 X92.667 Y93.788 E21.05324
G1 X92.642 Y94.564 E21.07462
G1 X92.667 Y95.340 E21.09600
G1 X92.740 Y96.113 E21.11737
G1 X92.861 Y96.879 E21.13874
G1 X93.031 Y97.637 E21.16012
G1 X93.247 Y98.383 E21.18149
G1 X93.510 Y99.113 E21.20287
G1 X93.806 Y99.797 E21.22338
G1 X94.171 Y100.517 E21.24562
G1 X94.566 Y101.185 E21.26698
G1 X95.003 Y101.827 E21.28836
G1 X95.479 Y102.441 E21.30974
G1 X95.992 Y103.024 E21.33112
G1 X96.540 Y103.572 E21.35248
G1 X97.123 Y104.086 E21.37387
G1 X97.736 Y104.562 E21.39524
G1 X98.379 Y104.998 E21.41661
G1 X99.047 Y105.393 E21.43799
G1 X99.738 Y105.745 E21.45936
G1 X100.451 Y106.054 E21.48074
G1 X101.181 Y106.317 E21.50211
G1 X101.927 Y106.533 E21.52348
G1 X102.684 Y106.703 E21.54486
G1 X103.451 Y106.824 E21.56623
G1 X104.193 Y106.894 E21.58675
