; generated by Slic3r 0.9.8 on 2013-03-13 at 17:17:56

; layer_height = 0.4
; perimeters = 3
; top_solid_layers = 3
; bottom_solid_layers = 3
; fill_density = 0.4
; perimeter_speed = 30
; infill_speed = 60
; travel_speed = 130
; scale = 1
; nozzle_diameter = 0.5
; filament_diameter = 3
; extrusion_multiplier = 1
; perimeters extrusion width = 0.53mm
; infill extrusion width = 0.53mm
; first layer extrusion width = 0.80mm

M107
M104 S200 ; set temperature
G28 ; home all axes
M109 S200 ; wait for temperature to be reached
G90 ; use absolute coordinates
G21 ; set units to millimeters
G92 E0
M82 ; use absolute distances for extrusion
G1 F1800.000 E-1.00000
G92 E0
G1 Z0.400 F7800.000
G1 X128.920 Y115.480
G1 F1800.000 E1.00000
G1 X128.400 Y115.600 F540.000 E1.02222
G1 X127.870 Y115.690 E1.04459
G1 X127.070 Y115.740 E1.07796
G1 X72.920 Y115.740 E3.33209
G1 X72.120 Y115.690 E3.36546
G1 X71.850 Y115.650 E3.37682
G1 X71.070 Y115.480 E3.41005
G1 X70.810 Y115.400 E3.42138
G1 X70.310 Y115.210 E3.44364
G1 X69.820 Y114.980 E3.46618
G1 X69.360 Y114.720 E3.48817
G1 X68.910 Y114.420 E3.51068
G1 X68.300 Y113.900 E3.54405
G1 X67.920 Y113.520 E3.56642
G1 X67.580 Y113.100 E3.58892
G1 X67.270 Y112.670 E3.61098
G1 X66.870 Y111.970 E3.64454
G1 X66.560 Y111.230 E3.67794
G1 X66.340 Y110.450 E3.71168
G1 X66.250 Y109.930 E3.73365
G1 X66.190 Y109.120 E3.76746
G1 X66.230 Y108.100 E3.80995
G1 X66.310 Y107.400 E3.83928
G1 X66.460 Y106.500 E3.87726
G1 X66.640 Y105.700 E3.91140
G1 X66.900 Y104.820 E3.94959
G1 X67.120 Y104.200 E3.97698
G1 X67.480 Y103.310 E4.01694
G1 X67.790 Y102.640 E4.04767
G1 X68.260 Y101.770 E4.08884
G1 X68.570 Y101.260 E4.11368
G1 X69.130 Y100.410 E4.15605
G1 X69.480 Y99.920 E4.18112
G1 X70.150 Y99.080 E4.22585
G1 X71.240 Y97.880 E4.29333
G1 X71.620 Y97.500 E4.31570
G1 X72.480 Y96.710 E4.36432
G1 X73.780 Y95.650 E4.43414
G1 X74.080 Y95.420 E4.44988
G1 X85.260 Y87.460 E5.02118
G1 X85.970 Y87.020 E5.05595
G1 X86.730 Y86.670 E5.09078
G1 X87.250 Y86.490 E5.11369
G1 X88.060 Y86.310 E5.14823
G1 X88.610 Y86.240 E5.17131
G1 X89.170 Y86.210 E5.19466
G1 X110.820 Y86.210 E6.09589
G1 X111.380 Y86.240 E6.11924
G1 X111.930 Y86.310 E6.14232
G1 X112.740 Y86.490 E6.17686
G1 X113.260 Y86.670 E6.19976
G1 X114.020 Y87.020 E6.23459
G1 X114.730 Y87.460 E6.26936
G1 X125.910 Y95.420 E6.84067
G1 X127.160 Y96.410 E6.90705
G1 X127.510 Y96.710 E6.92624
G1 X128.370 Y97.500 E6.97485
G1 X128.750 Y97.880 E6.99722
G1 X129.840 Y99.080 E7.06470
G1 X130.510 Y99.920 E7.10943
G1 X130.860 Y100.410 E7.13450
G1 X131.420 Y101.260 E7.17687
G1 X131.730 Y101.770 E7.20171
G1 X132.200 Y102.640 E7.24288
G1 X132.510 Y103.310 E7.27361
G1 X132.870 Y104.200 E7.31357
G1 X133.090 Y104.820 E7.34096
G1 X133.350 Y105.700 E7.37916
G1 X133.530 Y106.500 E7.41329
G1 X133.680 Y107.400 E7.45127
G1 X133.760 Y108.100 E7.48060
G1 X133.800 Y108.860 E7.51228
G1 X133.770 Y109.660 E7.54561
G1 X133.650 Y110.450 E7.57887
G1 X133.430 Y111.230 E7.61261
G1 X133.120 Y111.970 E7.64601
G1 X132.720 Y112.670 E7.67957
G1 X132.410 Y113.100 E7.70163
G1 X132.070 Y113.520 E7.72413
G1 X131.690 Y113.900 E7.74650
G1 X131.290 Y114.250 E7.76862
G1 X131.080 Y114.420 E7.77987
G1 X130.630 Y114.720 E7.80238
G1 X129.930 Y115.100 E7.83554
G1 X129.430 Y115.310 E7.85811
G1 X129.025 Y115.448 E7.87590
G1 X128.920 Y115.480 E7.88049
G1 F1800.000 E6.88049
G92 E0
G1 X125.376 Y107.538 F7800.000
G1 F1800.000 E1.00000
G1 X112.009 Y107.538 F540.000 E1.55642
G1 X111.718 Y106.968 E1.58308
G1 X111.291 Y106.245 E1.61805
G1 X110.818 Y105.550 E1.65302
G1 X110.303 Y104.886 E1.68801
G1 X109.748 Y104.256 E1.72297
G1 X109.154 Y103.662 E1.75792
G1 X108.524 Y103.106 E1.79292
G1 X107.860 Y102.591 E1.82788
G1 X107.165 Y102.119 E1.86285
G1 X106.442 Y101.691 E1.89782
G1 X105.693 Y101.310 E1.93280
G1 X104.923 Y100.977 E1.96775
G1 X104.132 Y100.692 E2.00272
G1 X103.325 Y100.457 E2.03770
G1 X102.506 Y100.274 E2.07267
G1 X101.676 Y100.143 E2.10764
G1 X100.840 Y100.064 E2.14260
G1 X100.000 Y100.037 E2.17758
G1 X99.160 Y100.064 E2.21255
G1 X98.324 Y100.143 E2.24752
G1 X97.494 Y100.274 E2.28249
G1 X96.674 Y100.458 E2.31746
G1 X95.868 Y100.692 E2.35242
G1 X95.077 Y100.976 E2.38739
G1 X94.306 Y101.310 E2.42237
G1 X93.558 Y101.691 E2.45733
G1 X92.835 Y102.119 E2.49230
G1 X92.140 Y102.591 E2.52726
G1 X91.476 Y103.106 E2.56225
G1 X90.846 Y103.662 E2.59721
G1 X90.252 Y104.256 E2.63219
G1 X89.697 Y104.886 E2.66714
G1 X89.182 Y105.550 E2.70212
G1 X88.710 Y106.244 E2.73707
G1 X88.282 Y106.968 E2.77207
G1 X87.991 Y107.538 E2.79873
G1 X74.624 Y107.538 E3.35515
G1 X75.060 Y106.476 E3.40295
G1 X75.456 Y105.732 E3.43805
G1 X75.948 Y104.987 E3.47520
G1 X76.536 Y104.245 E3.51461
G1 X77.221 Y103.512 E3.55640
G1 X78.002 Y102.791 E3.60062
G1 X78.877 Y102.089 E3.64730
G1 X79.842 Y101.411 E3.69642
G1 X80.894 Y100.760 E3.74793
G1 X82.029 Y100.141 E3.80173
G1 X83.241 Y99.558 E3.85773
G1 X84.526 Y99.014 E3.91580
G1 X85.878 Y98.513 E3.97580
G1 X87.290 Y98.058 E4.03757
G1 X88.739 Y97.655 E4.10016
G1 X89.084 Y96.680 E4.14322
G1 X89.580 Y95.463 E4.19791
G1 X89.964 Y94.639 E4.23576
G1 X90.841 Y94.836 E4.27318
G1 X93.874 Y95.318 E4.40101
G1 X96.930 Y95.608 E4.52881
G1 X100.001 Y95.705 E4.65672
G1 X103.070 Y95.608 E4.78451
G1 X106.126 Y95.318 E4.91232
G1 X109.159 Y94.836 E5.04016
G1 X110.036 Y94.639 E5.07757
G1 X110.420 Y95.463 E5.11542
G1 X110.916 Y96.680 E5.17011
G1 X111.261 Y97.655 E5.21317
G1 X112.710 Y98.058 E5.27576
G1 X114.123 Y98.513 E5.33754
G1 X115.474 Y99.014 E5.39754
G1 X116.759 Y99.558 E5.45560
G1 X117.971 Y100.141 E5.51160
G1 X119.106 Y100.760 E5.56540
G1 X120.158 Y101.411 E5.61691
G1 X121.123 Y102.089 E5.66603
G1 X121.998 Y102.791 E5.71271
G1 X122.779 Y103.512 E5.75693
G1 X123.464 Y104.245 E5.79872
G1 X124.052 Y104.987 E5.83813
G1 X124.544 Y105.732 E5.87528
G1 X124.940 Y106.476 E5.91038
G1 X125.334 Y107.436 E5.95359
G1 X125.376 Y107.538 E5.95818
G1 X125.939 Y106.974 F7800.000
G1 X126.175 Y107.786 F540.000 E5.99338
G1 X126.260 Y108.274 E6.01401
G1 X111.539 Y108.274 E6.62678
G1 X111.434 Y108.029 E6.63787
G1 X111.073 Y107.322 E6.67091
G1 X110.669 Y106.639 E6.70396
G1 X110.223 Y105.982 E6.73700
G1 X109.736 Y105.355 E6.77006
G1 X109.211 Y104.759 E6.80310
G1 X108.650 Y104.198 E6.83613
G1 X108.055 Y103.673 E6.86919
G1 X107.427 Y103.187 E6.90223
G1 X106.771 Y102.740 E6.93528
G1 X106.088 Y102.336 E6.96832
G1 X105.380 Y101.976 E7.00138
G1 X104.652 Y101.661 E7.03441
G1 X103.905 Y101.392 E7.06745
G1 X103.142 Y101.170 E7.10050
G1 X102.368 Y100.997 E7.13355
G1 X101.584 Y100.873 E7.16659
G1 X100.793 Y100.798 E7.19964
G1 X100.000 Y100.773 E7.23268
G1 X99.206 Y100.798 E7.26573
G1 X98.416 Y100.873 E7.29877
G1 X97.632 Y100.997 E7.33182
G1 X96.857 Y101.170 E7.36486
G1 X96.095 Y101.392 E7.39790
G1 X95.348 Y101.661 E7.43095
G1 X94.620 Y101.976 E7.46400
G1 X93.912 Y102.336 E7.49704
G1 X93.229 Y102.740 E7.53009
G1 X92.573 Y103.187 E7.56313
G1 X91.945 Y103.673 E7.59618
G1 X91.350 Y104.198 E7.62922
G1 X90.788 Y104.760 E7.66228
G1 X90.264 Y105.355 E7.69531
G1 X89.777 Y105.982 E7.72836
G1 X89.331 Y106.639 E7.76139
G1 X88.927 Y107.322 E7.79445
G1 X88.461 Y108.274 E7.83857
G1 X73.740 Y108.274 E8.45133
G1 X73.825 Y107.786 E8.47197
G1 X74.061 Y106.974 E8.50716
G1 X74.393 Y106.163 E8.54365
G1 X74.823 Y105.355 E8.58172
G1 X75.352 Y104.555 E8.62166
G1 X75.978 Y103.765 E8.66364
G1 X76.703 Y102.989 E8.70780
G1 X77.522 Y102.233 E8.75422
G1 X78.435 Y101.501 E8.80292
G1 X79.437 Y100.796 E8.85392
G1 X80.524 Y100.123 E8.90716
G1 X81.693 Y99.486 E8.96258
G1 X82.938 Y98.887 E9.02010
G1 X84.255 Y98.330 E9.07959
G1 X85.637 Y97.818 E9.14094
G1 X87.078 Y97.353 E9.20400
G1 X88.173 Y97.049 E9.25130
G1 X88.397 Y96.418 E9.27914
G1 X88.906 Y95.169 E9.33529
G1 X89.547 Y93.792 E9.39854
G1 X90.979 Y94.113 E9.45965
G1 X93.966 Y94.588 E9.58556
G1 X96.977 Y94.874 E9.71143
G1 X100.001 Y94.969 E9.83738
G1 X103.023 Y94.874 E9.96325
G1 X106.034 Y94.588 E10.08913
G1 X109.021 Y94.113 E10.21504
G1 X110.453 Y93.792 E10.27615
G1 X111.094 Y95.169 E10.33940
G1 X111.603 Y96.418 E10.39555
G1 X111.827 Y97.049 E10.42339
G1 X112.922 Y97.353 E10.47069
G1 X114.363 Y97.818 E10.53375
G1 X115.745 Y98.330 E10.59510
G1 X117.062 Y98.887 E10.65459
G1 X118.307 Y99.486 E10.71211
G1 X119.476 Y100.123 E10.76753
G1 X120.563 Y100.796 E10.82077
G1 X121.565 Y101.501 E10.87177
G1 X122.478 Y102.233 E10.92047
G1 X123.297 Y102.989 E10.96689
G1 X124.022 Y103.765 E11.01105
G1 X124.648 Y104.555 E11.05303
G1 X125.177 Y105.355 E11.09297
G1 X125.607 Y106.163 E11.13104
G1 X125.897 Y106.871 E11.16293
G1 X125.939 Y106.974 E11.16753
G1 X126.635 Y106.731 F7800.000
G1 X126.893 Y107.620 F540.000 E11.20606
G1 X127.048 Y108.513 E11.24382
G1 X127.076 Y109.010 E11.26450
G1 X111.056 Y109.010 E11.93138
G1 X110.768 Y108.343 E11.96162
G1 X110.428 Y107.677 E11.99274
G1 X110.048 Y107.033 E12.02387
G1 X109.627 Y106.415 E12.05498
G1 X109.169 Y105.824 E12.08611
G1 X108.675 Y105.263 E12.11723
G1 X108.146 Y104.735 E12.14834
G1 X107.585 Y104.240 E12.17947
G1 X106.995 Y103.782 E12.21059
G1 X106.376 Y103.362 E12.24171
G1 X105.733 Y102.981 E12.27283
G1 X105.067 Y102.642 E12.30395
G1 X104.360 Y102.338 E12.33597
G1 X103.677 Y102.092 E12.36619
G1 X102.959 Y101.883 E12.39731
G1 X102.230 Y101.720 E12.42843
G1 X101.491 Y101.603 E12.45955
G1 X100.747 Y101.533 E12.49067
G1 X100.000 Y101.509 E12.52179
G1 X99.253 Y101.533 E12.55291
G1 X98.509 Y101.603 E12.58403
G1 X97.770 Y101.720 E12.61515
G1 X97.041 Y101.883 E12.64627
G1 X96.323 Y102.092 E12.67739
G1 X95.619 Y102.345 E12.70851
G1 X94.933 Y102.642 E12.73963
G1 X94.267 Y102.981 E12.77075
G1 X93.624 Y103.362 E12.80187
G1 X93.005 Y103.782 E12.83299
G1 X92.414 Y104.240 E12.86411
G1 X91.854 Y104.735 E12.89523
G1 X91.325 Y105.263 E12.92636
G1 X90.831 Y105.824 E12.95747
G1 X90.373 Y106.415 E12.98859
G1 X89.952 Y107.033 E13.01971
G1 X89.572 Y107.677 E13.05084
G1 X89.232 Y108.343 E13.08195
G1 X88.944 Y109.010 E13.11220
G1 X72.924 Y109.010 E13.77908
G1 X72.952 Y108.513 E13.79976
G1 X73.107 Y107.620 E13.83752
G1 X73.365 Y106.731 E13.87605
G1 X73.727 Y105.849 E13.91570
G1 X74.190 Y104.979 E13.95676
G1 X74.755 Y104.123 E13.99947
G1 X75.421 Y103.284 E14.04403
G1 X76.184 Y102.467 E14.09057
G1 X77.042 Y101.675 E14.13917
G1 X77.992 Y100.913 E14.18990
G1 X79.031 Y100.182 E14.24277
G1 X80.155 Y99.487 E14.29775
G1 X81.358 Y98.831 E14.35479
G1 X82.636 Y98.216 E14.41383
G1 X83.983 Y97.646 E14.47475
G1 X85.396 Y97.123 E14.53745
G1 X86.867 Y96.648 E14.60180
G1 X87.608 Y96.442 E14.63380
G1 X88.231 Y94.875 E14.70402
G1 X88.801 Y93.652 E14.76018
G1 X89.170 Y92.953 E14.79308
G1 X91.118 Y93.390 E14.87617
G1 X94.059 Y93.858 E15.00014
G1 X97.023 Y94.139 E15.12410
G1 X100.000 Y94.233 E15.24808
G1 X102.977 Y94.139 E15.37203
G1 X105.941 Y93.858 E15.49599
G1 X108.882 Y93.390 E15.61997
G1 X110.830 Y92.953 E15.70305
G1 X111.199 Y93.652 E15.73596
G1 X111.769 Y94.875 E15.79211
G1 X112.392 Y96.442 E15.86233
G1 X113.133 Y96.648 E15.89434
G1 X114.604 Y97.123 E15.95868
G1 X116.017 Y97.646 E16.02138
G1 X117.364 Y98.216 E16.08231
G1 X118.642 Y98.831 E16.14134
G1 X119.845 Y99.487 E16.19838
G1 X120.969 Y100.182 E16.25336
G1 X122.008 Y100.913 E16.30623
G1 X122.958 Y101.675 E16.35696
G1 X123.816 Y102.467 E16.40557
G1 X124.579 Y103.284 E16.45211
G1 X125.245 Y104.123 E16.49666
G1 X125.810 Y104.979 E16.53937
G1 X126.274 Y105.849 E16.58043
G1 X126.593 Y106.629 E16.61549
G1 X126.635 Y106.731 E16.62008
G1 X126.145 Y107.279 F7800.000
G1 F1800.000 E15.62008
G92 E0
G1 X122.024 Y103.798 F7800.000
G1 F1800.000 E1.00000
G1 X122.495 Y104.269 F1080.000 E1.02797
G1 X124.214 Y107.037 E1.16473
G1 X118.143 Y100.966 E1.52516
G1 X116.049 Y99.921 E1.62341
G1 X123.165 Y107.037 E2.04588
G1 X122.115 Y107.037 E2.08993
G1 X114.291 Y99.213 E2.55443
G1 X112.697 Y98.668 E2.62517
G1 X121.066 Y107.037 E3.12204
G1 X120.017 Y107.037 E3.16609
G1 X111.217 Y98.237 E3.68853
G1 X110.630 Y97.650 F7800.000
G1 X108.409 Y95.429 F1080.000 E3.82042
G1 X109.301 Y95.271 E3.85843
G1 X109.951 Y95.921 E3.89702
G1 F1800.000 E2.89702
G92 E0
G1 X107.504 Y95.573 F7800.000
G1 F1800.000 E1.00000
G1 X118.968 Y107.037 F1080.000 E1.68063
G1 X117.919 Y107.037 E1.72467
G1 X106.599 Y95.716 E2.39675
G1 X105.676 Y95.843 E2.43583
G1 X116.870 Y107.037 E3.10038
G1 X115.821 Y107.037 E3.14442
G1 X104.718 Y95.934 E3.80357
G1 X103.760 Y96.025 E3.84398
G1 X114.771 Y107.037 E4.49774
G1 X113.722 Y107.037 E4.54178
G1 X102.797 Y96.111 E5.19043
G1 F1800.000 E4.19043
G92 E0
G1 X106.799 Y101.163 F7800.000
G1 F1800.000 E1.00000
G1 X101.780 Y96.143 F1080.000 E1.29799
G1 X100.763 Y96.175 E1.34071
G1 X104.937 Y100.350 E1.58853
G1 X103.452 Y99.914 E1.65350
G1 X99.744 Y96.206 E1.87362
G1 X98.661 Y96.172 E1.91912
G1 X102.161 Y99.672 E2.12691
G1 X100.999 Y99.560 E2.17590
G1 X97.578 Y96.138 E2.37905
G1 X96.483 Y96.093 E2.42502
G1 X99.936 Y99.545 E2.62998
G1 X98.943 Y99.602 E2.67171
G1 X95.324 Y95.983 E2.88657
G1 X94.165 Y95.873 E2.93545
G1 X98.011 Y99.719 E3.16379
G1 X97.131 Y99.888 E3.20141
G1 X92.965 Y95.722 E3.44877
G1 X91.717 Y95.523 E3.50180
G1 X96.297 Y100.103 E3.77372
G1 X95.504 Y100.359 E3.80871
G1 X90.470 Y95.325 E4.10760
G1 X89.904 Y95.809 E4.13884
G1 X94.748 Y100.653 E4.42643
G1 X94.027 Y100.980 E4.45970
G1 X89.601 Y96.554 E4.72249
G1 X89.320 Y97.322 E4.75684
G1 X93.337 Y101.340 E4.99535
G1 X92.678 Y101.730 E5.02751
G1 X88.996 Y98.048 E5.24611
G1 X88.175 Y98.276 E5.28188
G1 X92.053 Y102.154 E5.51213
G1 X91.456 Y102.606 E5.54357
G1 X87.354 Y98.504 E5.78712
G1 X86.558 Y98.757 E5.82219
G1 X90.887 Y103.086 E6.07919
G1 X90.344 Y103.592 E6.11035
G1 X85.769 Y99.017 E6.38196
G1 X85.003 Y99.301 E6.41623
G1 X89.827 Y104.125 E6.70263
G1 X89.338 Y104.684 E6.73384
G1 X84.250 Y99.596 E7.03590
G1 X83.513 Y99.908 E7.06950
G1 X88.879 Y105.275 E7.38812
G1 X88.451 Y105.895 E7.41978
G1 X82.796 Y100.241 E7.75546
G1 X82.090 Y100.584 E7.78842
G1 X88.050 Y106.544 E8.14229
G1 X87.494 Y107.037 E8.17350
G1 X81.411 Y100.954 E8.53463
G1 X80.746 Y101.338 E8.56688
G1 X86.445 Y107.037 E8.90523
G1 X85.396 Y107.037 E8.94928
G1 X80.097 Y101.739 E9.26383
G1 X79.477 Y102.168 E9.29548
G1 X84.346 Y107.037 E9.58457
G1 X83.297 Y107.037 E9.62861
G1 X78.874 Y102.613 E9.89124
G1 X78.292 Y103.080 E9.92257
G1 X82.248 Y107.037 E10.15747
G1 X81.199 Y107.037 E10.20152
G1 X77.743 Y103.581 E10.40669
G1 X77.220 Y104.106 E10.43783
G1 X80.150 Y107.037 E10.61180
G1 X79.101 Y107.037 E10.65585
G1 X76.725 Y104.661 E10.79689
G1 X76.266 Y105.251 E10.82827
G1 X78.052 Y107.037 E10.93428
G1 X77.002 Y107.037 E10.97833
G1 X75.850 Y105.884 E11.04677
G1 X75.485 Y106.569 E11.07933
G1 X75.953 Y107.037 E11.10714
M106 S218
G1 F1800.000 E10.10714
G92 E0
G1 Z0.800 F7800.000
G1 X126.096 Y108.108
G1 F1800.000 E1.00000
G1 X111.649 Y108.108 F1800.000 E1.42482
G1 X111.219 Y107.242 E1.45324
G1 X110.809 Y106.550 E1.47689
G1 X110.357 Y105.885 E1.50054
G1 X109.864 Y105.249 E1.52419
G1 X109.291 Y104.605 E1.54955
G1 X108.764 Y104.077 E1.57149
G1 X108.161 Y103.545 E1.59514
G1 X107.525 Y103.052 E1.61879
G1 X106.860 Y102.600 E1.64244
G1 X106.168 Y102.191 E1.66609
G1 X105.451 Y101.826 E1.68974
G1 X104.713 Y101.506 E1.71339
G1 X103.956 Y101.234 E1.73704
G1 X103.184 Y101.009 E1.76069
G1 X102.399 Y100.834 E1.78434
G1 X101.605 Y100.708 E1.80799
G1 X100.804 Y100.632 E1.83164
G1 X100.000 Y100.607 E1.85529
G1 X99.196 Y100.632 E1.87893
G1 X98.395 Y100.708 E1.90259
G1 X97.601 Y100.834 E1.92623
G1 X96.751 Y101.028 E1.95189
G1 X96.044 Y101.234 E1.97353
G1 X95.287 Y101.506 E1.99718
G1 X94.549 Y101.826 E2.02083
G1 X93.832 Y102.191 E2.04448
G1 X93.140 Y102.600 E2.06813
G1 X92.475 Y103.052 E2.09178
G1 X91.796 Y103.584 E2.11714
G1 X91.236 Y104.077 E2.13908
G1 X90.667 Y104.646 E2.16273
G1 X90.136 Y105.249 E2.18637
G1 X89.643 Y105.884 E2.21002
G1 X89.191 Y106.550 E2.23367
G1 X88.781 Y107.242 E2.25732
G1 X88.351 Y108.108 E2.28575
G1 X73.904 Y108.108 E2.71057
G1 X74.218 Y107.028 E2.74362
G1 X74.544 Y106.233 E2.76888
G1 X74.966 Y105.440 E2.79531
G1 X75.486 Y104.652 E2.82307
G1 X76.104 Y103.873 E2.85232
G1 X76.820 Y103.107 E2.88313
G1 X77.631 Y102.359 E2.91557
G1 X78.535 Y101.634 E2.94965
G1 X79.528 Y100.935 E2.98538
G1 X80.608 Y100.267 E3.02271
G1 X81.769 Y99.634 E3.06160
G1 X83.007 Y99.039 E3.10199
G1 X84.316 Y98.485 E3.14379
G1 X85.691 Y97.975 E3.18691
