; generated by Slic3r 0.9.8-dev on 2013-03-13 at 23:40:40

; layer_height = 0.18
; perimeters = 3
; top_solid_layers = 3
; bottom_solid_layers = 5
; fill_density = 0.4
; perimeter_speed = 75
; infill_speed = 75
; travel_speed = 150
; scale = 1
; nozzle_diameter = 0.4
; filament_diameter = 2.78
; extrusion_multiplier = 1
; perimeters extrusion width = 0.56mm
; infill extrusion width = 0.56mm
; support material extrusion width = 0.56mm
; first layer extrusion width = 0.60mm

M107
M104 S215 ; set temperature
G28 ; home all axes
M92 E865.888; init extruder
M109 S215 ; wait for temperature to be reached
G90 ; use absolute coordinates
G21 ; set units to millimeters
G92 E0
M82 ; use absolute distances for extrusion
G1 Z0.300 F9000.000
G1 X134.160 Y121.510
G1 X133.320 Y121.690 F2250.000 E0.02365
G1 X132.470 Y121.770 E0.04716
G1 X77.520 Y121.770 E1.56012
G1 X76.670 Y121.690 E1.58362
G1 X76.390 Y121.640 E1.59146
G1 X75.830 Y121.510 E1.60728
G1 X75.290 Y121.350 E1.62279
G1 X74.760 Y121.140 E1.63849
G1 X74.240 Y120.890 E1.65437
G1 X73.750 Y120.610 E1.66991
G1 X73.270 Y120.290 E1.68580
G1 X72.610 Y119.740 E1.70945
G1 X72.020 Y119.130 E1.73282
G1 X71.830 Y118.910 E1.74082
G1 X71.490 Y118.450 E1.75657
G1 X71.050 Y117.720 E1.78004
G1 X70.800 Y117.210 E1.79568
G1 X70.490 Y116.410 E1.81930
G1 X70.280 Y115.580 E1.84287
G1 X70.160 Y114.730 E1.86651
G1 X70.140 Y113.870 E1.89019
G1 X70.200 Y112.990 E1.91448
G1 X70.280 Y112.250 E1.93497
G1 X70.430 Y111.340 E1.96036
G1 X70.650 Y110.390 E1.98721
G1 X70.920 Y109.490 E2.01308
G1 X71.160 Y108.810 E2.03294
G1 X71.520 Y107.920 E2.05937
G1 X71.860 Y107.190 E2.08154
G1 X72.330 Y106.310 E2.10901
G1 X72.710 Y105.680 E2.12927
G1 X73.280 Y104.820 E2.15768
G1 X73.650 Y104.310 E2.17503
G1 X74.320 Y103.460 E2.20483
G1 X74.750 Y102.960 E2.22298
G1 X75.890 Y101.770 E2.26836
G1 X76.750 Y100.970 E2.30070
G1 X77.210 Y100.580 E2.31730
G1 X78.170 Y99.820 E2.35101
G1 X89.890 Y91.430 E2.74787
G1 X90.400 Y91.120 E2.76430
G1 X90.670 Y90.980 E2.77267
G1 X91.490 Y90.630 E2.79722
G1 X92.050 Y90.450 E2.81342
G1 X92.630 Y90.310 E2.82984
G1 X92.920 Y90.260 E2.83795
G1 X93.810 Y90.170 E2.86258
G1 X116.180 Y90.170 E3.47850
G1 X116.770 Y90.220 E3.49480
G1 X117.360 Y90.310 E3.51123
G1 X117.940 Y90.450 E3.52766
G1 X118.500 Y90.630 E3.54386
G1 X118.780 Y90.740 E3.55214
G1 X119.590 Y91.120 E3.57677
G1 X120.100 Y91.430 E3.59321
G1 X131.520 Y99.590 E3.97966
G1 X132.780 Y100.580 E4.02378
G1 X133.240 Y100.970 E4.04038
G1 X134.100 Y101.770 E4.07272
G1 X134.470 Y102.140 E4.08713
G1 X135.240 Y102.960 E4.11810
G1 X135.670 Y103.460 E4.13626
G1 X136.340 Y104.310 E4.16606
G1 X136.710 Y104.820 E4.18340
G1 X137.280 Y105.680 E4.21181
G1 X137.660 Y106.310 E4.23207
G1 X138.130 Y107.190 E4.25954
G1 X138.470 Y107.920 E4.28171
G1 X138.830 Y108.810 E4.30814
G1 X139.070 Y109.490 E4.32800
G1 X139.340 Y110.390 E4.35387
G1 X139.560 Y111.340 E4.38072
G1 X139.710 Y112.250 E4.40611
G1 X139.790 Y112.990 E4.42661
G1 X139.850 Y113.870 E4.45089
G1 X139.830 Y114.730 E4.47458
G1 X139.760 Y115.300 E4.49039
G1 X139.650 Y115.860 E4.50610
G1 X139.500 Y116.410 E4.52180
G1 X139.190 Y117.210 E4.54542
G1 X138.800 Y117.970 E4.56894
G1 X138.500 Y118.450 E4.58452
G1 X138.160 Y118.910 E4.60027
G1 X137.970 Y119.130 E4.60828
G1 X137.380 Y119.740 E4.63164
G1 X136.720 Y120.290 E4.65530
G1 X136.240 Y120.610 E4.67118
G1 X135.490 Y121.020 E4.69472
G1 X134.970 Y121.250 E4.71037
G1 X134.240 Y121.487 E4.73149
G1 X134.160 Y121.510 E4.73380
G1 X134.100 Y120.950 F9000.000
G1 X133.280 Y121.130 F2250.000 E4.75691
G1 X133.010 Y121.170 E4.76443
G1 X132.460 Y121.210 E4.77961
G1 X77.530 Y121.210 E6.29202
G1 X76.980 Y121.170 E6.30720
G1 X76.430 Y121.080 E6.32254
G1 X75.890 Y120.950 E6.33784
G1 X75.360 Y120.780 E6.35316
G1 X74.600 Y120.450 E6.37597
G1 X74.120 Y120.180 E6.39114
G1 X73.650 Y119.870 E6.40664
G1 X73.430 Y119.710 E6.41413
G1 X73.010 Y119.350 E6.42936
G1 X72.610 Y118.960 E6.44474
G1 X72.080 Y118.320 E6.46762
G1 X71.630 Y117.620 E6.49053
G1 X71.370 Y117.130 E6.50581
G1 X71.260 Y116.880 E6.51333
G1 X71.060 Y116.360 E6.52867
G1 X70.980 Y116.100 E6.53616
G1 X70.850 Y115.560 E6.55145
G1 X70.750 Y115.010 E6.56684
G1 X70.700 Y114.460 E6.58205
G1 X70.710 Y113.630 E6.60490
G1 X70.750 Y113.030 E6.62146
G1 X70.830 Y112.340 E6.64058
G1 X70.980 Y111.430 E6.66598
G1 X71.190 Y110.550 E6.69089
G1 X71.670 Y109.020 E6.73504
G1 X72.030 Y108.130 E6.76147
G1 X72.350 Y107.450 E6.78216
G1 X72.820 Y106.570 E6.80963
G1 X73.170 Y105.990 E6.82828
G1 X73.740 Y105.130 E6.85669
G1 X74.080 Y104.660 E6.87266
G1 X74.750 Y103.810 E6.90246
G1 X75.150 Y103.340 E6.91945
G1 X76.260 Y102.180 E6.96366
G1 X77.120 Y101.380 E6.99600
G1 X77.550 Y101.010 E7.01162
G1 X78.510 Y100.250 E7.04533
G1 X89.970 Y92.050 E7.43332
G1 X90.720 Y91.580 E7.45769
G1 X90.980 Y91.450 E7.46569
G1 X91.520 Y91.210 E7.48196
G1 X92.080 Y91.020 E7.49824
G1 X92.360 Y90.940 E7.50626
G1 X92.940 Y90.820 E7.52257
G1 X93.820 Y90.730 E7.54692
G1 X116.170 Y90.730 E8.16229
G1 X117.050 Y90.820 E8.18665
G1 X117.630 Y90.940 E8.20296
G1 X118.190 Y91.110 E8.21907
G1 X118.470 Y91.210 E8.22726
G1 X119.270 Y91.580 E8.25153
G1 X120.020 Y92.050 E8.27590
G1 X131.200 Y100.040 E8.65425
G1 X132.440 Y101.010 E8.69760
G1 X132.870 Y101.380 E8.71321
G1 X133.730 Y102.180 E8.74555
G1 X134.840 Y103.340 E8.78976
G1 X135.240 Y103.810 E8.80675
G1 X135.910 Y104.660 E8.83655
G1 X136.250 Y105.130 E8.85252
G1 X136.820 Y105.990 E8.88093
G1 X137.170 Y106.570 E8.89958
G1 X137.640 Y107.450 E8.92705
G1 X137.960 Y108.130 E8.94774
G1 X138.320 Y109.020 E8.97418
G1 X138.800 Y110.550 E9.01833
G1 X139.010 Y111.430 E9.04324
G1 X139.160 Y112.340 E9.06863
G1 X139.240 Y113.030 E9.08776
G1 X139.290 Y113.900 E9.11175
G1 X139.290 Y114.460 E9.12717
G1 X139.240 Y115.010 E9.14237
G1 X139.080 Y115.830 E9.16538
G1 X138.930 Y116.360 E9.18054
G1 X138.730 Y116.880 E9.19588
G1 X138.620 Y117.130 E9.20340
G1 X138.360 Y117.620 E9.21868
G1 X137.910 Y118.320 E9.24159
G1 X137.380 Y118.960 E9.26447
G1 X136.980 Y119.350 E9.27985
G1 X136.560 Y119.710 E9.29508
G1 X135.870 Y120.180 E9.31807
G1 X135.140 Y120.570 E9.34085
G1 X134.630 Y120.780 E9.35604
G1 X134.180 Y120.926 E9.36906
G1 X134.100 Y120.950 E9.37137
G1 X134.030 Y120.390 F9000.000
G1 X133.510 Y120.520 F2250.000 E9.38612
G1 X132.980 Y120.610 E9.40093
G1 X132.720 Y120.640 E9.40813
G1 X132.180 Y120.660 E9.42301
G1 X77.810 Y120.660 E10.92000
G1 X77.270 Y120.640 E10.93488
G1 X76.740 Y120.570 E10.94960
G1 X76.220 Y120.460 E10.96423
G1 X75.700 Y120.310 E10.97913
G1 X75.200 Y120.120 E10.99386
G1 X74.720 Y119.880 E11.00863
G1 X74.480 Y119.750 E11.01615
G1 X74.030 Y119.460 E11.03089
G1 X73.400 Y118.960 E11.05303
G1 X72.840 Y118.380 E11.07523
G1 X72.360 Y117.740 E11.09726
G1 X72.210 Y117.510 E11.10482
G1 X71.950 Y117.040 E11.11961
G1 X71.630 Y116.300 E11.14181
G1 X71.470 Y115.790 E11.15652
G1 X71.360 Y115.270 E11.17116
G1 X71.280 Y114.740 E11.18591
G1 X71.250 Y114.200 E11.20081
G1 X71.310 Y113.060 E11.23224
G1 X71.380 Y112.430 E11.24969
G1 X71.530 Y111.520 E11.27508
G1 X71.720 Y110.710 E11.29799
G1 X71.990 Y109.810 E11.32386
G1 X72.190 Y109.230 E11.34075
G1 X72.550 Y108.340 E11.36719
G1 X72.850 Y107.710 E11.38640
G1 X73.320 Y106.830 E11.41387
G1 X73.630 Y106.300 E11.43077
G1 X74.200 Y105.440 E11.45918
G1 X74.520 Y105.000 E11.47416
G1 X75.190 Y104.150 E11.50396
G1 X75.560 Y103.720 E11.51958
G1 X76.640 Y102.590 E11.56262
G1 X77.500 Y101.790 E11.59496
G1 X77.900 Y101.450 E11.60941
G1 X78.860 Y100.690 E11.64312
G1 X90.540 Y92.340 E12.03844
G1 X91.040 Y92.050 E12.05436
G1 X91.560 Y91.800 E12.07024
G1 X91.830 Y91.690 E12.07827
G1 X92.390 Y91.510 E12.09446
G1 X92.670 Y91.440 E12.10241
G1 X93.240 Y91.340 E12.11834
G1 X94.110 Y91.280 E12.14236
G1 X115.880 Y91.280 E12.74176
G1 X116.750 Y91.340 E12.76577
G1 X117.320 Y91.440 E12.78170
G1 X117.600 Y91.510 E12.78965
G1 X118.160 Y91.690 E12.80584
G1 X118.430 Y91.800 E12.81387
G1 X118.950 Y92.050 E12.82976
G1 X119.450 Y92.340 E12.84567
G1 X130.870 Y100.500 E13.23212
G1 X132.090 Y101.450 E13.27470
G1 X132.490 Y101.790 E13.28915
G1 X133.350 Y102.590 E13.32149
G1 X134.430 Y103.720 E13.36453
G1 X134.800 Y104.150 E13.38015
G1 X135.470 Y105.000 E13.40995
G1 X135.790 Y105.440 E13.42493
G1 X136.360 Y106.300 E13.45333
G1 X136.670 Y106.830 E13.47024
G1 X137.140 Y107.710 E13.49771
G1 X137.440 Y108.340 E13.51692
G1 X137.800 Y109.230 E13.54335
G1 X138.000 Y109.810 E13.56025
G1 X138.270 Y110.710 E13.58612
G1 X138.460 Y111.520 E13.60902
G1 X138.610 Y112.430 E13.63442
G1 X138.680 Y113.060 E13.65187
G1 X138.740 Y114.200 E13.68330
G1 X138.710 Y114.740 E13.69819
G1 X138.630 Y115.270 E13.71295
G1 X138.520 Y115.790 E13.72758
G1 X138.360 Y116.300 E13.74230
G1 X138.260 Y116.550 E13.74971
G1 X138.040 Y117.040 E13.76450
G1 X137.910 Y117.280 E13.77202
G1 X137.780 Y117.510 E13.77929
G1 X137.480 Y117.960 E13.79418
G1 X136.970 Y118.580 E13.81629
G1 X136.590 Y118.960 E13.83108
G1 X136.170 Y119.300 E13.84596
G1 X135.740 Y119.610 E13.86056
G1 X135.270 Y119.880 E13.87548
G1 X134.790 Y120.120 E13.89026
G1 X134.110 Y120.366 E13.91017
G1 X134.030 Y120.390 E13.91247
G1 X130.946 Y112.995 F9000.000
G1 X116.729 Y112.995 F2250.000 E14.30391
G1 X116.317 Y112.187 E14.32888
G1 X115.905 Y111.490 E14.35119
G1 X115.449 Y110.819 E14.37353
G1 X114.951 Y110.177 E14.39589
G1 X114.415 Y109.569 E14.41822
G1 X113.841 Y108.995 E14.44055
G1 X113.232 Y108.459 E14.46290
G1 X112.591 Y107.961 E14.48524
G1 X111.921 Y107.505 E14.50756
G1 X111.222 Y107.092 E14.52991
G1 X110.498 Y106.724 E14.55227
G1 X109.754 Y106.402 E14.57459
G1 X108.942 Y106.112 E14.59834
G1 X108.212 Y105.900 E14.61926
G1 X107.420 Y105.723 E14.64161
G1 X106.619 Y105.597 E14.66394
G1 X105.811 Y105.520 E14.68628
G1 X105.000 Y105.495 E14.70862
G1 X104.189 Y105.520 E14.73096
G1 X103.381 Y105.597 E14.75330
G1 X102.580 Y105.723 E14.77564
G1 X101.788 Y105.900 E14.79797
G1 X101.009 Y106.127 E14.82032
G1 X100.246 Y106.402 E14.84266
G1 X99.501 Y106.724 E14.86499
G1 X98.778 Y107.092 E14.88734
G1 X98.080 Y107.505 E14.90966
G1 X97.409 Y107.961 E14.93202
G1 X96.731 Y108.491 E14.95568
G1 X96.159 Y108.995 E14.97667
G1 X95.585 Y109.569 E14.99902
G1 X95.049 Y110.177 E15.02136
G1 X94.552 Y110.818 E15.04370
G1 X94.096 Y111.489 E15.06603
G1 X93.683 Y112.188 E15.08838
G1 X93.271 Y112.995 E15.11333
G1 X79.054 Y112.995 E15.50477
G1 X79.324 Y112.065 E15.53143
G1 X79.646 Y111.281 E15.55477
G1 X80.063 Y110.498 E15.57921
G1 X80.577 Y109.718 E15.60493
G1 X81.190 Y108.947 E15.63205
G1 X81.899 Y108.187 E15.66067
G1 X82.704 Y107.445 E15.69082
G1 X83.602 Y106.724 E15.72253
G1 X84.590 Y106.029 E15.75578
G1 X85.665 Y105.364 E15.79056
G1 X86.820 Y104.734 E15.82682
G1 X88.053 Y104.141 E15.86448
G1 X89.357 Y103.589 E15.90347
G1 X90.728 Y103.081 E15.94371
G1 X92.158 Y102.620 E15.98510
G1 X93.387 Y102.278 E16.02022
G1 X93.657 Y101.517 E16.04244
G1 X94.161 Y100.281 E16.07921
G1 X94.703 Y99.117 E16.11457
G1 X95.927 Y99.391 E16.14910
G1 X98.931 Y99.869 E16.23286
G1 X101.962 Y100.156 E16.31669
G1 X104.997 Y100.252 E16.40030
G1 X108.038 Y100.156 E16.48405
G1 X111.069 Y99.869 E16.56788
G1 X114.073 Y99.391 E16.65163
G1 X115.297 Y99.117 E16.68617
G1 X115.839 Y100.281 E16.72153
G1 X116.343 Y101.517 E16.75830
G1 X116.613 Y102.278 E16.78052
G1 X117.842 Y102.620 E16.81564
G1 X119.272 Y103.081 E16.85703
G1 X120.643 Y103.589 E16.89727
G1 X121.947 Y104.141 E16.93626
G1 X123.180 Y104.734 E16.97392
G1 X124.335 Y105.364 E17.01017
G1 X125.410 Y106.029 E17.04496
G1 X126.398 Y106.724 E17.07821
G1 X127.296 Y107.445 E17.10992
G1 X128.101 Y108.187 E17.14007
G1 X128.810 Y108.947 E17.16869
G1 X129.423 Y109.718 E17.19581
G1 X129.937 Y110.498 E17.22153
G1 X130.354 Y111.281 E17.24597
G1 X130.676 Y112.065 E17.26931
G1 X130.923 Y112.915 E17.29367
G1 X130.946 Y112.995 E17.29597
G1 X131.447 Y112.723 F9000.000
G1 X131.591 Y113.552 F2250.000 E17.31915
G1 X116.356 Y113.552 E17.73860
G1 X116.181 Y113.148 E17.75073
G1 X115.829 Y112.456 E17.77211
G1 X115.434 Y111.788 E17.79347
G1 X114.998 Y111.146 E17.81485
G1 X114.521 Y110.532 E17.83624
G1 X114.008 Y109.950 E17.85760
G1 X113.459 Y109.401 E17.87897
G1 X112.877 Y108.888 E17.90035
G1 X112.264 Y108.412 E17.92173
G1 X111.622 Y107.976 E17.94309
G1 X110.953 Y107.581 E17.96447
G1 X110.261 Y107.228 E17.98586
G1 X109.549 Y106.920 E18.00723
G1 X108.786 Y106.647 E18.02953
G1 X108.073 Y106.440 E18.04997
G1 X107.316 Y106.271 E18.07135
G1 X106.549 Y106.149 E18.09272
G1 X105.776 Y106.076 E18.11410
G1 X105.000 Y106.052 E18.13547
G1 X104.224 Y106.076 E18.15685
G1 X103.451 Y106.149 E18.17822
G1 X102.684 Y106.271 E18.19960
G1 X101.927 Y106.440 E18.22097
G1 X101.181 Y106.657 E18.24235
G1 X100.451 Y106.920 E18.26372
G1 X99.738 Y107.228 E18.28510
G1 X99.047 Y107.581 E18.30647
G1 X98.379 Y107.976 E18.32784
G1 X97.736 Y108.412 E18.34923
G1 X97.100 Y108.909 E18.37145
G1 X96.541 Y109.401 E18.39196
G1 X95.992 Y109.950 E18.41334
G1 X95.478 Y110.533 E18.43472
G1 X95.003 Y111.146 E18.45609
G1 X94.566 Y111.788 E18.47746
G1 X94.171 Y112.456 E18.49884
G1 X93.819 Y113.148 E18.52021
G1 X93.644 Y113.552 E18.53235
G1 X78.409 Y113.552 E18.95180
G1 X78.553 Y112.723 E18.97498
G1 X78.797 Y111.882 E18.99910
G1 X79.141 Y111.044 E19.02402
G1 X79.583 Y110.213 E19.04995
G1 X80.126 Y109.391 E19.07706
G1 X80.767 Y108.583 E19.10547
G1 X81.506 Y107.792 E19.13528
G1 X82.340 Y107.022 E19.16653
G1 X83.267 Y106.278 E19.19925
G1 X84.283 Y105.564 E19.23345
G1 X85.384 Y104.883 E19.26910
G1 X86.566 Y104.238 E19.30616
G1 X87.824 Y103.633 E19.34458
G1 X89.152 Y103.071 E19.38429
G1 X90.545 Y102.555 E19.42521
G1 X91.998 Y102.086 E19.46724
G1 X92.959 Y101.819 E19.49469
G1 X93.136 Y101.319 E19.50930
G1 X93.650 Y100.058 E19.54680
G1 X94.210 Y98.855 E19.58332
G1 X94.409 Y98.480 E19.59502
G1 X96.032 Y98.844 E19.64082
G1 X99.001 Y99.316 E19.72361
G1 X101.996 Y99.600 E19.80644
G1 X104.998 Y99.695 E19.88913
G1 X108.004 Y99.600 E19.97192
G1 X110.999 Y99.316 E20.05475
G1 X113.968 Y98.844 E20.13754
G1 X115.591 Y98.480 E20.18334
G1 X115.790 Y98.855 E20.19504
G1 X116.349 Y100.058 E20.23156
G1 X116.864 Y101.319 E20.26906
G1 X117.041 Y101.819 E20.28367
G1 X118.002 Y102.086 E20.31112
G1 X119.455 Y102.555 E20.35315
G1 X120.848 Y103.071 E20.39407
G1 X122.176 Y103.633 E20.43378
G1 X123.434 Y104.238 E20.47220
G1 X124.616 Y104.883 E20.50926
G1 X125.717 Y105.564 E20.54491
G1 X126.733 Y106.278 E20.57911
G1 X127.660 Y107.022 E20.61183
G1 X128.494 Y107.792 E20.64308
G1 X129.233 Y108.583 E20.67289
G1 X129.874 Y109.391 E20.70130
G1 X130.417 Y110.213 E20.72841
G1 X130.859 Y111.044 E20.75434
G1 X131.203 Y111.882 E20.77926
G1 X131.424 Y112.643 E20.80108
G1 X131.447 Y112.723 E20.80338
G1 X131.990 Y112.597 F9000.000
G1 X132.147 Y113.502 F1125.000 E20.82867
G1 X132.182 Y114.110 E20.84542
G1 X115.990 Y114.110 E21.29123
G1 X115.677 Y113.385 E21.31296
G1 X115.340 Y112.725 E21.33337
G1 X114.963 Y112.087 E21.35378
G1 X114.547 Y111.474 E21.37419
G1 X114.092 Y110.888 E21.39461
G1 X113.592 Y110.322 E21.41539
G1 X113.078 Y109.808 E21.43542
G1 X112.522 Y109.317 E21.45583
G1 X111.936 Y108.863 E21.47624
G1 X111.323 Y108.446 E21.49665
G1 X110.673 Y108.063 E21.51744
G1 X110.024 Y107.732 E21.53748
G1 X109.344 Y107.438 E21.55788
G1 X108.646 Y107.187 E21.57830
G1 X107.918 Y106.976 E21.59916
G1 X107.211 Y106.818 E21.61912
G1 X106.479 Y106.702 E21.63953
G1 X105.741 Y106.633 E21.65994
G1 X105.000 Y106.609 E21.68035
G1 X104.259 Y106.633 E21.70076
G1 X103.521 Y106.702 E21.72117
G1 X102.789 Y106.818 E21.74158
G1 X102.065 Y106.980 E21.76199
G1 X101.354 Y107.187 E21.78240
G1 X100.656 Y107.438 E21.80281
G1 X99.976 Y107.732 E21.82322
G1 X99.315 Y108.069 E21.84363
G1 X98.677 Y108.446 E21.86404
G1 X98.064 Y108.863 E21.88446
G1 X97.468 Y109.326 E21.90524
G1 X96.922 Y109.808 E21.92527
G1 X96.398 Y110.332 E21.94568
G1 X95.908 Y110.888 E21.96610
G1 X95.453 Y111.474 E21.98651
G1 X95.037 Y112.087 E22.00691
G1 X94.659 Y112.725 E22.02733
G1 X94.323 Y113.385 E22.04774
G1 X94.010 Y114.110 E22.06947
G1 X77.818 Y114.110 E22.51528
G1 X77.853 Y113.502 E22.53203
G1 X78.010 Y112.597 E22.55732
G1 X78.271 Y111.698 E22.58310
G1 X78.636 Y110.807 E22.60961
G1 X79.104 Y109.928 E22.63704
G1 X79.674 Y109.064 E22.66554
G1 X80.345 Y108.219 E22.69524
G1 X81.113 Y107.396 E22.72623
