; generated by Slic3r 0.9.10b on 2013-07-04 at 15:58:26

; layer_height = 0.12
; perimeters = 3
; top_solid_layers = 5
; bottom_solid_layers = 5
; fill_density = 0.8
; perimeter_speed = 30
; infill_speed = 60
; travel_speed = 130
; nozzle_diameter = 0.4
; filament_diameter = 2.8
; extrusion_multiplier = 1
; perimeters extrusion width = 0.68mm
; infill extrusion width = 1.07mm
; solid infill extrusion width = 0.68mm
; top infill extrusion width = 0.68mm
; first layer extrusion width = 0.24mm

G21 ; set units to millimeters
M107
M104 S220 ; set temperature
G28 ; home all axes
G1 Z20 F2000 ; down some millimeters
M109 S220 ; wait for temperature to be reached
G90 ; use absolute coordinates
G92 E0
M82 ; use absolute distances for extrusion
G1 F1800.000 E-1.00000
G92 E0
G1 Z0.120 F7800.000
G1 X69.969 Y75.529
G1 F1800.000 E1.00000
G1 X70.959 Y74.699 F540.000 E1.00691
G1 X72.089 Y74.079 E1.01380
G1 X73.319 Y73.689 E1.02070
G1 X74.599 Y73.529 E1.02759
G1 X75.879 Y73.619 E1.03445
G1 X77.129 Y73.939 E1.04135
G1 X142.169 Y97.689 E1.41154
G1 X142.760 Y97.919 E1.41492
G1 X143.959 Y98.549 E1.42217
G1 X145.019 Y99.399 E1.42943
G1 X145.880 Y100.429 E1.43661
G1 X146.519 Y101.619 E1.44383
G1 X146.919 Y102.919 E1.45110
G1 X147.049 Y104.259 E1.45830
G1 X147.049 Y105.729 E1.46616
G1 X146.919 Y107.069 E1.47336
G1 X146.519 Y108.369 E1.48063
G1 X145.880 Y109.559 E1.48785
G1 X145.019 Y110.589 E1.49503
G1 X143.959 Y111.439 E1.50229
G1 X142.760 Y112.069 E1.50954
G1 X142.359 Y112.229 E1.51184
G1 X77.129 Y136.049 E1.88311
G1 X75.889 Y136.369 E1.88996
G1 X74.609 Y136.459 E1.89682
G1 X73.329 Y136.309 E1.90371
G1 X72.109 Y135.909 E1.91057
G1 X70.979 Y135.299 E1.91744
G1 X69.989 Y134.479 E1.92431
G1 X68.779 Y133.279 E1.93342
G1 X67.919 Y132.249 E1.94059
G1 X67.279 Y131.059 E1.94782
G1 X66.889 Y129.779 E1.95497
G1 X66.759 Y128.439 E1.96217
G1 X66.759 Y81.559 E2.21281
G1 X66.889 Y80.229 E2.21995
G1 X67.279 Y78.949 E2.22711
G1 X67.909 Y77.769 E2.23426
G1 X68.759 Y76.739 E2.24140
G1 X69.940 Y75.558 E2.25033
G1 X70.159 Y75.719 F7800.000
G1 X71.319 Y74.799 F540.000 E2.25824
G1 X72.659 Y74.159 E2.26618
G1 X74.109 Y73.839 E2.27412
G1 X75.589 Y73.849 E2.28203
G1 X77.039 Y74.199 E2.29001
G1 X142.079 Y97.949 E2.66019
G1 X142.659 Y98.179 E2.66353
G1 X143.809 Y98.779 E2.67046
G1 X144.820 Y99.589 E2.67738
G1 X145.649 Y100.589 E2.68433
G1 X146.269 Y101.729 E2.69127
G1 X146.649 Y102.969 E2.69820
G1 X146.779 Y104.259 E2.70514
G1 X146.779 Y105.729 E2.71300
G1 X146.649 Y107.019 E2.71993
G1 X146.269 Y108.259 E2.72686
G1 X145.649 Y109.399 E2.73380
G1 X144.820 Y110.399 E2.74075
G1 X143.809 Y111.209 E2.74767
G1 X142.659 Y111.809 E2.75460
G1 X142.079 Y112.039 E2.75794
G1 X77.039 Y135.789 E3.12812
G1 X75.599 Y136.139 E3.13605
G1 X74.119 Y136.149 E3.14396
G1 X72.679 Y135.839 E3.15184
G1 X71.339 Y135.209 E3.15975
G1 X70.179 Y134.289 E3.16767
G1 X68.969 Y133.089 E3.17678
G1 X68.149 Y132.099 E3.18365
G1 X67.539 Y130.959 E3.19056
G1 X67.159 Y129.719 E3.19750
G1 X67.029 Y128.439 E3.20438
G1 X67.029 Y81.559 E3.45501
G1 X67.159 Y80.279 E3.46189
G1 X67.529 Y79.049 E3.46876
G1 X68.129 Y77.919 E3.47560
G1 X68.950 Y76.929 E3.48247
G1 X70.130 Y75.748 E3.49140
G1 X70.349 Y75.909 F7800.000
G1 X71.469 Y75.029 F540.000 E3.49902
G1 X72.749 Y74.419 E3.50660
G1 X74.139 Y74.109 E3.51421
G1 X75.559 Y74.119 E3.52180
G1 X76.939 Y74.459 E3.52940
G1 X142.159 Y98.269 E3.90060
G1 X142.559 Y98.429 E3.90290
G1 X143.659 Y99.009 E3.90955
G1 X144.630 Y99.789 E3.91621
G1 X145.429 Y100.739 E3.92285
G1 X146.019 Y101.839 E3.92952
G1 X146.380 Y103.019 E3.93612
G1 X146.499 Y104.259 E3.94278
G1 X146.499 Y105.729 E3.95064
G1 X146.380 Y106.969 E3.95730
G1 X146.019 Y108.149 E3.96389
G1 X145.429 Y109.249 E3.97057
G1 X144.630 Y110.199 E3.97721
G1 X143.659 Y110.979 E3.98386
G1 X142.559 Y111.559 E3.99051
G1 X142.159 Y111.719 E3.99281
G1 X76.939 Y135.529 E4.36401
G1 X75.569 Y135.869 E4.37156
G1 X74.149 Y135.879 E4.37915
G1 X72.759 Y135.579 E4.38675
G1 X71.479 Y134.969 E4.39433
G1 X70.369 Y134.089 E4.40191
G1 X69.159 Y132.889 E4.41102
G1 X68.369 Y131.939 E4.41762
G1 X67.789 Y130.849 E4.42423
G1 X67.429 Y129.669 E4.43082
G1 X67.309 Y128.439 E4.43743
G1 X67.309 Y81.559 E4.68807
G1 X67.429 Y80.339 E4.69462
G1 X67.779 Y79.159 E4.70120
G1 X68.359 Y78.069 E4.70780
G1 X69.139 Y77.119 E4.71437
G1 X70.320 Y75.938 E4.72330
G1 F1800.000 E3.72330
G92 E0
G1 X78.030 Y122.539 F7800.000
G1 F1800.000 E1.00000
G1 X80.691 Y125.200 F540.000 E1.02012
G1 X80.136 Y125.604 E1.02379
G1 X78.158 Y126.966 E1.03663
G1 X76.555 Y127.983 E1.04678
G1 X75.305 Y128.676 E1.05442
G1 X74.947 Y128.830 E1.05650
G1 X74.401 Y128.283 E1.06063
G1 X74.555 Y127.925 E1.06272
G1 X75.248 Y126.675 E1.07036
G1 X76.264 Y125.073 E1.08050
G1 X77.626 Y123.094 E1.09335
G1 X78.006 Y122.573 E1.09680
G1 X79.646 Y123.584 F7800.000
G1 X80.211 Y122.268 F540.000 E1.10445
G1 X80.905 Y121.019 E1.11209
G1 X81.921 Y119.416 E1.12224
G1 X83.283 Y117.438 E1.13508
G1 X83.687 Y116.883 E1.13875
G1 X84.916 Y118.112 E1.14804
G1 X91.489 Y111.485 E1.19794
G1 X91.026 Y110.960 E1.20168
G1 X90.666 Y110.496 E1.20482
G1 X90.336 Y110.010 E1.20796
G1 X90.037 Y109.505 E1.21110
G1 X89.770 Y108.981 E1.21424
G1 X89.537 Y108.442 E1.21738
G1 X89.338 Y107.889 E1.22052
G1 X89.186 Y107.366 E1.22344
G1 X89.046 Y106.752 E1.22681
G1 X88.954 Y106.172 E1.22995
G1 X88.898 Y105.587 E1.23309
G1 X88.880 Y105.000 E1.23623
G1 X88.898 Y104.413 E1.23937
G1 X88.953 Y103.836 E1.24247
G1 X89.046 Y103.248 E1.24565
G1 X89.174 Y102.675 E1.24879
G1 X89.338 Y102.110 E1.25193
G1 X89.537 Y101.558 E1.25507
G1 X89.770 Y101.019 E1.25821
G1 X90.033 Y100.502 E1.26131
G1 X90.336 Y99.990 E1.26449
G1 X90.666 Y99.504 E1.26763
G1 X91.026 Y99.040 E1.27077
G1 X91.489 Y98.515 E1.27451
G1 X84.916 Y91.888 E1.32441
G1 X83.687 Y93.117 E1.33370
G1 X83.283 Y92.562 E1.33738
G1 X81.921 Y90.584 E1.35022
G1 X80.905 Y88.981 E1.36036
G1 X80.211 Y87.732 E1.36800
G1 X79.646 Y86.416 E1.37566
G1 X80.962 Y86.981 E1.38331
G1 X82.212 Y87.674 E1.39095
G1 X83.815 Y88.690 E1.40110
G1 X85.793 Y90.052 E1.41394
G1 X86.348 Y90.457 E1.41761
G1 X85.119 Y91.686 E1.42691
G1 X91.745 Y98.258 E1.47680
G1 X92.270 Y97.795 E1.48054
G1 X92.734 Y97.435 E1.48368
G1 X93.220 Y97.105 E1.48682
G1 X93.726 Y96.806 E1.48997
G1 X94.249 Y96.539 E1.49311
G1 X94.788 Y96.306 E1.49625
G1 X95.341 Y96.107 E1.49939
G1 X95.905 Y95.943 E1.50253
G1 X96.478 Y95.815 E1.50567
G1 X97.059 Y95.723 E1.50881
G1 X97.643 Y95.668 E1.51195
G1 X98.231 Y95.649 E1.51509
G1 X98.818 Y95.668 E1.51823
G1 X99.402 Y95.723 E1.52137
G1 X99.912 Y95.804 E1.52413
G1 X100.556 Y95.943 E1.52765
G1 X101.120 Y96.107 E1.53079
G1 X101.673 Y96.306 E1.53393
G1 X102.212 Y96.539 E1.53707
G1 X102.729 Y96.803 E1.54017
G1 X103.241 Y97.105 E1.54335
G1 X103.727 Y97.435 E1.54649
G1 X104.191 Y97.795 E1.54963
G1 X104.626 Y98.179 E1.55274
G1 X105.047 Y98.599 E1.55592
G1 X105.435 Y99.040 E1.55906
G1 X105.795 Y99.504 E1.56220
G1 X106.125 Y99.990 E1.56534
G1 X106.424 Y100.495 E1.56848
G1 X106.659 Y100.955 E1.57123
G1 X106.924 Y101.558 E1.57476
G1 X107.123 Y102.111 E1.57790
G1 X107.287 Y102.675 E1.58104
G1 X107.415 Y103.248 E1.58418
G1 X107.507 Y103.828 E1.58732
G1 X107.601 Y104.818 E1.59264
G1 X111.280 Y104.870 E1.61231
G1 X111.280 Y105.130 E1.61370
G1 X107.601 Y105.182 E1.63337
G1 X107.507 Y106.172 E1.63869
G1 X107.415 Y106.752 E1.64183
G1 X107.287 Y107.325 E1.64497
G1 X107.123 Y107.890 E1.64811
G1 X106.924 Y108.442 E1.65125
G1 X106.691 Y108.981 E1.65439
G1 X106.428 Y109.498 E1.65749
G1 X106.125 Y110.010 E1.66067
G1 X105.795 Y110.496 E1.66381
G1 X105.435 Y110.960 E1.66695
G1 X105.047 Y111.401 E1.67009
G1 X104.631 Y111.816 E1.67323
G1 X104.245 Y112.157 E1.67599
G1 X103.727 Y112.565 E1.67951
G1 X103.241 Y112.895 E1.68265
G1 X102.735 Y113.194 E1.68579
G1 X102.218 Y113.457 E1.68889
G1 X101.673 Y113.694 E1.69207
G1 X101.120 Y113.893 E1.69522
G1 X100.556 Y114.057 E1.69836
G1 X99.983 Y114.185 E1.70150
G1 X99.402 Y114.277 E1.70464
G1 X98.818 Y114.332 E1.70778
G1 X98.238 Y114.350 E1.71088
G1 X97.643 Y114.332 E1.71406
G1 X97.059 Y114.277 E1.71720
G1 X96.478 Y114.185 E1.72034
G1 X95.905 Y114.057 E1.72348
G1 X95.341 Y113.893 E1.72662
G1 X94.788 Y113.694 E1.72976
G1 X94.249 Y113.461 E1.73290
G1 X93.726 Y113.194 E1.73604
G1 X93.220 Y112.895 E1.73918
G1 X92.734 Y112.565 E1.74232
G1 X92.270 Y112.205 E1.74546
G1 X91.745 Y111.742 E1.74920
G1 X85.119 Y118.314 E1.79910
G1 X86.348 Y119.543 E1.80839
G1 X85.793 Y119.947 E1.81207
G1 X83.815 Y121.310 E1.82491
G1 X82.212 Y122.326 E1.83505
G1 X80.962 Y123.019 E1.84269
G1 X79.684 Y123.568 E1.85013
G1 F1800.000 E0.85013
G92 E0
G1 X66.771 Y125.637 F7800.000
G1 X66.771 Y84.363
G1 X78.030 Y87.461
G1 F1800.000 E1.00000
G1 X77.626 Y86.905 F540.000 E1.00367
G1 X76.264 Y84.927 E1.01651
G1 X75.248 Y83.325 E1.02666
G1 X74.555 Y82.075 E1.03430
G1 X74.401 Y81.717 E1.03638
G1 X74.947 Y81.170 E1.04051
G1 X75.305 Y81.324 E1.04260
G1 X76.555 Y82.017 E1.05024
G1 X78.158 Y83.034 E1.06039
G1 X80.136 Y84.396 E1.07323
G1 X80.691 Y84.800 E1.07690
G1 X78.059 Y87.431 E1.09680
G1 F1800.000 E0.09680
G92 E0
G1 X78.038 Y87.716 F7800.000
G1 X79.334 Y86.420
G1 X91.672 Y97.920
G1 X107.875 Y104.626
G1 X116.730 Y104.784
G1 X116.730 Y103.257
G1 X116.916 Y103.433
G1 F1800.000 E1.00000
G1 X119.407 Y103.819 F540.000 E1.01348
G1 X121.192 Y104.148 E1.02318
G1 X122.587 Y104.461 E1.03082
G1 X123.615 Y104.755 E1.03654
G1 X124.228 Y105.000 E1.04007
G1 X123.615 Y105.245 E1.04360
G1 X122.587 Y105.539 E1.04932
G1 X121.192 Y105.852 E1.05696
G1 X119.407 Y106.181 E1.06666
G1 X116.916 Y106.567 E1.08014
G1 X116.916 Y103.474 E1.09668
G1 F1800.000 E0.09668
G92 E0
G1 X116.730 Y103.257 F7800.000
G1 X124.730 Y104.873
G1 X124.730 Y103.257
G1 X124.916 Y103.433
G1 F1800.000 E1.00000
G1 X127.407 Y103.819 F540.000 E1.01348
G1 X129.192 Y104.148 E1.02318
G1 X130.587 Y104.461 E1.03082
G1 X131.615 Y104.755 E1.03654
G1 X132.228 Y105.000 E1.04007
G1 X131.615 Y105.245 E1.04360
G1 X130.587 Y105.539 E1.04932
G1 X129.192 Y105.852 E1.05696
G1 X127.407 Y106.181 E1.06666
G1 X124.916 Y106.567 E1.08014
G1 X124.916 Y103.474 E1.09668
G1 F1800.000 E0.09668
G92 E0
G1 X124.730 Y103.257 F7800.000
G1 X132.730 Y104.873
G1 X132.730 Y103.251
G1 X132.916 Y103.433
G1 F1800.000 E1.00000
G1 X135.407 Y103.819 F540.000 E1.01348
G1 X137.192 Y104.148 E1.02318
G1 X138.587 Y104.461 E1.03082
G1 X139.545 Y104.735 E1.03615
G1 X139.545 Y105.265 E1.03898
G1 X138.587 Y105.539 E1.04431
G1 X137.192 Y105.852 E1.05195
G1 X135.407 Y106.181 E1.06165
G1 X132.916 Y106.567 E1.07513
G1 X132.916 Y103.474 E1.09167
G1 F1800.000 E0.09167
G92 E0
G1 X132.730 Y103.251 F7800.000
G1 X132.730 Y104.873
G1 X107.875 Y105.374
G1 X91.672 Y112.080
G1 X79.650 Y123.896
G1 X74.862 Y129.008
G1 X74.884 Y129.155
G1 F1800.000 E1.00000
G1 X74.075 Y128.346 F540.000 E1.00612
G1 X74.308 Y127.804 E1.00927
G1 X75.012 Y126.535 E1.01703
G1 X76.035 Y124.921 E1.02725
G1 X77.402 Y122.936 E1.04013
G1 X77.997 Y122.119 E1.04554
G1 X79.382 Y123.504 E1.05601
G1 X79.965 Y122.147 E1.06390
G1 X80.669 Y120.878 E1.07166
G1 X81.692 Y119.264 E1.08188
G1 X83.059 Y117.279 E1.09476
G1 X83.654 Y116.462 E1.10017
G1 X84.915 Y117.723 E1.10971
G1 X91.112 Y111.473 E1.15676
G1 X90.814 Y111.135 E1.15917
G1 X90.444 Y110.657 E1.16240
G1 X90.104 Y110.157 E1.16564
G1 X89.796 Y109.637 E1.16887
G1 X89.522 Y109.098 E1.17210
G1 X89.281 Y108.543 E1.17533
G1 X89.077 Y107.974 E1.17857
G1 X88.922 Y107.443 E1.18152
G1 X88.776 Y106.804 E1.18503
G1 X88.681 Y106.206 E1.18826
G1 X88.624 Y105.604 E1.19150
G1 X88.605 Y105.000 E1.19473
G1 X88.624 Y104.396 E1.19796
G1 X88.680 Y103.810 E1.20111
G1 X88.776 Y103.196 E1.20443
G1 X88.908 Y102.606 E1.20766
G1 X89.077 Y102.026 E1.21089
G1 X89.281 Y101.457 E1.21413
G1 X89.521 Y100.902 E1.21736
G1 X89.789 Y100.377 E1.22051
G1 X90.104 Y99.843 E1.22382
G1 X90.444 Y99.343 E1.22706
G1 X90.814 Y98.865 E1.23029
G1 X91.112 Y98.527 E1.23270
G1 X84.915 Y92.277 E1.27975
G1 X83.654 Y93.538 E1.28929
G1 X83.059 Y92.721 E1.29469
G1 X81.692 Y90.736 E1.30758
G1 X80.669 Y89.122 E1.31780
G1 X79.965 Y87.853 E1.32556
G1 X79.382 Y86.496 E1.33345
G1 X77.998 Y87.881 E1.34392
G1 X77.402 Y87.064 E1.34933
G1 X76.035 Y85.079 E1.36221
G1 X75.012 Y83.465 E1.37243
G1 X74.308 Y82.196 E1.38019
G1 X74.075 Y81.654 E1.38334
G1 X74.884 Y80.845 E1.38946
G1 X75.426 Y81.077 E1.39261
G1 X76.695 Y81.781 E1.40037
G1 X78.309 Y82.805 E1.41059
G1 X80.294 Y84.172 E1.42347
G1 X81.112 Y84.767 E1.42888
G1 X79.727 Y86.152 E1.43935
G1 X81.083 Y86.734 E1.44724
G1 X82.352 Y87.438 E1.45500
G1 X83.966 Y88.462 E1.46522
G1 X85.951 Y89.829 E1.47811
G1 X86.769 Y90.424 E1.48351
G1 X85.508 Y91.685 E1.49305
G1 X91.757 Y97.882 E1.54010
G1 X92.095 Y97.584 E1.54251
G1 X92.573 Y97.213 E1.54574
G1 X93.073 Y96.873 E1.54898
G1 X93.594 Y96.566 E1.55221
G1 X94.132 Y96.291 E1.55544
G1 X94.687 Y96.051 E1.55867
G1 X95.256 Y95.846 E1.56191
G1 X95.837 Y95.677 E1.56514
G1 X96.427 Y95.545 E1.56837
G1 X97.024 Y95.451 E1.57160
G1 X97.626 Y95.394 E1.57484
G1 X98.231 Y95.375 E1.57807
G1 X98.835 Y95.394 E1.58130
G1 X99.437 Y95.451 E1.58454
G1 X99.955 Y95.533 E1.58734
G1 X100.624 Y95.677 E1.59100
G1 X101.205 Y95.846 E1.59423
G1 X101.774 Y96.051 E1.59747
G1 X102.329 Y96.291 E1.60070
G1 X102.867 Y96.566 E1.60393
G1 X103.388 Y96.873 E1.60716
G1 X103.888 Y97.213 E1.61040
G1 X104.302 Y97.535 E1.61320
G1 X104.819 Y97.984 E1.61686
G1 X105.247 Y98.411 E1.62009
G1 X105.647 Y98.865 E1.62333
G1 X106.017 Y99.343 E1.62656
G1 X106.357 Y99.843 E1.62979
G1 X106.665 Y100.363 E1.63302
G1 X106.903 Y100.830 E1.63583
G1 X107.180 Y101.457 E1.63949
G1 X107.384 Y102.026 E1.64272
G1 X107.553 Y102.606 E1.64595
G1 X107.685 Y103.196 E1.64919
G1 X107.780 Y103.794 E1.65242
G1 X107.851 Y104.544 E1.65645
G1 X116.642 Y104.694 E1.70346
G1 X116.642 Y103.118 E1.71188
G1 X119.454 Y103.549 E1.72709
G1 X121.246 Y103.879 E1.73684
G1 X122.655 Y104.195 E1.74455
G1 X123.704 Y104.495 E1.75039
G1 X124.642 Y104.870 E1.75579
G1 X124.642 Y103.118 E1.76515
G1 X127.454 Y103.549 E1.78036
G1 X129.246 Y103.879 E1.79010
G1 X130.655 Y104.195 E1.79782
G1 X131.704 Y104.495 E1.80366
G1 X132.642 Y104.870 E1.80906
G1 X132.642 Y103.118 E1.81842
G1 X135.454 Y103.549 E1.83363
G1 X137.246 Y103.879 E1.84337
G1 X138.655 Y104.195 E1.85109
G1 X139.819 Y104.541 E1.85758
G1 X139.819 Y105.459 E1.86249
G1 X139.704 Y105.505 E1.86315
G1 X138.655 Y105.805 E1.86899
G1 X137.246 Y106.121 E1.87670
G1 X135.454 Y106.451 E1.88645
G1 X132.642 Y106.882 E1.90166
G1 X132.642 Y105.130 E1.91102
G1 X131.704 Y105.505 E1.91642
G1 X130.655 Y105.805 E1.92226
G1 X129.246 Y106.121 E1.92997
G1 X127.454 Y106.451 E1.93972
G1 X124.642 Y106.882 E1.95493
G1 X124.642 Y105.130 E1.96429
G1 X123.704 Y105.505 E1.96969
G1 X122.655 Y105.805 E1.97552
G1 X121.246 Y106.121 E1.98324
G1 X119.454 Y106.451 E1.99299
G1 X116.642 Y106.882 E2.00819
G1 X116.642 Y105.306 E2.01662
G1 X107.851 Y105.456 E2.06363
G1 X107.780 Y106.206 E2.06766
G1 X107.685 Y106.804 E2.07089
G1 X107.553 Y107.394 E2.07412
G1 X107.384 Y107.974 E2.07735
G1 X107.180 Y108.543 E2.08059
G1 X106.939 Y109.098 E2.08382
G1 X106.672 Y109.623 E2.08697
G1 X106.357 Y110.157 E2.09029
G1 X106.017 Y110.657 E2.09352
G1 X105.647 Y111.135 E2.09675
G1 X105.247 Y111.589 E2.09998
G1 X104.819 Y112.016 E2.10322
G1 X104.366 Y112.416 E2.10645
G1 X103.730 Y112.909 E2.11075
G1 X103.730 Y112.894 E2.11083
G1 X103.388 Y113.127 E2.11304
G1 X102.867 Y113.434 E2.11628
G1 X102.329 Y113.709 E2.11951
G1 X101.774 Y113.949 E2.12274
G1 X101.205 Y114.154 E2.12597
G1 X100.624 Y114.323 E2.12921
G1 X100.112 Y114.437 E2.13201
G1 X99.437 Y114.549 E2.13567
G1 X98.835 Y114.606 E2.13890
G1 X98.231 Y114.625 E2.14214
G1 X97.626 Y114.606 E2.14537
G1 X97.024 Y114.549 E2.14860
G1 X96.427 Y114.455 E2.15183
G1 X95.837 Y114.323 E2.15507
G1 X95.256 Y114.154 E2.15830
G1 X94.687 Y113.949 E2.16153
G1 X94.132 Y113.709 E2.16477
G1 X93.594 Y113.434 E2.16800
G1 X93.073 Y113.127 E2.17123
G1 X92.573 Y112.787 E2.17446
G1 X92.095 Y112.416 E2.17770
G1 X91.757 Y112.118 E2.18011
G1 X85.508 Y118.315 E2.22716
G1 X86.769 Y119.576 E2.23669
G1 X85.951 Y120.171 E2.24210
G1 X83.966 Y121.538 E2.25499
G1 X82.352 Y122.562 E2.26521
G1 X81.083 Y123.266 E2.27296
G1 X79.727 Y123.848 E2.28085
G1 X81.112 Y125.233 E2.29133
G1 X80.294 Y125.828 E2.29673
