; generated by Slic3r 0.9.10b on 2013-07-04 at 20:03:17

; layer_height = 0.12
; perimeters = 3
; top_solid_layers = 5
; bottom_solid_layers = 5
; fill_density = 0.8
; perimeter_speed = 30
; infill_speed = 60
; travel_speed = 130
; nozzle_diameter = 0.4
; filament_diameter = 2.8
; extrusion_multiplier = 1
; perimeters extrusion width = 0.68mm
; infill extrusion width = 1.07mm
; solid infill extrusion width = 0.68mm
; top infill extrusion width = 0.68mm
; first layer extrusion width = 0.24mm

G21 ; set units to millimeters
M107
M104 S220 ; set temperature
G28 ; home all axes
G1 Z20 F2000 ; down some millimeters
M109 S220 ; wait for temperature to be reached
G90 ; use absolute coordinates
G92 E0
M82 ; use absolute distances for extrusion
G1 F1800.000 E-1.00000
G92 E0
G1 Z0.120 F7800.000
G1 X73.969 Y75.529
G1 F1800.000 E1.00000
G1 X74.999 Y74.679 F540.000 E1.00714
G1 X76.179 Y74.049 E1.01429
G1 X77.459 Y73.659 E1.02145
G1 X78.789 Y73.529 E1.02859
G1 X80.119 Y73.659 E1.03573
G1 X81.399 Y74.049 E1.04289
G1 X138.839 Y97.849 E1.37530
G1 X140.019 Y98.479 E1.38245
G1 X141.049 Y99.329 E1.38959
G1 X141.899 Y100.359 E1.39673
G1 X142.529 Y101.539 E1.40388
G1 X142.919 Y102.819 E1.41104
G1 X143.049 Y104.149 E1.41818
G1 X143.049 Y105.849 E1.42727
G1 X142.919 Y107.179 E1.43442
G1 X142.529 Y108.459 E1.44157
G1 X141.899 Y109.639 E1.44872
G1 X141.049 Y110.669 E1.45586
G1 X140.019 Y111.519 E1.46300
G1 X138.839 Y112.149 E1.47015
G1 X81.399 Y135.939 E1.80254
G1 X80.129 Y136.329 E1.80965
G1 X78.799 Y136.459 E1.81679
G1 X77.469 Y136.329 E1.82394
G1 X76.200 Y135.949 E1.83102
G1 X75.019 Y135.329 E1.83815
G1 X73.989 Y134.479 E1.84529
G1 X72.779 Y133.279 E1.85440
G1 X71.919 Y132.249 E1.86158
G1 X71.279 Y131.059 E1.86880
G1 X70.889 Y129.779 E1.87595
G1 X70.759 Y128.439 E1.88315
G1 X70.759 Y81.559 E2.13379
G1 X70.889 Y80.229 E2.14093
G1 X71.279 Y78.949 E2.14809
G1 X71.909 Y77.769 E2.15524
G1 X72.759 Y76.739 E2.16238
G1 X73.940 Y75.558 E2.17131
G1 X74.159 Y75.719 F7800.000
G1 X75.149 Y74.899 F540.000 E2.17818
G1 X76.279 Y74.299 E2.18502
G1 X77.509 Y73.929 E2.19189
G1 X78.789 Y73.799 E2.19877
G1 X80.069 Y73.929 E2.20564
G1 X81.299 Y74.299 E2.21251
G1 X138.739 Y98.099 E2.54492
G1 X139.869 Y98.709 E2.55179
G1 X140.859 Y99.519 E2.55863
G1 X141.679 Y100.509 E2.56550
G1 X142.279 Y101.639 E2.57234
G1 X142.649 Y102.869 E2.57921
G1 X142.779 Y104.149 E2.58609
G1 X142.779 Y105.849 E2.59518
G1 X142.649 Y107.129 E2.60205
G1 X142.279 Y108.359 E2.60892
G1 X141.669 Y109.489 E2.61579
G1 X140.859 Y110.479 E2.62263
G1 X139.869 Y111.299 E2.62950
G1 X138.739 Y111.899 E2.63634
G1 X81.299 Y135.689 E2.96873
G1 X80.069 Y136.059 E2.97560
G1 X78.799 Y136.189 E2.98242
G1 X77.529 Y136.069 E2.98924
G1 X76.299 Y135.699 E2.99611
G1 X75.169 Y135.099 E3.00295
G1 X74.179 Y134.289 E3.00979
G1 X72.969 Y133.089 E3.01890
G1 X72.149 Y132.099 E3.02577
G1 X71.539 Y130.959 E3.03269
G1 X71.159 Y129.719 E3.03962
G1 X71.029 Y128.439 E3.04650
G1 X71.029 Y81.559 E3.29714
G1 X71.159 Y80.279 E3.30401
G1 X71.529 Y79.049 E3.31088
G1 X72.129 Y77.919 E3.31772
G1 X72.950 Y76.929 E3.32459
G1 X74.130 Y75.748 E3.33352
G1 X74.349 Y75.909 F7800.000
G1 X75.299 Y75.129 F540.000 E3.34009
G1 X76.389 Y74.549 E3.34670
G1 X77.569 Y74.199 E3.35328
G1 X78.789 Y74.079 E3.35983
G1 X80.009 Y74.199 E3.36638
G1 X81.189 Y74.549 E3.37296
G1 X138.630 Y98.349 E3.70538
G1 X139.719 Y98.929 E3.71198
G1 X140.669 Y99.709 E3.71855
G1 X141.450 Y100.659 E3.72512
G1 X142.029 Y101.749 E3.73172
G1 X142.380 Y102.929 E3.73830
G1 X142.500 Y104.149 E3.74486
G1 X142.500 Y105.849 E3.75395
G1 X142.380 Y107.069 E3.76050
G1 X142.029 Y108.249 E3.76708
G1 X141.450 Y109.339 E3.77368
G1 X140.669 Y110.289 E3.78025
G1 X139.719 Y111.069 E3.78683
G1 X138.630 Y111.649 E3.79343
G1 X81.189 Y135.439 E4.12582
G1 X79.779 Y135.839 E4.13366
G1 X78.309 Y135.899 E4.14152
G1 X76.869 Y135.609 E4.14937
G1 X75.529 Y134.999 E4.15725
G1 X74.369 Y134.089 E4.16513
G1 X73.159 Y132.889 E4.17424
G1 X72.369 Y131.939 E4.18084
G1 X71.789 Y130.849 E4.18745
G1 X71.429 Y129.669 E4.19404
G1 X71.309 Y128.439 E4.20065
G1 X71.309 Y81.559 E4.45129
G1 X71.429 Y80.339 E4.45784
G1 X71.779 Y79.159 E4.46442
G1 X72.359 Y78.069 E4.47102
G1 X73.139 Y77.119 E4.47759
G1 X74.320 Y75.938 E4.48652
G1 F1800.000 E3.48652
G92 E0
G1 X82.030 Y122.539 F7800.000
G1 F1800.000 E1.00000
G1 X84.691 Y125.200 F540.000 E1.02012
G1 X84.136 Y125.604 E1.02379
G1 X82.158 Y126.966 E1.03663
G1 X80.555 Y127.983 E1.04678
G1 X79.305 Y128.676 E1.05442
G1 X78.947 Y128.830 E1.05650
G1 X78.401 Y128.283 E1.06063
G1 X78.555 Y127.925 E1.06272
G1 X79.248 Y126.675 E1.07036
G1 X80.264 Y125.073 E1.08050
G1 X81.626 Y123.094 E1.09335
G1 X82.006 Y122.573 E1.09680
G1 X83.646 Y123.584 F7800.000
G1 X84.211 Y122.268 F540.000 E1.10445
G1 X84.905 Y121.019 E1.11209
G1 X85.921 Y119.416 E1.12224
G1 X87.283 Y117.438 E1.13508
G1 X87.687 Y116.883 E1.13875
G1 X88.916 Y118.112 E1.14804
G1 X95.489 Y111.485 E1.19794
G1 X95.026 Y110.960 E1.20168
G1 X94.666 Y110.496 E1.20482
G1 X94.336 Y110.010 E1.20796
G1 X94.037 Y109.505 E1.21110
G1 X93.770 Y108.981 E1.21424
G1 X93.537 Y108.442 E1.21738
G1 X93.338 Y107.889 E1.22052
G1 X93.186 Y107.366 E1.22344
G1 X93.046 Y106.752 E1.22681
G1 X92.954 Y106.172 E1.22995
G1 X92.898 Y105.587 E1.23309
G1 X92.880 Y105.000 E1.23623
G1 X92.898 Y104.413 E1.23937
G1 X92.953 Y103.836 E1.24247
G1 X93.046 Y103.248 E1.24565
G1 X93.174 Y102.675 E1.24879
G1 X93.338 Y102.110 E1.25193
G1 X93.537 Y101.558 E1.25507
G1 X93.770 Y101.019 E1.25821
G1 X94.033 Y100.502 E1.26131
G1 X94.336 Y99.990 E1.26449
G1 X94.666 Y99.504 E1.26763
G1 X95.026 Y99.040 E1.27077
G1 X95.489 Y98.515 E1.27451
G1 X88.916 Y91.888 E1.32441
G1 X87.687 Y93.117 E1.33370
G1 X87.283 Y92.562 E1.33738
G1 X85.921 Y90.584 E1.35022
G1 X84.905 Y88.981 E1.36036
G1 X84.211 Y87.732 E1.36800
G1 X83.646 Y86.416 E1.37566
G1 X84.962 Y86.981 E1.38331
G1 X86.212 Y87.674 E1.39095
G1 X87.815 Y88.690 E1.40110
G1 X89.793 Y90.052 E1.41394
G1 X90.348 Y90.457 E1.41761
G1 X89.119 Y91.686 E1.42691
G1 X95.745 Y98.258 E1.47680
G1 X96.270 Y97.795 E1.48054
G1 X96.734 Y97.435 E1.48368
G1 X97.220 Y97.105 E1.48682
G1 X97.726 Y96.806 E1.48997
G1 X98.249 Y96.539 E1.49311
G1 X98.788 Y96.306 E1.49625
G1 X99.341 Y96.107 E1.49939
G1 X99.905 Y95.943 E1.50253
G1 X100.478 Y95.815 E1.50567
G1 X101.059 Y95.723 E1.50881
G1 X101.643 Y95.668 E1.51195
G1 X102.231 Y95.649 E1.51509
G1 X102.818 Y95.668 E1.51823
G1 X103.402 Y95.723 E1.52137
G1 X103.983 Y95.815 E1.52451
G1 X104.556 Y95.943 E1.52765
G1 X105.120 Y96.107 E1.53079
G1 X105.673 Y96.306 E1.53393
G1 X106.212 Y96.539 E1.53707
G1 X106.735 Y96.806 E1.54021
G1 X107.234 Y97.101 E1.54331
G1 X107.727 Y97.435 E1.54649
G1 X108.191 Y97.795 E1.54964
G1 X108.631 Y98.184 E1.55278
G1 X109.047 Y98.599 E1.55592
G1 X109.435 Y99.040 E1.55906
G1 X109.795 Y99.504 E1.56220
G1 X110.085 Y99.930 E1.56495
G1 X110.424 Y100.495 E1.56848
G1 X110.691 Y101.019 E1.57162
G1 X110.924 Y101.558 E1.57476
G1 X111.123 Y102.111 E1.57790
G1 X111.275 Y102.634 E1.58081
G1 X111.415 Y103.248 E1.58418
G1 X111.507 Y103.828 E1.58732
G1 X111.601 Y104.818 E1.59264
G1 X120.916 Y104.857 E1.64244
G1 X120.916 Y103.119 E1.65174
G1 X121.595 Y103.225 E1.65541
G1 X123.957 Y103.661 E1.66825
G1 X125.809 Y104.076 E1.67839
G1 X127.182 Y104.469 E1.68603
G1 X128.512 Y105.000 E1.69369
G1 X127.182 Y105.531 E1.70135
G1 X125.809 Y105.924 E1.70899
G1 X123.957 Y106.339 E1.71913
G1 X121.595 Y106.775 E1.73197
G1 X120.916 Y106.881 E1.73564
G1 X120.916 Y105.143 E1.74494
G1 X111.601 Y105.182 E1.79474
G1 X111.507 Y106.172 E1.80006
G1 X111.415 Y106.752 E1.80320
G1 X111.287 Y107.325 E1.80634
G1 X111.123 Y107.890 E1.80948
G1 X110.924 Y108.442 E1.81262
G1 X110.691 Y108.981 E1.81576
G1 X110.424 Y109.505 E1.81890
G1 X110.129 Y110.004 E1.82200
G1 X109.795 Y110.496 E1.82518
G1 X109.435 Y110.960 E1.82832
G1 X109.047 Y111.401 E1.83146
G1 X108.631 Y111.816 E1.83460
G1 X108.191 Y112.205 E1.83775
G1 X107.727 Y112.565 E1.84089
G1 X107.241 Y112.895 E1.84403
G1 X106.735 Y113.194 E1.84717
G1 X106.218 Y113.457 E1.85027
G1 X105.673 Y113.694 E1.85345
G1 X105.120 Y113.893 E1.85659
G1 X104.556 Y114.057 E1.85973
G1 X103.983 Y114.185 E1.86287
G1 X103.402 Y114.277 E1.86601
G1 X102.818 Y114.332 E1.86915
G1 X102.231 Y114.351 E1.87229
G1 X101.643 Y114.332 E1.87543
G1 X101.059 Y114.277 E1.87857
G1 X100.478 Y114.185 E1.88171
G1 X99.905 Y114.057 E1.88485
G1 X99.341 Y113.893 E1.88799
G1 X98.788 Y113.694 E1.89113
G1 X98.249 Y113.461 E1.89427
G1 X97.726 Y113.194 E1.89742
G1 X97.220 Y112.895 E1.90056
G1 X96.734 Y112.565 E1.90370
G1 X96.270 Y112.205 E1.90684
G1 X95.745 Y111.742 E1.91058
G1 X89.119 Y118.314 E1.96047
G1 X90.348 Y119.543 E1.96977
G1 X89.793 Y119.947 E1.97344
G1 X87.815 Y121.310 E1.98628
G1 X86.212 Y122.326 E1.99643
G1 X84.962 Y123.019 E2.00407
G1 X83.684 Y123.568 E2.01150
G1 F1800.000 E1.01150
G92 E0
G1 X70.771 Y125.637 F7800.000
G1 X70.771 Y84.363
G1 X82.030 Y87.461
G1 F1800.000 E1.00000
G1 X81.626 Y86.905 F540.000 E1.00367
G1 X80.264 Y84.927 E1.01651
G1 X79.248 Y83.325 E1.02666
G1 X78.555 Y82.075 E1.03430
G1 X78.401 Y81.717 E1.03638
G1 X78.947 Y81.170 E1.04051
G1 X79.305 Y81.324 E1.04260
G1 X80.555 Y82.017 E1.05024
G1 X82.158 Y83.034 E1.06039
G1 X84.136 Y84.396 E1.07323
G1 X84.691 Y84.800 E1.07690
G1 X82.059 Y87.431 E1.09680
G1 F1800.000 E0.09680
G92 E0
G1 X82.038 Y87.716 F7800.000
G1 X83.334 Y86.420
G1 X95.681 Y97.928
G1 X111.841 Y104.631
G1 X128.730 Y104.776
G1 X128.730 Y102.944
G1 X128.916 Y103.119
G1 F1800.000 E1.00000
G1 X129.595 Y103.225 F540.000 E1.00367
G1 X131.957 Y103.661 E1.01651
G1 X133.809 Y104.076 E1.02666
G1 X135.182 Y104.469 E1.03430
G1 X135.545 Y104.614 E1.03638
G1 X135.545 Y105.386 E1.04052
G1 X135.182 Y105.531 E1.04260
G1 X133.809 Y105.924 E1.05024
G1 X131.957 Y106.339 E1.06039
G1 X129.595 Y106.775 E1.07323
G1 X128.916 Y106.881 E1.07690
G1 X128.916 Y103.160 E1.09680
G1 F1800.000 E0.09680
G92 E0
G1 X128.730 Y102.944 F7800.000
G1 X128.730 Y104.776
G1 X111.877 Y105.369
G1 X95.672 Y112.080
G1 X83.650 Y123.896
G1 X78.862 Y129.008
G1 X78.884 Y129.155
G1 F1800.000 E1.00000
G1 X78.075 Y128.346 F540.000 E1.00612
G1 X78.308 Y127.804 E1.00927
G1 X79.012 Y126.535 E1.01703
G1 X80.035 Y124.921 E1.02725
G1 X81.402 Y122.936 E1.04013
G1 X81.997 Y122.119 E1.04554
G1 X83.382 Y123.504 E1.05601
G1 X83.965 Y122.147 E1.06390
G1 X84.669 Y120.878 E1.07166
G1 X85.692 Y119.264 E1.08188
G1 X87.059 Y117.279 E1.09476
G1 X87.654 Y116.462 E1.10017
G1 X88.915 Y117.723 E1.10971
G1 X95.112 Y111.473 E1.15676
G1 X94.814 Y111.135 E1.15917
G1 X94.444 Y110.657 E1.16240
G1 X94.104 Y110.157 E1.16564
G1 X93.796 Y109.637 E1.16887
G1 X93.522 Y109.098 E1.17210
G1 X93.281 Y108.543 E1.17533
G1 X93.077 Y107.974 E1.17857
G1 X92.922 Y107.443 E1.18152
G1 X92.776 Y106.804 E1.18503
G1 X92.681 Y106.206 E1.18826
G1 X92.624 Y105.604 E1.19150
G1 X92.605 Y105.000 E1.19473
G1 X92.624 Y104.396 E1.19796
G1 X92.680 Y103.810 E1.20111
G1 X92.776 Y103.196 E1.20443
G1 X92.908 Y102.606 E1.20766
G1 X93.077 Y102.026 E1.21089
G1 X93.281 Y101.457 E1.21413
G1 X93.521 Y100.902 E1.21736
G1 X93.789 Y100.377 E1.22051
G1 X94.104 Y99.843 E1.22382
G1 X94.444 Y99.343 E1.22706
G1 X94.814 Y98.865 E1.23029
G1 X95.112 Y98.527 E1.23270
G1 X88.915 Y92.277 E1.27975
G1 X87.654 Y93.538 E1.28929
G1 X87.059 Y92.721 E1.29469
G1 X85.692 Y90.736 E1.30758
G1 X84.669 Y89.122 E1.31780
G1 X83.965 Y87.853 E1.32556
G1 X83.382 Y86.496 E1.33345
G1 X81.998 Y87.881 E1.34392
G1 X81.402 Y87.064 E1.34933
G1 X80.035 Y85.079 E1.36221
G1 X79.012 Y83.465 E1.37243
G1 X78.308 Y82.196 E1.38019
G1 X78.075 Y81.654 E1.38334
G1 X78.884 Y80.845 E1.38946
G1 X79.426 Y81.077 E1.39261
G1 X80.695 Y81.781 E1.40037
G1 X82.309 Y82.805 E1.41059
G1 X84.294 Y84.172 E1.42347
G1 X85.112 Y84.767 E1.42888
G1 X83.727 Y86.152 E1.43935
G1 X85.083 Y86.734 E1.44724
G1 X86.352 Y87.438 E1.45500
G1 X87.966 Y88.462 E1.46522
G1 X89.951 Y89.829 E1.47811
G1 X90.769 Y90.424 E1.48351
G1 X89.508 Y91.685 E1.49305
G1 X95.757 Y97.882 E1.54010
G1 X96.095 Y97.584 E1.54251
G1 X96.573 Y97.213 E1.54574
G1 X97.073 Y96.873 E1.54898
G1 X97.594 Y96.566 E1.55221
G1 X98.132 Y96.291 E1.55544
G1 X98.687 Y96.051 E1.55867
G1 X99.256 Y95.846 E1.56191
G1 X99.837 Y95.677 E1.56514
G1 X100.427 Y95.545 E1.56837
G1 X101.024 Y95.451 E1.57160
G1 X101.626 Y95.394 E1.57484
G1 X102.231 Y95.375 E1.57807
G1 X102.835 Y95.394 E1.58130
G1 X103.437 Y95.451 E1.58454
G1 X103.955 Y95.533 E1.58734
G1 X104.624 Y95.677 E1.59100
G1 X105.205 Y95.846 E1.59423
G1 X105.774 Y96.051 E1.59747
G1 X106.329 Y96.291 E1.60070
G1 X106.867 Y96.566 E1.60393
G1 X107.388 Y96.873 E1.60716
G1 X107.888 Y97.213 E1.61040
G1 X108.302 Y97.535 E1.61320
G1 X108.819 Y97.984 E1.61686
G1 X109.247 Y98.411 E1.62009
G1 X109.647 Y98.865 E1.62333
G1 X110.017 Y99.343 E1.62656
G1 X110.357 Y99.843 E1.62979
G1 X110.665 Y100.363 E1.63302
G1 X110.903 Y100.830 E1.63583
G1 X111.180 Y101.457 E1.63949
G1 X111.384 Y102.026 E1.64272
G1 X111.553 Y102.606 E1.64595
G1 X111.685 Y103.196 E1.64919
G1 X111.780 Y103.794 E1.65242
G1 X111.851 Y104.544 E1.65645
G1 X120.642 Y104.581 E1.70345
G1 X120.642 Y102.798 E1.71299
G1 X121.641 Y102.955 E1.71839
G1 X124.011 Y103.392 E1.73128
G1 X125.876 Y103.810 E1.74150
G1 X127.271 Y104.209 E1.74926
G1 X128.642 Y104.756 E1.75715
G1 X128.642 Y102.798 E1.76762
G1 X129.641 Y102.955 E1.77303
G1 X132.011 Y103.392 E1.78591
G1 X133.876 Y103.810 E1.79613
G1 X135.271 Y104.209 E1.80389
G1 X135.819 Y104.428 E1.80704
G1 X135.819 Y105.572 E1.81316
G1 X135.271 Y105.791 E1.81631
G1 X133.876 Y106.190 E1.82407
G1 X132.011 Y106.608 E1.83429
G1 X129.641 Y107.045 E1.84717
G1 X128.642 Y107.202 E1.85258
G1 X128.642 Y105.244 E1.86305
G1 X127.271 Y105.791 E1.87094
G1 X125.876 Y106.190 E1.87870
G1 X124.011 Y106.608 E1.88892
G1 X121.641 Y107.045 E1.90181
G1 X120.642 Y107.202 E1.90721
G1 X120.642 Y105.419 E1.91675
G1 X111.851 Y105.456 E1.96375
G1 X111.780 Y106.206 E1.96778
G1 X111.685 Y106.804 E1.97101
G1 X111.553 Y107.394 E1.97425
G1 X111.384 Y107.974 E1.97748
G1 X111.180 Y108.543 E1.98071
G1 X110.939 Y109.098 E1.98394
G1 X110.665 Y109.637 E1.98718
G1 X110.365 Y110.144 E1.99032
G1 X110.017 Y110.657 E1.99364
G1 X109.647 Y111.135 E1.99687
G1 X109.247 Y111.589 E2.00011
G1 X108.819 Y112.016 E2.00334
G1 X108.366 Y112.416 E2.00657
G1 X107.730 Y112.909 E2.01087
G1 X107.730 Y112.894 E2.01095
G1 X107.388 Y113.127 E2.01317
G1 X106.867 Y113.434 E2.01640
G1 X106.343 Y113.702 E2.01955
G1 X105.774 Y113.949 E2.02286
G1 X105.205 Y114.154 E2.02610
G1 X104.624 Y114.323 E2.02933
G1 X104.034 Y114.455 E2.03256
G1 X103.437 Y114.549 E2.03580
G1 X102.835 Y114.606 E2.03903
G1 X102.231 Y114.625 E2.04226
G1 X101.626 Y114.606 E2.04549
G1 X101.024 Y114.549 E2.04873
G1 X100.427 Y114.455 E2.05196
G1 X99.837 Y114.323 E2.05519
G1 X99.256 Y114.154 E2.05842
G1 X98.687 Y113.949 E2.06166
G1 X98.132 Y113.709 E2.06489
G1 X97.594 Y113.434 E2.06812
G1 X97.073 Y113.127 E2.07136
G1 X96.573 Y112.787 E2.07459
G1 X96.095 Y112.416 E2.07782
G1 X95.757 Y112.118 E2.08023
G1 X89.508 Y118.315 E2.12728
G1 X90.769 Y119.576 E2.13682
G1 X89.951 Y120.171 E2.14223
G1 X87.966 Y121.538 E2.15511
G1 X86.352 Y122.562 E2.16533
G1 X85.083 Y123.266 E2.17309
G1 X83.727 Y123.848 E2.18098
G1 X85.112 Y125.233 E2.19145
G1 X84.294 Y125.828 E2.19686
G1 X82.309 Y127.195 E2.20974
G1 X80.695 Y128.219 E2.21996
G1 X79.426 Y128.923 E2.22772
G1 X78.922 Y129.139 E2.23065
G1 X79.152 Y129.339 F7800.000
G1 X78.822 Y129.481 F324.000 E2.23257
G1 X77.750 Y128.409 E2.24068
G1 X78.061 Y127.683 E2.24490
G1 X78.776 Y126.395 E2.25278
G1 X79.806 Y124.770 E2.26306
G1 X81.178 Y122.777 E2.27600
G1 X81.965 Y121.698 E2.28314
G1 X83.290 Y123.023 E2.29316
G1 X83.718 Y122.026 E2.29896
G1 X84.433 Y120.738 E2.30684
G1 X85.463 Y119.113 E2.31713
G1 X86.835 Y117.121 E2.33006
G1 X87.621 Y116.041 E2.33720
G1 X88.915 Y117.334 E2.34698
G1 X94.736 Y111.461 E2.39119
G1 X94.222 Y110.819 E2.39559
G1 X93.872 Y110.304 E2.39891
G1 X93.556 Y109.769 E2.40224
G1 X93.273 Y109.215 E2.40556
G1 X93.026 Y108.644 E2.40889
G1 X92.816 Y108.059 E2.41221
G1 X92.659 Y107.520 E2.41522
G1 X92.506 Y106.855 E2.41886
G1 X92.409 Y106.241 E2.42219
G1 X92.351 Y105.622 E2.42551
G1 X92.331 Y105.000 E2.42884
G1 X92.351 Y104.378 E2.43216
G1 X92.407 Y103.784 E2.43536
