; generated by Slic3r 0.9.8 on 2013-03-13 at 22:53:18

; layer_height = 0.2
; perimeters = 3
; top_solid_layers = 3
; bottom_solid_layers = 5
; fill_density = 0.4
; perimeter_speed = 75
; infill_speed = 75
; travel_speed = 150
; scale = 1
; nozzle_diameter = 0.4
; filament_diameter = 2.78
; extrusion_multiplier = 1
; perimeters extrusion width = 0.64mm
; infill extrusion width = 0.64mm
; support material extrusion width = 0.64mm
; first layer extrusion width = 0.60mm

M107
M104 S215 ; set temperature
G28 ; home all axes
M92 E865.888; init extruder
M109 S215 ; wait for temperature to be reached
G90 ; use absolute coordinates
G21 ; set units to millimeters
G92 E0
M82 ; use absolute distances for extrusion
G1 Z0.300 F9000.000
G1 X134.160 Y121.510
G1 X133.320 Y121.690 F2250.000 E0.02365
G1 X132.470 Y121.770 E0.04716
G1 X77.520 Y121.770 E1.56012
G1 X76.670 Y121.690 E1.58362
G1 X76.390 Y121.640 E1.59146
G1 X75.830 Y121.510 E1.60728
G1 X75.290 Y121.350 E1.62279
G1 X74.760 Y121.140 E1.63849
G1 X74.240 Y120.890 E1.65437
G1 X73.750 Y120.610 E1.66991
G1 X73.270 Y120.290 E1.68580
G1 X72.610 Y119.740 E1.70945
G1 X72.020 Y119.130 E1.73282
G1 X71.830 Y118.910 E1.74082
G1 X71.490 Y118.450 E1.75657
G1 X71.050 Y117.720 E1.78004
G1 X70.800 Y117.210 E1.79568
G1 X70.490 Y116.410 E1.81930
G1 X70.280 Y115.580 E1.84287
G1 X70.160 Y114.730 E1.86651
G1 X70.140 Y113.870 E1.89019
G1 X70.200 Y112.990 E1.91448
G1 X70.280 Y112.250 E1.93497
G1 X70.430 Y111.340 E1.96036
G1 X70.650 Y110.390 E1.98721
G1 X70.920 Y109.490 E2.01308
G1 X71.160 Y108.810 E2.03294
G1 X71.520 Y107.920 E2.05937
G1 X71.860 Y107.190 E2.08154
G1 X72.330 Y106.310 E2.10901
G1 X72.710 Y105.680 E2.12927
G1 X73.280 Y104.820 E2.15768
G1 X73.650 Y104.310 E2.17503
G1 X74.320 Y103.460 E2.20483
G1 X74.750 Y102.960 E2.22298
G1 X75.890 Y101.770 E2.26836
G1 X76.750 Y100.970 E2.30070
G1 X77.210 Y100.580 E2.31730
G1 X78.470 Y99.590 E2.36142
G1 X89.650 Y91.600 E2.73977
G1 X90.160 Y91.270 E2.75650
G1 X90.690 Y90.980 E2.77313
G1 X91.240 Y90.730 E2.78977
G1 X91.810 Y90.520 E2.80649
G1 X92.390 Y90.360 E2.82306
G1 X93.290 Y90.210 E2.84818
G1 X102.840 Y89.560 E3.11173
G1 X103.330 Y89.540 E3.12523
G1 X106.350 Y89.540 E3.20839
G1 X116.370 Y90.180 E3.48483
G1 X116.980 Y90.250 E3.50174
G1 X117.580 Y90.360 E3.51853
G1 X117.870 Y90.430 E3.52675
G1 X118.450 Y90.610 E3.54347
G1 X118.740 Y90.720 E3.55201
G1 X119.570 Y91.110 E3.57726
G1 X120.090 Y91.430 E3.59407
G1 X131.520 Y99.590 E3.98074
G1 X132.780 Y100.580 E4.02486
G1 X133.240 Y100.970 E4.04147
G1 X134.100 Y101.770 E4.07381
G1 X134.470 Y102.140 E4.08821
G1 X135.240 Y102.960 E4.11919
G1 X135.670 Y103.460 E4.13734
G1 X136.340 Y104.310 E4.16714
G1 X136.710 Y104.820 E4.18449
G1 X137.280 Y105.680 E4.21290
G1 X137.660 Y106.310 E4.23316
G1 X138.130 Y107.190 E4.26062
G1 X138.470 Y107.920 E4.28280
G1 X138.830 Y108.810 E4.30923
G1 X139.070 Y109.490 E4.32908
G1 X139.340 Y110.390 E4.35496
G1 X139.560 Y111.340 E4.38180
G1 X139.710 Y112.250 E4.40720
G1 X139.790 Y112.990 E4.42769
G1 X139.850 Y113.870 E4.45198
G1 X139.830 Y114.730 E4.47566
G1 X139.760 Y115.300 E4.49147
G1 X139.650 Y115.860 E4.50719
G1 X139.500 Y116.410 E4.52288
G1 X139.190 Y117.210 E4.54651
G1 X138.800 Y117.970 E4.57003
G1 X138.500 Y118.450 E4.58561
G1 X138.160 Y118.910 E4.60136
G1 X137.970 Y119.130 E4.60936
G1 X137.380 Y119.740 E4.63273
G1 X136.720 Y120.290 E4.65638
G1 X136.240 Y120.610 E4.67227
G1 X135.490 Y121.020 E4.69580
G1 X134.970 Y121.250 E4.71146
G1 X134.240 Y121.487 E4.73258
G1 X134.160 Y121.510 E4.73488
G1 X134.100 Y120.950 F9000.000
G1 X133.280 Y121.130 F2250.000 E4.75800
G1 X133.010 Y121.170 E4.76551
G1 X132.460 Y121.210 E4.78069
G1 X77.530 Y121.210 E6.29310
G1 X76.980 Y121.170 E6.30828
G1 X76.430 Y121.080 E6.32363
G1 X75.890 Y120.950 E6.33892
G1 X75.360 Y120.780 E6.35425
G1 X74.600 Y120.450 E6.37706
G1 X74.120 Y120.180 E6.39222
G1 X73.650 Y119.870 E6.40773
G1 X73.430 Y119.710 E6.41522
G1 X73.010 Y119.350 E6.43045
G1 X72.610 Y118.960 E6.44583
G1 X72.080 Y118.320 E6.46871
G1 X71.630 Y117.620 E6.49162
G1 X71.370 Y117.130 E6.50689
G1 X71.260 Y116.880 E6.51441
G1 X71.060 Y116.360 E6.52975
G1 X70.980 Y116.100 E6.53724
G1 X70.850 Y115.560 E6.55253
G1 X70.750 Y115.010 E6.56793
G1 X70.700 Y114.460 E6.58313
G1 X70.710 Y113.630 E6.60599
G1 X70.750 Y113.030 E6.62254
G1 X70.830 Y112.340 E6.64167
G1 X70.980 Y111.430 E6.66706
G1 X71.190 Y110.550 E6.69197
G1 X71.670 Y109.020 E6.73612
G1 X72.030 Y108.130 E6.76256
G1 X72.350 Y107.450 E6.78325
G1 X72.820 Y106.570 E6.81072
G1 X73.170 Y105.990 E6.82937
G1 X73.740 Y105.130 E6.85778
G1 X74.080 Y104.660 E6.87375
G1 X74.750 Y103.810 E6.90355
G1 X75.150 Y103.340 E6.92054
G1 X76.260 Y102.180 E6.96474
G1 X77.120 Y101.380 E6.99708
G1 X77.550 Y101.010 E7.01270
G1 X78.510 Y100.250 E7.04642
G1 X90.220 Y91.880 E7.44272
G1 X90.740 Y91.570 E7.45939
G1 X91.290 Y91.310 E7.47614
G1 X91.850 Y91.090 E7.49271
G1 X92.140 Y91.000 E7.50107
G1 X92.730 Y90.860 E7.51777
G1 X93.630 Y90.740 E7.54276
G1 X102.880 Y90.110 E7.79804
G1 X106.310 Y90.100 E7.89248
G1 X116.330 Y90.740 E8.16892
G1 X116.940 Y90.810 E8.18583
G1 X117.540 Y90.920 E8.20263
G1 X118.410 Y91.190 E8.22771
G1 X118.970 Y91.430 E8.24448
G1 X119.240 Y91.570 E8.25286
G1 X119.510 Y91.720 E8.26136
G1 X120.020 Y92.050 E8.27808
G1 X131.200 Y100.040 E8.65644
G1 X132.440 Y101.010 E8.69978
G1 X132.870 Y101.380 E8.71540
G1 X133.730 Y102.180 E8.74774
G1 X134.840 Y103.340 E8.79195
G1 X135.240 Y103.810 E8.80894
G1 X135.910 Y104.660 E8.83874
G1 X136.250 Y105.130 E8.85471
G1 X136.820 Y105.990 E8.88312
G1 X137.170 Y106.570 E8.90177
G1 X137.640 Y107.450 E8.92924
G1 X137.960 Y108.130 E8.94993
G1 X138.320 Y109.020 E8.97637
G1 X138.800 Y110.550 E9.02052
G1 X139.010 Y111.430 E9.04543
G1 X139.160 Y112.340 E9.07082
G1 X139.240 Y113.030 E9.08994
G1 X139.290 Y113.900 E9.11394
G1 X139.290 Y114.460 E9.12936
G1 X139.240 Y115.010 E9.14456
G1 X139.080 Y115.830 E9.16757
G1 X138.930 Y116.360 E9.18273
G1 X138.730 Y116.880 E9.19807
G1 X138.620 Y117.130 E9.20559
G1 X138.360 Y117.620 E9.22086
G1 X137.910 Y118.320 E9.24378
G1 X137.380 Y118.960 E9.26666
G1 X136.980 Y119.350 E9.28204
G1 X136.560 Y119.710 E9.29727
G1 X135.870 Y120.180 E9.32026
G1 X135.140 Y120.570 E9.34304
G1 X134.630 Y120.780 E9.35823
G1 X134.180 Y120.926 E9.37125
G1 X134.100 Y120.950 E9.37355
G1 X134.030 Y120.390 F9000.000
G1 X133.510 Y120.520 F2250.000 E9.38831
G1 X132.980 Y120.610 E9.40311
G1 X132.720 Y120.640 E9.41032
G1 X132.180 Y120.660 E9.42520
G1 X77.810 Y120.660 E10.92219
G1 X77.270 Y120.640 E10.93706
G1 X76.740 Y120.570 E10.95178
G1 X76.220 Y120.460 E10.96642
G1 X75.700 Y120.310 E10.98132
G1 X75.200 Y120.120 E10.99605
G1 X74.720 Y119.880 E11.01082
G1 X74.480 Y119.750 E11.01834
G1 X74.030 Y119.460 E11.03308
G1 X73.400 Y118.960 E11.05522
G1 X72.840 Y118.380 E11.07742
G1 X72.360 Y117.740 E11.09945
G1 X72.210 Y117.510 E11.10701
G1 X71.950 Y117.040 E11.12180
G1 X71.630 Y116.300 E11.14399
G1 X71.470 Y115.790 E11.15871
G1 X71.360 Y115.270 E11.17335
G1 X71.280 Y114.740 E11.18810
G1 X71.250 Y114.200 E11.20299
G1 X71.310 Y113.060 E11.23443
G1 X71.380 Y112.430 E11.25188
G1 X71.530 Y111.520 E11.27727
G1 X71.720 Y110.710 E11.30018
G1 X71.990 Y109.810 E11.32605
G1 X72.190 Y109.230 E11.34294
G1 X72.550 Y108.340 E11.36938
G1 X72.850 Y107.710 E11.38859
G1 X73.320 Y106.830 E11.41606
G1 X73.630 Y106.300 E11.43296
G1 X74.200 Y105.440 E11.46137
G1 X74.520 Y105.000 E11.47635
G1 X75.190 Y104.150 E11.50615
G1 X75.560 Y103.720 E11.52177
G1 X76.640 Y102.590 E11.56481
G1 X77.500 Y101.790 E11.59715
G1 X77.900 Y101.450 E11.61160
G1 X78.860 Y100.690 E11.64531
G1 X90.530 Y92.350 E12.04025
G1 X91.010 Y92.060 E12.05569
G1 X91.510 Y91.820 E12.07096
G1 X92.030 Y91.620 E12.08630
G1 X92.290 Y91.540 E12.09379
G1 X92.840 Y91.410 E12.10935
G1 X93.390 Y91.320 E12.12469
G1 X102.910 Y90.670 E12.38742
G1 X103.330 Y90.650 E12.39900
G1 X105.830 Y90.640 E12.46783
G1 X116.580 Y91.320 E12.76441
G1 X117.130 Y91.400 E12.77971
G1 X117.410 Y91.460 E12.78759
G1 X117.680 Y91.530 E12.79527
G1 X118.210 Y91.710 E12.81068
G1 X118.730 Y91.930 E12.82623
G1 X119.460 Y92.350 E12.84942
G1 X130.870 Y100.500 E13.23548
G1 X132.090 Y101.450 E13.27806
G1 X132.490 Y101.790 E13.29251
G1 X133.350 Y102.590 E13.32485
G1 X134.430 Y103.720 E13.36789
G1 X134.800 Y104.150 E13.38351
G1 X135.470 Y105.000 E13.41331
G1 X135.790 Y105.440 E13.42829
G1 X136.360 Y106.300 E13.45670
G1 X136.670 Y106.830 E13.47360
G1 X137.140 Y107.710 E13.50107
G1 X137.440 Y108.340 E13.52028
G1 X137.800 Y109.230 E13.54672
G1 X138.000 Y109.810 E13.56361
G1 X138.270 Y110.710 E13.58948
G1 X138.460 Y111.520 E13.61239
G1 X138.610 Y112.430 E13.63778
G1 X138.680 Y113.060 E13.65523
G1 X138.740 Y114.200 E13.68666
G1 X138.710 Y114.740 E13.70155
G1 X138.630 Y115.270 E13.71631
G1 X138.520 Y115.790 E13.73095
G1 X138.360 Y116.300 E13.74566
G1 X138.260 Y116.550 E13.75308
G1 X138.040 Y117.040 E13.76787
G1 X137.910 Y117.280 E13.77538
G1 X137.780 Y117.510 E13.78266
G1 X137.480 Y117.960 E13.79755
G1 X136.970 Y118.580 E13.81965
G1 X136.590 Y118.960 E13.83445
G1 X136.170 Y119.300 E13.84933
G1 X135.740 Y119.610 E13.86392
G1 X135.270 Y119.880 E13.87884
G1 X134.790 Y120.120 E13.89362
G1 X134.110 Y120.366 E13.91353
G1 X134.030 Y120.390 E13.91583
G1 X105.870 Y97.712 F9000.000
G1 X105.870 Y97.209 F1800.000 E13.92967
G1 X103.370 Y97.216 E13.99850
G1 X103.370 Y97.385 E14.00315
G1 X102.033 Y100.159 F9000.000
G1 X104.997 Y100.252 F2250.000 E14.08480
G1 X108.038 Y100.156 E14.16855
G1 X111.069 Y99.869 E14.25238
G1 X114.073 Y99.391 E14.33614
G1 X115.297 Y99.117 E14.37068
G1 X115.839 Y100.281 E14.40603
G1 X116.343 Y101.517 E14.44280
G1 X116.613 Y102.278 E14.46503
G1 X117.842 Y102.620 E14.50014
G1 X119.272 Y103.081 E14.54153
G1 X120.643 Y103.589 E14.58177
G1 X121.947 Y104.141 E14.62077
G1 X123.180 Y104.734 E14.65843
G1 X124.335 Y105.364 E14.69468
G1 X125.410 Y106.029 E14.72946
G1 X126.398 Y106.724 E14.76272
G1 X127.296 Y107.445 E14.79443
G1 X128.101 Y108.187 E14.82458
G1 X128.810 Y108.947 E14.85319
G1 X129.423 Y109.718 E14.88032
G1 X129.937 Y110.498 E14.90603
G1 X130.354 Y111.281 E14.93047
G1 X130.676 Y112.065 E14.95381
G1 X130.946 Y112.995 E14.98047
G1 X116.729 Y112.995 E15.37191
G1 X116.317 Y112.187 E15.39688
G1 X115.905 Y111.490 E15.41920
G1 X115.449 Y110.819 E15.44154
G1 X114.951 Y110.177 E15.46390
G1 X114.415 Y109.569 E15.48622
G1 X113.841 Y108.995 E15.50855
G1 X113.232 Y108.459 E15.53090
G1 X112.591 Y107.961 E15.55324
G1 X111.921 Y107.505 E15.57556
G1 X111.222 Y107.092 E15.59791
G1 X110.498 Y106.724 E15.62027
G1 X109.754 Y106.402 E15.64259
G1 X108.942 Y106.112 E15.66634
G1 X108.212 Y105.900 E15.68727
G1 X107.420 Y105.723 E15.70961
G1 X106.619 Y105.597 E15.73195
G1 X105.811 Y105.520 E15.75428
G1 X105.000 Y105.495 E15.77662
G1 X104.189 Y105.520 E15.79897
G1 X103.381 Y105.597 E15.82130
G1 X102.580 Y105.723 E15.84364
G1 X101.788 Y105.900 E15.86598
G1 X101.009 Y106.127 E15.88832
G1 X100.246 Y106.402 E15.91066
G1 X99.501 Y106.724 E15.93300
G1 X98.778 Y107.092 E15.95534
G1 X98.080 Y107.505 E15.97767
G1 X97.409 Y107.961 E16.00002
G1 X96.731 Y108.491 E16.02369
G1 X96.159 Y108.995 E16.04467
G1 X95.585 Y109.569 E16.06702
G1 X95.049 Y110.177 E16.08936
G1 X94.552 Y110.818 E16.11170
G1 X94.096 Y111.489 E16.13403
G1 X93.683 Y112.188 E16.15638
G1 X93.271 Y112.995 E16.18133
G1 X79.054 Y112.995 E16.57278
G1 X79.324 Y112.065 E16.59944
G1 X79.646 Y111.281 E16.62278
G1 X80.063 Y110.498 E16.64721
G1 X80.577 Y109.718 E16.67293
G1 X81.190 Y108.947 E16.70005
G1 X81.899 Y108.187 E16.72867
G1 X82.704 Y107.445 E16.75882
G1 X83.602 Y106.724 E16.79053
G1 X84.590 Y106.029 E16.82379
G1 X85.665 Y105.364 E16.85857
G1 X86.820 Y104.734 E16.89482
G1 X88.053 Y104.141 E16.93248
G1 X89.357 Y103.589 E16.97148
G1 X90.728 Y103.081 E17.01172
G1 X92.158 Y102.620 E17.05310
G1 X93.387 Y102.278 E17.08822
G1 X93.657 Y101.517 E17.11044
G1 X94.161 Y100.281 E17.14722
G1 X94.703 Y99.117 E17.18257
G1 X95.927 Y99.391 E17.21711
G1 X98.931 Y99.869 E17.30087
G1 X101.950 Y100.155 E17.38435
G1 X102.033 Y100.159 E17.38665
G1 X102.051 Y99.602 F9000.000
G1 X104.998 Y99.695 F2250.000 E17.46784
G1 X108.004 Y99.600 E17.55062
G1 X110.999 Y99.316 E17.63346
G1 X113.968 Y98.844 E17.71625
G1 X115.591 Y98.480 E17.76204
G1 X115.790 Y98.855 E17.77375
G1 X116.349 Y100.058 E17.81026
G1 X116.864 Y101.319 E17.84777
G1 X117.041 Y101.819 E17.86237
G1 X118.002 Y102.086 E17.88983
G1 X119.455 Y102.555 E17.93186
G1 X120.848 Y103.071 E17.97278
G1 X122.176 Y103.633 E18.01248
G1 X123.434 Y104.238 E18.05090
G1 X124.616 Y104.883 E18.08797
G1 X125.717 Y105.564 E18.12362
G1 X126.733 Y106.278 E18.15782
G1 X127.660 Y107.022 E18.19054
G1 X128.494 Y107.792 E18.22179
G1 X129.233 Y108.583 E18.25159
G1 X129.874 Y109.391 E18.28001
G1 X130.417 Y110.213 E18.30712
G1 X130.859 Y111.044 E18.33305
G1 X131.203 Y111.882 E18.35797
G1 X131.447 Y112.723 E18.38209
G1 X131.591 Y113.552 E18.40527
G1 X116.356 Y113.552 E18.82472
G1 X116.181 Y113.148 E18.83685
G1 X115.829 Y112.456 E18.85823
G1 X115.434 Y111.788 E18.87959
G1 X114.998 Y111.146 E18.90097
G1 X114.521 Y110.532 E18.92236
G1 X114.008 Y109.950 E18.94372
G1 X113.459 Y109.401 E18.96509
G1 X112.877 Y108.888 E18.98647
G1 X112.264 Y108.412 E19.00785
G1 X111.622 Y107.976 E19.02921
G1 X110.953 Y107.581 E19.05059
G1 X110.261 Y107.228 E19.07198
G1 X109.549 Y106.920 E19.09334
G1 X108.786 Y106.647 E19.11565
G1 X108.073 Y106.440 E19.13609
G1 X107.316 Y106.271 E19.15747
G1 X106.549 Y106.149 E19.17884
G1 X105.776 Y106.076 E19.20022
G1 X105.000 Y106.052 E19.22159
G1 X104.224 Y106.076 E19.24297
G1 X103.451 Y106.149 E19.26434
G1 X102.684 Y106.271 E19.28572
G1 X101.927 Y106.440 E19.30709
G1 X101.181 Y106.657 E19.32847
G1 X100.451 Y106.920 E19.34984
G1 X99.738 Y107.228 E19.37121
G1 X99.047 Y107.581 E19.39259
G1 X98.379 Y107.976 E19.41396
G1 X97.736 Y108.412 E19.43534
G1 X97.100 Y108.909 E19.45757
G1 X96.541 Y109.401 E19.47808
G1 X95.992 Y109.950 E19.49946
G1 X95.478 Y110.533 E19.52084
G1 X95.003 Y111.146 E19.54221
G1 X94.566 Y111.788 E19.56358
G1 X94.171 Y112.456 E19.58496
G1 X93.819 Y113.148 E19.60633
G1 X93.644 Y113.552 E19.61847
G1 X78.409 Y113.552 E20.03791
G1 X78.553 Y112.723 E20.06110
G1 X78.797 Y111.882 E20.08521
G1 X79.141 Y111.044 E20.11014
G1 X79.583 Y110.213 E20.13607
G1 X80.126 Y109.391 E20.16318
G1 X80.767 Y108.583 E20.19159
G1 X81.506 Y107.792 E20.22140
G1 X82.340 Y107.022 E20.25265
G1 X83.267 Y106.278 E20.28537
G1 X84.283 Y105.564 E20.31956
G1 X85.384 Y104.883 E20.35522
G1 X86.566 Y104.238 E20.39228
G1 X87.824 Y103.633 E20.43070
G1 X89.152 Y103.071 E20.47041
G1 X90.545 Y102.555 E20.51133
G1 X91.998 Y102.086 E20.55336
G1 X92.959 Y101.819 E20.58081
G1 X93.136 Y101.319 E20.59542
G1 X93.650 Y100.058 E20.63292
G1 X94.210 Y98.855 E20.66944
G1 X94.409 Y98.480 E20.68114
G1 X96.032 Y98.844 E20.72694
G1 X99.001 Y99.316 E20.80973
G1 X101.968 Y99.597 E20.89177
G1 X102.051 Y99.602 E20.89407
G1 X102.069 Y99.045 F9000.000
G1 X104.999 Y99.137 F1125.000 E20.97479
G1 X107.969 Y99.044 E21.05661
G1 X110.928 Y98.763 E21.13845
G1 X113.863 Y98.296 E21.22027
G1 X115.884 Y97.843 E21.27730
G1 X116.289 Y98.607 E21.30112
G1 X116.860 Y99.835 E21.33840
G1 X117.469 Y101.360 E21.38361
G1 X118.162 Y101.552 E21.40340
G1 X119.637 Y102.028 E21.44607
G1 X121.053 Y102.553 E21.48767
G1 X122.406 Y103.125 E21.52809
G1 X123.688 Y103.742 E21.56727
G1 X124.896 Y104.401 E21.60515
G1 X126.024 Y105.099 E21.64167
G1 X127.068 Y105.833 E21.67681
G1 X128.023 Y106.600 E21.71054
G1 X128.887 Y107.396 E21.74289
G1 X129.655 Y108.219 E21.77388
G1 X130.326 Y109.064 E21.80359
G1 X130.896 Y109.928 E21.83209
G1 X131.364 Y110.807 E21.85951
G1 X131.729 Y111.698 E21.88602
G1 X131.990 Y112.597 E21.91181
G1 X132.147 Y113.502 E21.93709
G1 X132.182 Y114.110 E21.95384
G1 X115.990 Y114.110 E22.39966
G1 X115.677 Y113.385 E22.42139
G1 X115.340 Y112.725 E22.44180
G1 X114.963 Y112.087 E22.46220
G1 X114.547 Y111.474 E22.48261
G1 X114.092 Y110.888 E22.50303
G1 X113.592 Y110.322 E22.52382
G1 X113.078 Y109.808 E22.54385
G1 X112.522 Y109.317 E22.56426
G1 X111.936 Y108.863 E22.58467
G1 X111.323 Y108.446 E22.60508
G1 X110.673 Y108.063 E22.62587
G1 X110.024 Y107.732 E22.64590
G1 X109.344 Y107.438 E22.66631
