; generated by Slic3r 0.9.10b on 2013-07-12 at 00:27:44

; layer_height = 0.1
; perimeters = 3
; top_solid_layers = 3
; bottom_solid_layers = 3
; fill_density = 0.9
; perimeter_speed = 30
; infill_speed = 60
; travel_speed = 130
; nozzle_diameter = 0.4
; filament_diameter = 2.8
; extrusion_multiplier = 1
; perimeters extrusion width = 0.68mm
; infill extrusion width = 1.28mm
; solid infill extrusion width = 0.68mm
; top infill extrusion width = 0.68mm
; first layer extrusion width = 0.20mm

G21 ; set units to millimeters
M107
M104 S220 ; set temperature
G28 ; home all axes
G1 Z20 F2000 ; down some millimeters
M109 S220 ; wait for temperature to be reached
G90 ; use absolute coordinates
G92 E0
M82 ; use absolute distances for extrusion
G1 F1800.000 E-1.00000
G92 E0
G1 Z0.100 F7800.000
G1 X95.540 Y97.940
G1 F1800.000 E1.00000
G1 X96.560 Y97.110 F540.000 E1.00519
G1 X97.730 Y96.480 E1.01043
G1 X98.990 Y96.100 E1.01562
G1 X100.300 Y95.970 E1.02082
G1 X109.700 Y95.970 E1.05790
G1 X111.010 Y96.100 E1.06309
G1 X112.270 Y96.480 E1.06829
G1 X113.440 Y97.110 E1.07353
G1 X114.460 Y97.940 E1.07872
G1 X115.290 Y98.960 E1.08390
G1 X115.920 Y100.130 E1.08915
G1 X116.300 Y101.390 E1.09434
G1 X116.430 Y102.700 E1.09953
G1 X116.430 Y107.300 E1.11768
G1 X116.300 Y108.610 E1.12287
G1 X115.920 Y109.870 E1.12806
G1 X115.290 Y111.040 E1.13331
G1 X114.460 Y112.060 E1.13849
G1 X113.440 Y112.890 E1.14368
G1 X112.270 Y113.520 E1.14892
G1 X111.010 Y113.900 E1.15412
G1 X109.700 Y114.030 E1.15931
G1 X101.800 Y114.030 E1.19048
G1 X100.360 Y113.870 E1.19619
G1 X98.990 Y113.410 E1.20189
G1 X97.740 Y112.670 E1.20762
G1 X96.690 Y111.670 E1.21334
G1 X95.870 Y110.480 E1.21905
G1 X94.370 Y107.680 E1.23158
G1 X93.770 Y106.140 E1.23810
G1 X93.570 Y104.500 E1.24462
G1 X93.570 Y102.700 E1.25172
G1 X93.700 Y101.390 E1.25691
G1 X94.080 Y100.130 E1.26210
G1 X94.710 Y98.960 E1.26734
G1 X95.517 Y97.968 E1.27239
G1 X95.710 Y98.110 F7800.000
G1 X96.700 Y97.310 F540.000 E1.27741
G1 X97.820 Y96.710 E1.28242
G1 X99.030 Y96.340 E1.28741
G1 X100.300 Y96.210 E1.29245
G1 X109.700 Y96.210 E1.32954
G1 X110.970 Y96.340 E1.33457
G1 X112.180 Y96.710 E1.33956
G1 X113.300 Y97.310 E1.34458
G1 X114.290 Y98.110 E1.34960
G1 X115.090 Y99.100 E1.35462
G1 X115.690 Y100.220 E1.35963
G1 X116.060 Y101.430 E1.36462
G1 X116.190 Y102.700 E1.36966
G1 X116.190 Y107.300 E1.38781
G1 X116.060 Y108.570 E1.39284
G1 X115.690 Y109.780 E1.39784
G1 X115.090 Y110.900 E1.40285
G1 X114.290 Y111.890 E1.40787
G1 X113.300 Y112.690 E1.41289
G1 X112.180 Y113.290 E1.41790
G1 X110.970 Y113.660 E1.42290
G1 X109.700 Y113.790 E1.42793
G1 X101.800 Y113.790 E1.45910
G1 X100.410 Y113.640 E1.46461
G1 X99.090 Y113.190 E1.47012
G1 X97.890 Y112.470 E1.47564
G1 X96.870 Y111.520 E1.48114
G1 X96.080 Y110.360 E1.48667
G1 X94.580 Y107.560 E1.49920
G1 X94.010 Y106.080 E1.50546
G1 X93.810 Y104.500 E1.51174
G1 X93.810 Y102.700 E1.51884
G1 X93.940 Y101.430 E1.52388
G1 X94.310 Y100.220 E1.52887
G1 X94.910 Y99.100 E1.53389
G1 X95.687 Y98.138 E1.53876
G1 X95.890 Y98.290 F7800.000
G1 X96.830 Y97.510 F540.000 E1.54358
G1 X97.910 Y96.930 E1.54842
G1 X99.080 Y96.580 E1.55324
G1 X100.300 Y96.460 E1.55807
G1 X109.700 Y96.460 E1.59516
G1 X110.920 Y96.580 E1.59999
G1 X112.090 Y96.930 E1.60481
G1 X113.170 Y97.510 E1.60965
G1 X114.110 Y98.290 E1.61447
G1 X114.890 Y99.230 E1.61928
G1 X115.470 Y100.310 E1.62412
G1 X115.820 Y101.480 E1.62894
G1 X115.940 Y102.700 E1.63377
G1 X115.940 Y107.300 E1.65192
G1 X115.820 Y108.520 E1.65676
G1 X115.470 Y109.690 E1.66158
G1 X114.890 Y110.770 E1.66641
G1 X114.110 Y111.710 E1.67123
G1 X113.170 Y112.490 E1.67605
G1 X112.090 Y113.070 E1.68089
G1 X110.920 Y113.420 E1.68570
G1 X109.700 Y113.540 E1.69054
G1 X101.800 Y113.540 E1.72171
G1 X100.460 Y113.400 E1.72702
G1 X99.190 Y112.970 E1.73231
G1 X98.030 Y112.280 E1.73764
G1 X97.060 Y111.360 E1.74291
G1 X96.300 Y110.250 E1.74822
G1 X94.800 Y107.450 E1.76075
G1 X94.240 Y106.020 E1.76681
G1 X94.060 Y104.500 E1.77285
G1 X94.060 Y102.700 E1.77995
G1 X94.180 Y101.480 E1.78478
G1 X94.530 Y100.310 E1.78960
G1 X95.110 Y99.230 E1.79444
G1 X95.867 Y98.318 E1.79911
G1 F1800.000 E0.79911
G92 E0
G1 X100.907 Y103.307 F7800.000
G1 F1800.000 E1.00000
G1 X109.093 Y103.307 F540.000 E1.03229
G1 X109.093 Y103.893 E1.03460
G1 X106.593 Y103.893 E1.04446
G1 X106.593 Y106.693 E1.05551
G1 X102.407 Y106.693 E1.07202
G1 X102.407 Y103.893 E1.08307
G1 X100.907 Y103.893 E1.08899
G1 X100.907 Y103.344 E1.09115
G1 F1800.000 E0.09115
G92 E0
G1 X109.336 Y103.064 F7800.000
G1 F1800.000 E1.00000
G1 X109.336 Y106.936 F540.000 E1.01527
G1 X109.064 Y106.936 E1.01634
G1 X109.064 Y104.136 E1.02739
G1 X106.836 Y104.136 E1.03618
G1 X106.836 Y106.936 E1.04723
G1 X102.164 Y106.936 E1.06566
G1 X102.164 Y104.136 E1.07670
G1 X100.664 Y104.136 E1.08262
G1 X100.664 Y103.064 E1.08685
G1 X109.299 Y103.064 E1.12091
G1 X109.579 Y102.821 F7800.000
G1 X109.579 Y107.179 F540.000 E1.13810
G1 X108.821 Y107.179 E1.14109
G1 X108.821 Y104.379 E1.15213
G1 X107.079 Y104.379 E1.15901
G1 X107.079 Y107.179 E1.17006
G1 X101.921 Y107.179 E1.19040
G1 X101.921 Y104.379 E1.20145
G1 X100.421 Y104.379 E1.20736
G1 X100.421 Y102.821 E1.21351
G1 X109.542 Y102.821 E1.24949
G1 X109.457 Y103.032 F7800.000
G1 F1800.000 E0.24949
G92 E0
G1 X106.208 Y103.483 F7800.000
G1 F1800.000 E1.00000
G1 X106.208 Y106.517 F1080.000 E1.01213
G1 X105.962 Y106.517 E1.01311
G1 X105.962 Y103.483 E1.02524
G1 X105.716 Y103.483 E1.02622
G1 X105.716 Y106.517 E1.03835
G1 X105.470 Y106.517 E1.03934
G1 X105.470 Y103.483 E1.05146
G1 X105.224 Y103.483 E1.05245
G1 X105.224 Y106.517 E1.06457
G1 X104.977 Y106.517 E1.06556
G1 X104.977 Y103.483 E1.07769
G1 X104.731 Y103.483 E1.07867
G1 X104.731 Y106.517 E1.09080
G1 X104.485 Y106.517 E1.09178
G1 X104.485 Y103.483 E1.10391
G1 X104.239 Y103.483 E1.10489
G1 X104.239 Y106.517 E1.11702
G1 X103.993 Y106.517 E1.11801
G1 X103.993 Y103.483 E1.13013
G1 X103.746 Y103.483 E1.13112
G1 X103.746 Y106.517 E1.14325
G1 X103.500 Y106.517 E1.14423
G1 X103.500 Y103.483 E1.15636
G1 X103.254 Y103.483 E1.15734
G1 X103.254 Y106.517 E1.16947
G1 X103.008 Y106.517 E1.17045
G1 X103.008 Y103.483 E1.18258
G1 X102.762 Y103.483 E1.18357
G1 X102.762 Y106.517 E1.19569
G1 F1800.000 E0.19569
G92 E0
G1 X101.273 Y103.621 F7800.000
G1 F1800.000 E1.00000
G1 X101.273 Y103.579 F360.000 E1.00022
G1 X101.597 Y103.579 E1.00193
G1 X101.597 Y103.621 E1.00216
G1 X101.921 Y103.621 E1.00386
G1 X101.921 Y103.579 E1.00409
G1 X102.245 Y103.579 E1.00580
G1 X102.245 Y103.621 E1.00602
G1 F1800.000 E0.00602
G92 E0
G1 X106.785 Y103.621 F7800.000
G1 F1800.000 E1.00000
G1 X106.785 Y103.579 F360.000 E1.00022
G1 X107.109 Y103.579 F7800.000
G1 X107.109 Y103.621 F360.000 E1.00045
G1 X107.433 Y103.621 F7800.000
G1 X107.433 Y103.579 F360.000 E1.00067
G1 X107.757 Y103.579 F7800.000
G1 X107.757 Y103.621 F360.000 E1.00089
G1 X108.082 Y103.621 F7800.000
G1 X108.082 Y103.579 F360.000 E1.00111
G1 X108.406 Y103.579 F7800.000
G1 X108.406 Y103.621 F360.000 E1.00134
G1 X108.730 Y103.621 F7800.000
G1 X108.730 Y103.579 F360.000 E1.00156
M106 S255
M104 S215 ; set temperature
G1 F1800.000 E0.00156
G92 E0
G1 Z0.200 F7800.000
G1 X105.554 Y104.346
G1 F1800.000 E1.00000
G1 X105.554 Y105.654 F600.000 E1.01398
G1 X103.446 Y105.654 E1.03652
G1 X103.446 Y104.346 E1.05050
G1 X105.455 Y104.346 E1.07198
G1 F1800.000 E0.07198
G92 E0
G1 X106.212 Y106.312 F7800.000
G1 F1800.000 E1.00000
G1 X102.788 Y106.312 F600.000 E1.03662
G1 X102.788 Y103.688 E1.06469
G1 X106.212 Y103.688 E1.10131
G1 X106.212 Y106.213 E1.12833
G1 X106.871 Y106.971 F7800.000
G1 X102.129 Y106.971 F600.000 E1.17903
G1 X102.129 Y104.171 E1.20898
G1 X100.629 Y104.171 E1.22502
G1 X100.629 Y103.029 E1.23723
G1 X109.371 Y103.029 E1.33072
G1 X109.371 Y106.971 E1.37287
G1 X109.029 Y106.971 E1.37652
G1 X109.029 Y104.171 E1.40647
G1 X106.871 Y104.171 E1.42956
G1 X106.871 Y106.872 E1.45844
G1 X106.300 Y106.641 F7800.000
G1 F1800.000 E0.45844
G92 E0
G1 X109.200 Y106.522 F7800.000
G1 F1800.000 E1.00000
G1 X109.157 Y104.967 F600.000 E1.01664
G1 X109.200 Y104.990 F7800.000
G1 X109.243 Y104.967 F600.000 E1.01716
G1 X109.200 Y106.522 F7800.000
G1 X109.200 Y106.810 F600.000 E1.02025
G1 X109.200 Y106.810 F7800.000
G1 X109.157 Y106.833 F600.000 E1.02077
G1 X109.200 Y106.810 F7800.000
G1 X109.243 Y106.833 F600.000 E1.02129
G1 F1800.000 E0.02129
G92 E0
G1 X105.088 Y105.178 F7800.000
G1 F1800.000 E1.00000
G1 X103.912 Y105.178 F600.000 E1.00592
G1 X103.912 Y104.868 E1.00748
G1 X105.088 Y104.868 E1.01340
G1 F1800.000 E0.01340
G92 E0
G1 X102.323 Y103.629 F7800.000
G1 F1800.000 E1.00000
G1 X101.094 Y103.629 F600.000 E1.00597
G1 F1800.000 E0.00597
G92 E0
G1 X108.906 Y103.629 F7800.000
G1 F1800.000 E1.00000
G1 X106.677 Y103.629 F600.000 E1.01084
G1 F1800.000 E0.01084
G92 E0
G1 Z0.300 F7800.000
G1 X105.554 Y104.346
G1 F1800.000 E1.00000
G1 X105.554 Y105.654 F600.000 E1.01398
G1 X103.446 Y105.654 E1.03652
G1 X103.446 Y104.346 E1.05050
G1 X105.455 Y104.346 E1.07198
G1 F1800.000 E0.07198
G92 E0
G1 X106.212 Y106.312 F7800.000
G1 F1800.000 E1.00000
G1 X102.788 Y106.312 F600.000 E1.03662
G1 X102.788 Y103.688 E1.06469
G1 X106.212 Y103.688 E1.10131
G1 X106.212 Y106.213 E1.12833
G1 X106.871 Y106.971 F7800.000
G1 X102.129 Y106.971 F600.000 E1.17903
G1 X102.129 Y104.171 E1.20898
G1 X100.629 Y104.171 E1.22502
G1 X100.629 Y103.029 E1.23723
G1 X109.371 Y103.029 E1.33072
G1 X109.371 Y106.971 E1.37287
G1 X109.029 Y106.971 E1.37652
G1 X109.029 Y104.171 E1.40647
G1 X106.871 Y104.171 E1.42956
G1 X106.871 Y106.872 E1.45844
G1 X106.300 Y106.641 F7800.000
G1 F1800.000 E0.45844
G92 E0
G1 X109.200 Y106.522 F7800.000
G1 F1800.000 E1.00000
G1 X109.157 Y104.967 F600.000 E1.01664
G1 X109.200 Y104.990 F7800.000
G1 X109.243 Y104.967 F600.000 E1.01716
G1 X109.200 Y106.522 F7800.000
G1 X109.200 Y106.810 F600.000 E1.02025
G1 X109.200 Y106.810 F7800.000
G1 X109.157 Y106.833 F600.000 E1.02077
G1 X109.200 Y106.810 F7800.000
G1 X109.243 Y106.833 F600.000 E1.02129
G1 F1800.000 E0.02129
G92 E0
G1 X103.926 Y105.188 F7800.000
G1 F1800.000 E1.00000
G1 X103.926 Y104.812 F600.000 E1.00185
G1 X104.228 Y104.812 E1.00333
G1 X104.228 Y105.188 E1.00518
G1 X104.530 Y105.188 E1.00666
G1 X104.530 Y104.812 E1.00851
G1 X104.832 Y104.812 E1.01000
G1 X104.832 Y105.188 E1.01185
G1 F1800.000 E0.01185
G92 E0
G1 X102.113 Y103.494 F7800.000
G1 F1800.000 E1.00000
G1 X102.113 Y103.706 F600.000 E1.00103
G1 X101.811 Y103.706 F7800.000
G1 X101.811 Y103.494 F600.000 E1.00205
G1 X101.509 Y103.494 F7800.000
G1 X101.509 Y103.706 F600.000 E1.00308
G1 X101.206 Y103.706 F7800.000
G1 X101.206 Y103.494 F600.000 E1.00411
G1 F1800.000 E0.00411
G92 E0
G1 X106.947 Y103.706 F7800.000
G1 F1800.000 E1.00000
G1 X106.947 Y103.494 F600.000 E1.00103
G1 X107.249 Y103.494 F7800.000
G1 X107.249 Y103.706 F600.000 E1.00205
G1 X107.551 Y103.706 F7800.000
G1 X107.551 Y103.494 F600.000 E1.00308
G1 X107.853 Y103.494 F7800.000
G1 X107.853 Y103.706 F600.000 E1.00411
G1 X108.155 Y103.706 F7800.000
G1 X108.155 Y103.494 F600.000 E1.00513
G1 X108.457 Y103.494 F7800.000
G1 X108.457 Y103.706 F600.000 E1.00616
G1 X108.760 Y103.706 F7800.000
G1 X108.760 Y103.494 F600.000 E1.00719
G1 F1800.000 E0.00719
G92 E0
G1 Z0.400 F7800.000
G1 X105.554 Y104.346
G1 F1800.000 E1.00000
G1 X105.554 Y105.654 F600.000 E1.01398
G1 X103.446 Y105.654 E1.03652
G1 X103.446 Y104.346 E1.05050
G1 X105.455 Y104.346 E1.07198
G1 F1800.000 E0.07198
G92 E0
G1 X102.788 Y103.688 F7800.000
G1 F1800.000 E1.00000
G1 X106.212 Y103.688 F600.000 E1.03662
G1 X106.212 Y106.312 E1.06469
G1 X102.788 Y106.312 E1.10131
G1 X102.788 Y103.787 E1.12833
G1 X102.129 Y104.171 F7800.000
G1 X100.629 Y104.171 F600.000 E1.14437
G1 X100.629 Y103.029 E1.15658
G1 X109.371 Y103.029 E1.25006
G1 X109.371 Y106.971 E1.29222
G1 X109.029 Y106.971 E1.29587
G1 X109.029 Y104.171 E1.32582
G1 X106.871 Y104.171 E1.34890
G1 X106.871 Y106.971 E1.37885
G1 X102.129 Y106.971 E1.42956
G1 X102.129 Y104.270 E1.45844
G1 X102.129 Y103.512 F7800.000
G1 F1800.000 E0.45844
G92 E0
G1 X109.200 Y106.522 F7800.000
G1 F1800.000 E1.00000
G1 X109.157 Y104.967 F600.000 E1.01664
G1 X109.200 Y104.990 F7800.000
G1 X109.243 Y104.967 F600.000 E1.01716
G1 X109.200 Y106.522 F7800.000
G1 X109.200 Y106.810 F600.000 E1.02025
G1 X109.200 Y106.810 F7800.000
G1 X109.157 Y106.833 F600.000 E1.02077
G1 X109.200 Y106.810 F7800.000
G1 X109.243 Y106.833 F600.000 E1.02129
G1 F1800.000 E0.02129
G92 E0
G1 X105.088 Y105.178 F7800.000
G1 F1800.000 E1.00000
G1 X103.912 Y105.178 F600.000 E1.00572
G1 X103.912 Y104.868 F7800.000
G1 X105.088 Y104.868 F600.000 E1.01145
G1 F1800.000 E0.01145
G92 E0
G1 X102.323 Y103.629 F7800.000
G1 F1800.000 E1.00000
G1 X101.094 Y103.629 F600.000 E1.00597
G1 F1800.000 E0.00597
G92 E0
G1 X108.906 Y103.629 F7800.000
G1 F1800.000 E1.00000
G1 X106.677 Y103.629 F600.000 E1.01084
G1 F1800.000 E0.01084
G92 E0
G1 Z0.500 F7800.000
G1 X105.554 Y104.346
G1 F1800.000 E1.00000
G1 X105.554 Y105.654 F600.000 E1.01398
G1 X103.446 Y105.654 E1.03652
G1 X103.446 Y104.346 E1.05050
G1 X105.455 Y104.346 E1.07198
G1 F1800.000 E0.07198
G92 E0
G1 X106.212 Y106.312 F7800.000
G1 F1800.000 E1.00000
G1 X102.788 Y106.312 F600.000 E1.03662
G1 X102.788 Y103.688 E1.06469
G1 X106.212 Y103.688 E1.10131
G1 X106.212 Y106.213 E1.12833
G1 X106.871 Y106.971 F7800.000
G1 X102.129 Y106.971 F600.000 E1.17903
G1 X102.129 Y104.171 E1.20898
G1 X100.629 Y104.171 E1.22502
G1 X100.629 Y103.029 E1.23723
G1 X109.371 Y103.029 E1.33072
G1 X109.371 Y106.971 E1.37287
G1 X109.029 Y106.971 E1.37652
G1 X109.029 Y104.171 E1.40647
G1 X106.871 Y104.171 E1.42956
G1 X106.871 Y106.872 E1.45844
G1 X106.300 Y106.641 F7800.000
G1 F1800.000 E0.45844
G92 E0
G1 X109.200 Y106.522 F7800.000
G1 F1800.000 E1.00000
G1 X109.157 Y104.967 F600.000 E1.01664
G1 X109.200 Y104.990 F7800.000
G1 X109.243 Y104.967 F600.000 E1.01716
G1 X109.200 Y106.522 F7800.000
G1 X109.200 Y106.810 F600.000 E1.02025
G1 X109.200 Y106.810 F7800.000
G1 X109.157 Y106.833 F600.000 E1.02077
G1 X109.200 Y106.810 F7800.000
G1 X109.243 Y106.833 F600.000 E1.02129
G1 F1800.000 E0.02129
G92 E0
G1 X103.926 Y105.188 F7800.000
G1 F1800.000 E1.00000
G1 X103.926 Y104.812 F600.000 E1.00183
G1 X104.228 Y104.812 F7800.000
G1 X104.228 Y105.188 F600.000 E1.00367
G1 X104.530 Y105.188 F7800.000
G1 X104.530 Y104.812 F600.000 E1.00550
G1 X104.832 Y104.812 F7800.000
G1 X104.832 Y105.188 F600.000 E1.00733
G1 F1800.000 E0.00733
G92 E0
G1 X106.947 Y103.706 F7800.000
G1 F1800.000 E1.00000
G1 X106.947 Y103.494 F600.000 E1.00103
G1 X107.249 Y103.494 F7800.000
G1 X107.249 Y103.706 F600.000 E1.00205
G1 X107.551 Y103.706 F7800.000
G1 X107.551 Y103.494 F600.000 E1.00308
G1 X107.853 Y103.494 F7800.000
G1 X107.853 Y103.706 F600.000 E1.00411
G1 X108.155 Y103.706 F7800.000
G1 X108.155 Y103.494 F600.000 E1.00513
G1 X108.457 Y103.494 F7800.000
G1 X108.457 Y103.706 F600.000 E1.00616
G1 X108.760 Y103.706 F7800.000
G1 X108.760 Y103.494 F600.000 E1.00719
G1 F1800.000 E0.00719
G92 E0
G1 X102.113 Y103.494 F7800.000
G1 F1800.000 E1.00000
G1 X102.113 Y103.706 F600.000 E1.00103
G1 X101.811 Y103.706 F7800.000
G1 X101.811 Y103.494 F600.000 E1.00205
G1 X101.509 Y103.494 F7800.000
G1 X101.509 Y103.706 F600.000 E1.00308
G1 X101.206 Y103.706 F7800.000
G1 X101.206 Y103.494 F600.000 E1.00411
G1 F1800.000 E0.00411
G92 E0
G1 Z0.600 F7800.000
G1 X103.446 Y104.346
G1 F1800.000 E1.00000
G1 X105.554 Y104.346 F600.000 E1.02254
G1 X105.554 Y105.654 E1.03652
G1 X103.446 Y105.654 E1.05906
G1 X103.446 Y104.445 E1.07198
G1 X102.788 Y106.312 F7800.000
G1 X102.788 Y103.688 F600.000 E1.10005
G1 X106.212 Y103.688 E1.13667
G1 X106.212 Y106.312 E1.16474
G1 X102.887 Y106.312 E1.20031
G1 X102.129 Y106.971 F7800.000
G1 X102.129 Y104.171 F600.000 E1.23025
G1 X100.629 Y104.171 E1.24629
G1 X100.629 Y103.029 E1.25850
G1 X109.371 Y103.029 E1.35199
G1 X109.371 Y106.971 E1.39414
G1 X109.029 Y106.971 E1.39780
G1 X109.029 Y104.171 E1.42774
G1 X106.871 Y104.171 E1.45083
G1 X106.871 Y106.971 E1.48077
G1 X102.228 Y106.971 E1.53043
G1 X102.459 Y106.400 F7800.000
G1 F1800.000 E0.53043
G92 E0
G1 X109.200 Y106.522 F7800.000
G1 F1800.000 E1.00000
G1 X109.157 Y104.967 F600.000 E1.01664
G1 X109.200 Y104.990 F7800.000
