; generated by Slic3r 0.9.10b on 2013-07-11 at 20:18:22

; layer_height = 0.1
; perimeters = 3
; top_solid_layers = 3
; bottom_solid_layers = 3
; fill_density = 0.9
; perimeter_speed = 30
; infill_speed = 60
; travel_speed = 130
; nozzle_diameter = 0.4
; filament_diameter = 2.8
; extrusion_multiplier = 1
; perimeters extrusion width = 0.68mm
; infill extrusion width = 1.28mm
; solid infill extrusion width = 0.68mm
; top infill extrusion width = 0.68mm
; first layer extrusion width = 0.20mm

G21 ; set units to millimeters
M107
M104 S220 ; set temperature
G28 ; home all axes
G1 Z20 F2000 ; down some millimeters
M109 S220 ; wait for temperature to be reached
G90 ; use absolute coordinates
G92 E0
M82 ; use absolute distances for extrusion
G1 F1800.000 E-1.00000
G92 E0
G1 Z0.100 F7800.000
G1 X96.740 Y98.440
G1 F1800.000 E1.00000
G1 X97.760 Y97.610 F540.000 E1.00519
G1 X98.930 Y96.980 E1.01043
G1 X100.190 Y96.600 E1.01562
G1 X101.500 Y96.470 E1.02082
G1 X108.500 Y96.470 E1.04843
G1 X109.810 Y96.600 E1.05362
G1 X111.070 Y96.980 E1.05882
G1 X112.240 Y97.610 E1.06406
G1 X113.260 Y98.440 E1.06925
G1 X114.090 Y99.460 E1.07444
G1 X114.720 Y100.630 E1.07968
G1 X115.100 Y101.890 E1.08487
G1 X115.230 Y103.200 E1.09006
G1 X115.230 Y104.500 E1.09519
G1 X115.100 Y105.790 E1.10031
G1 X114.740 Y107.030 E1.10540
G1 X114.140 Y108.180 E1.11052
G1 X112.640 Y110.480 E1.12135
G1 X111.800 Y111.520 E1.12662
G1 X110.780 Y112.370 E1.13186
G1 X109.600 Y113.010 E1.13716
G1 X108.330 Y113.400 E1.14240
G1 X107.000 Y113.530 E1.14767
G1 X103.000 Y113.530 E1.16345
G1 X101.670 Y113.400 E1.16872
G1 X100.400 Y113.010 E1.17397
G1 X99.220 Y112.370 E1.17926
G1 X98.200 Y111.520 E1.18450
G1 X97.360 Y110.480 E1.18977
G1 X95.860 Y108.180 E1.20061
G1 X95.260 Y107.030 E1.20572
G1 X94.900 Y105.790 E1.21082
G1 X94.770 Y104.500 E1.21593
G1 X94.770 Y103.200 E1.22106
G1 X94.900 Y101.890 E1.22625
G1 X95.280 Y100.630 E1.23145
G1 X95.910 Y99.460 E1.23669
G1 X96.717 Y98.468 E1.24173
G1 X96.910 Y98.610 F7800.000
G1 X97.900 Y97.810 F540.000 E1.24675
G1 X99.020 Y97.210 E1.25177
G1 X100.230 Y96.840 E1.25676
G1 X101.500 Y96.710 E1.26180
G1 X108.500 Y96.710 E1.28941
G1 X109.770 Y96.840 E1.29445
G1 X110.980 Y97.210 E1.29944
G1 X112.100 Y97.810 E1.30445
G1 X113.090 Y98.610 E1.30947
G1 X113.890 Y99.600 E1.31449
G1 X114.490 Y100.720 E1.31951
G1 X114.860 Y101.930 E1.32450
G1 X114.990 Y103.200 E1.32954
G1 X114.990 Y104.500 E1.33466
G1 X114.870 Y105.740 E1.33958
G1 X114.510 Y106.940 E1.34452
G1 X113.930 Y108.040 E1.34943
G1 X112.430 Y110.340 E1.36026
G1 X111.630 Y111.350 E1.36534
G1 X110.640 Y112.170 E1.37041
G1 X109.510 Y112.780 E1.37548
G1 X108.280 Y113.160 E1.38056
G1 X107.000 Y113.290 E1.38564
G1 X103.000 Y113.290 E1.40142
G1 X101.720 Y113.160 E1.40649
G1 X100.490 Y112.780 E1.41157
G1 X99.360 Y112.170 E1.41664
G1 X98.370 Y111.350 E1.42171
G1 X97.570 Y110.340 E1.42679
G1 X96.070 Y108.040 E1.43762
G1 X95.490 Y106.940 E1.44253
G1 X95.130 Y105.740 E1.44747
G1 X95.010 Y104.500 E1.45239
G1 X95.010 Y103.200 E1.45752
G1 X95.140 Y101.930 E1.46255
G1 X95.510 Y100.720 E1.46754
G1 X96.110 Y99.600 E1.47256
G1 X96.887 Y98.638 E1.47743
G1 X97.090 Y98.790 F7800.000
G1 X98.030 Y98.010 F540.000 E1.48225
G1 X99.110 Y97.430 E1.48709
G1 X100.280 Y97.080 E1.49191
G1 X101.500 Y96.960 E1.49674
G1 X108.500 Y96.960 E1.52436
G1 X109.720 Y97.080 E1.52919
G1 X110.890 Y97.430 E1.53401
G1 X111.970 Y98.010 E1.53885
G1 X112.910 Y98.790 E1.54367
G1 X113.690 Y99.730 E1.54849
G1 X114.270 Y100.810 E1.55332
G1 X114.620 Y101.980 E1.55814
G1 X114.740 Y103.200 E1.56298
G1 X114.740 Y104.500 E1.56811
G1 X114.480 Y106.280 E1.57520
G1 X113.730 Y107.910 E1.58228
G1 X112.230 Y110.210 E1.59311
G1 X111.450 Y111.170 E1.59799
G1 X110.500 Y111.970 E1.60289
G1 X109.410 Y112.560 E1.60778
G1 X108.230 Y112.920 E1.61265
G1 X107.000 Y113.040 E1.61753
G1 X103.000 Y113.040 E1.63331
G1 X101.770 Y112.920 E1.63818
G1 X100.590 Y112.560 E1.64305
G1 X99.500 Y111.970 E1.64794
G1 X98.550 Y111.170 E1.65284
G1 X97.770 Y110.210 E1.65772
G1 X96.270 Y107.910 E1.66855
G1 X95.520 Y106.280 E1.67563
G1 X95.260 Y104.500 E1.68273
G1 X95.260 Y103.200 E1.68785
G1 X95.380 Y101.980 E1.69269
G1 X95.730 Y100.810 E1.69751
G1 X96.310 Y99.730 E1.70235
G1 X97.067 Y98.818 E1.70702
G1 F1800.000 E0.70702
G92 E0
G1 X103.607 Y103.807 F7800.000
G1 F1800.000 E1.00000
G1 X106.393 Y103.807 F540.000 E1.01099
G1 X106.393 Y106.193 E1.02040
G1 X103.607 Y106.193 E1.03139
G1 X103.607 Y103.844 E1.04065
G1 X101.864 Y104.136 F7800.000
G1 X101.864 Y103.564 F540.000 E1.04291
G1 X108.136 Y103.564 E1.06765
G1 X108.136 Y104.136 E1.06990
G1 X106.636 Y104.136 E1.07582
G1 X106.636 Y106.436 E1.08489
G1 X103.364 Y106.436 E1.09780
G1 X103.364 Y104.136 E1.10687
G1 X101.901 Y104.136 E1.11265
G1 X101.621 Y104.379 F7800.000
G1 X101.621 Y103.321 F540.000 E1.11682
G1 X108.379 Y103.321 E1.14347
G1 X108.379 Y104.379 E1.14764
G1 X106.879 Y104.379 E1.15356
G1 X106.879 Y106.679 E1.16264
G1 X103.121 Y106.679 E1.17746
G1 X103.121 Y104.379 E1.18653
G1 X101.658 Y104.379 E1.19231
G1 X101.743 Y104.168 F7800.000
G1 F1800.000 E0.19231
G92 E0
G1 X103.975 Y106.017 F7800.000
G1 F1800.000 E1.00000
G1 X103.975 Y103.983 F1080.000 E1.00817
G1 X104.222 Y103.983 E1.00917
G1 X104.222 Y106.017 E1.01734
G1 X104.470 Y106.017 E1.01834
G1 X104.470 Y103.983 E1.02651
G1 X104.717 Y103.983 E1.02750
G1 X104.717 Y106.017 E1.03568
G1 X104.965 Y106.017 E1.03667
G1 X104.965 Y103.983 E1.04484
G1 X105.212 Y103.983 E1.04584
G1 X105.212 Y106.017 E1.05401
G1 X105.460 Y106.017 E1.05501
G1 X105.460 Y103.983 E1.06318
G1 X105.707 Y103.983 E1.06417
G1 X105.707 Y106.017 E1.07235
G1 X105.955 Y106.017 E1.07334
G1 X105.955 Y103.983 E1.08151
G1 X106.202 Y103.983 E1.08251
G1 X106.202 Y106.017 E1.09068
G1 F1800.000 E0.09068
G92 E0
G1 X102.160 Y103.864 F7800.000
G1 F1800.000 E1.00000
G1 X102.160 Y103.836 F360.000 E1.00015
G1 X102.490 Y103.836 E1.00192
G1 X102.490 Y103.864 E1.00207
G1 X102.820 Y103.864 E1.00384
G1 X102.820 Y103.836 E1.00400
G1 X103.150 Y103.836 E1.00576
G1 X103.150 Y103.864 E1.00592
G1 F1800.000 E0.00592
G92 E0
G1 X106.780 Y103.864 F7800.000
G1 F1800.000 E1.00000
G1 X106.780 Y103.836 F360.000 E1.00015
G1 X107.110 Y103.836 F7800.000
G1 X107.110 Y103.864 F360.000 E1.00030
G1 X107.440 Y103.864 F7800.000
G1 X107.440 Y103.836 F360.000 E1.00045
G1 X107.770 Y103.836 F7800.000
G1 X107.770 Y103.864 F360.000 E1.00060
M106 S255
M104 S215 ; set temperature
G1 F1800.000 E0.00060
G92 E0
G1 Z0.200 F7800.000
G1 X103.988 Y105.812
G1 F1800.000 E1.00000
G1 X103.988 Y104.188 F600.000 E1.01737
G1 X106.012 Y104.188 E1.03902
G1 X106.012 Y105.812 E1.05640
G1 X104.087 Y105.812 E1.07699
G1 X103.329 Y106.471 F7800.000
G1 X103.329 Y104.171 F600.000 E1.10159
G1 X101.829 Y104.171 E1.11763
G1 X101.829 Y103.529 E1.12449
G1 X108.171 Y103.529 E1.19231
G1 X108.171 Y104.171 E1.19917
G1 X106.671 Y104.171 E1.21521
G1 X106.671 Y106.471 E1.23981
G1 X103.428 Y106.471 E1.27449
G1 X103.659 Y105.900 F7800.000
G1 F1800.000 E0.27449
G92 E0
G1 X107.750 Y103.850 F7800.000
G1 F1800.000 E1.00000
G1 X108.050 Y103.639 F600.000 E1.00392
G1 X107.848 Y103.850 F7800.000
G1 X108.024 Y104.013 F600.000 E1.00648
G1 X108.024 Y104.013 F7800.000
G1 X108.050 Y104.061 F600.000 E1.00707
G1 X107.750 Y103.850 F7800.000
G1 X107.652 Y103.850 F600.000 E1.00811
G1 X107.476 Y103.688 F7800.000
G1 X107.450 Y103.639 F600.000 E1.00870
G1 X107.476 Y103.688 F7800.000
G1 X107.652 Y103.850 F600.000 E1.01126
G1 X107.450 Y104.061 E1.01438
G1 F1800.000 E0.01438
G92 E0
G1 X102.550 Y104.061 F7800.000
G1 F1800.000 E1.00000
G1 X102.524 Y104.013 F600.000 E1.00058
G1 X102.524 Y104.013 F7800.000
G1 X102.348 Y103.850 F600.000 E1.00315
G1 X102.250 Y103.850 F7800.000
G1 X102.152 Y103.850 F600.000 E1.00419
G1 X102.250 Y103.850 F7800.000
G1 X102.550 Y103.639 F600.000 E1.00811
G1 X101.976 Y103.688 F7800.000
G1 X101.950 Y103.639 F600.000 E1.00870
G1 X101.976 Y103.688 F7800.000
G1 X102.152 Y103.850 F600.000 E1.01126
G1 X101.950 Y104.061 E1.01438
G1 F1800.000 E0.01438
G92 E0
G1 Z0.300 F7800.000
G1 X103.988 Y105.812
G1 F1800.000 E1.00000
G1 X103.988 Y104.188 F600.000 E1.01737
G1 X106.012 Y104.188 E1.03902
G1 X106.012 Y105.812 E1.05640
G1 X104.087 Y105.812 E1.07699
G1 X103.329 Y106.471 F7800.000
G1 X103.329 Y104.171 F600.000 E1.10159
G1 X101.829 Y104.171 E1.11763
G1 X101.829 Y103.529 E1.12449
G1 X108.171 Y103.529 E1.19231
G1 X108.171 Y104.171 E1.19917
G1 X106.671 Y104.171 E1.21521
G1 X106.671 Y106.471 E1.23981
G1 X103.428 Y106.471 E1.27449
G1 X103.659 Y105.900 F7800.000
G1 F1800.000 E0.27449
G92 E0
G1 X107.750 Y103.850 F7800.000
G1 F1800.000 E1.00000
G1 X108.050 Y103.639 F600.000 E1.00392
G1 X107.848 Y103.850 F7800.000
G1 X108.024 Y104.013 F600.000 E1.00648
G1 X108.024 Y104.013 F7800.000
G1 X108.050 Y104.061 F600.000 E1.00707
G1 X107.750 Y103.850 F7800.000
G1 X107.652 Y103.850 F600.000 E1.00811
G1 X107.476 Y103.688 F7800.000
G1 X107.450 Y103.639 F600.000 E1.00870
G1 X107.476 Y103.688 F7800.000
G1 X107.652 Y103.850 F600.000 E1.01126
G1 X107.450 Y104.061 E1.01438
G1 F1800.000 E0.01438
G92 E0
G1 X102.550 Y104.061 F7800.000
G1 F1800.000 E1.00000
G1 X102.524 Y104.013 F600.000 E1.00058
G1 X102.524 Y104.013 F7800.000
G1 X102.348 Y103.850 F600.000 E1.00315
G1 X102.250 Y103.850 F7800.000
G1 X102.152 Y103.850 F600.000 E1.00419
G1 X102.250 Y103.850 F7800.000
G1 X102.550 Y103.639 F600.000 E1.00811
G1 X101.976 Y103.688 F7800.000
G1 X101.950 Y103.639 F600.000 E1.00870
G1 X101.976 Y103.688 F7800.000
G1 X102.152 Y103.850 F600.000 E1.01126
G1 X101.950 Y104.061 E1.01438
G1 F1800.000 E0.01438
G92 E0
G1 X104.800 Y105.143 F7800.000
G1 F1800.000 E1.00000
G1 X104.800 Y104.857 F600.000 E1.00307
G1 F1800.000 E0.00307
G92 E0
G1 Z0.400 F7800.000
G1 X103.988 Y104.188
G1 F1800.000 E1.00000
G1 X106.012 Y104.188 F600.000 E1.02165
G1 X106.012 Y105.812 E1.03902
G1 X103.988 Y105.812 E1.06067
G1 X103.988 Y104.287 E1.07699
G1 X103.329 Y104.171 F7800.000
G1 X101.829 Y104.171 F600.000 E1.09303
G1 X101.829 Y103.529 E1.09989
G1 X108.171 Y103.529 E1.16771
G1 X108.171 Y104.171 E1.17457
G1 X106.671 Y104.171 E1.19062
G1 X106.671 Y106.471 E1.21521
G1 X103.329 Y106.471 E1.25095
G1 X103.329 Y104.270 E1.27449
G1 X103.329 Y103.512 F7800.000
G1 F1800.000 E0.27449
G92 E0
G1 X107.750 Y103.850 F7800.000
G1 F1800.000 E1.00000
G1 X108.050 Y103.639 F600.000 E1.00392
G1 X107.848 Y103.850 F7800.000
G1 X108.024 Y104.013 F600.000 E1.00648
G1 X108.024 Y104.013 F7800.000
G1 X108.050 Y104.061 F600.000 E1.00707
G1 X107.750 Y103.850 F7800.000
G1 X107.652 Y103.850 F600.000 E1.00811
G1 X107.476 Y103.688 F7800.000
G1 X107.450 Y103.639 F600.000 E1.00870
G1 X107.476 Y103.688 F7800.000
G1 X107.652 Y103.850 F600.000 E1.01126
G1 X107.450 Y104.061 E1.01438
G1 F1800.000 E0.01438
G92 E0
G1 X102.550 Y104.061 F7800.000
G1 F1800.000 E1.00000
G1 X102.524 Y104.013 F600.000 E1.00058
G1 X102.524 Y104.013 F7800.000
G1 X102.348 Y103.850 F600.000 E1.00315
G1 X102.250 Y103.850 F7800.000
G1 X102.152 Y103.850 F600.000 E1.00419
G1 X102.250 Y103.850 F7800.000
G1 X102.550 Y103.639 F600.000 E1.00811
G1 X101.976 Y103.688 F7800.000
G1 X101.950 Y103.639 F600.000 E1.00870
G1 X101.976 Y103.688 F7800.000
G1 X102.152 Y103.850 F600.000 E1.01126
G1 X101.950 Y104.061 E1.01438
G1 F1800.000 E0.01438
G92 E0
G1 Z0.500 F7800.000
G1 X103.988 Y105.812
G1 F1800.000 E1.00000
G1 X103.988 Y104.188 F600.000 E1.01737
G1 X106.012 Y104.188 E1.03902
G1 X106.012 Y105.812 E1.05640
G1 X104.087 Y105.812 E1.07699
G1 X103.329 Y106.471 F7800.000
G1 X103.329 Y104.171 F600.000 E1.10159
G1 X101.829 Y104.171 E1.11763
G1 X101.829 Y103.529 E1.12449
G1 X108.171 Y103.529 E1.19231
G1 X108.171 Y104.171 E1.19917
G1 X106.671 Y104.171 E1.21521
G1 X106.671 Y106.471 E1.23981
G1 X103.428 Y106.471 E1.27449
G1 X103.659 Y105.900 F7800.000
G1 F1800.000 E0.27449
G92 E0
G1 X107.750 Y103.850 F7800.000
G1 F1800.000 E1.00000
G1 X108.050 Y103.639 F600.000 E1.00392
G1 X107.848 Y103.850 F7800.000
G1 X108.024 Y104.013 F600.000 E1.00648
G1 X108.024 Y104.013 F7800.000
G1 X108.050 Y104.061 F600.000 E1.00707
G1 X107.750 Y103.850 F7800.000
G1 X107.652 Y103.850 F600.000 E1.00811
G1 X107.476 Y103.688 F7800.000
G1 X107.450 Y103.639 F600.000 E1.00870
G1 X107.476 Y103.688 F7800.000
G1 X107.652 Y103.850 F600.000 E1.01126
G1 X107.450 Y104.061 E1.01438
G1 F1800.000 E0.01438
G92 E0
G1 X102.550 Y104.061 F7800.000
G1 F1800.000 E1.00000
G1 X102.524 Y104.013 F600.000 E1.00058
G1 X102.524 Y104.013 F7800.000
G1 X102.348 Y103.850 F600.000 E1.00315
G1 X102.250 Y103.850 F7800.000
G1 X102.152 Y103.850 F600.000 E1.00419
G1 X102.250 Y103.850 F7800.000
G1 X102.550 Y103.639 F600.000 E1.00811
G1 X101.976 Y103.688 F7800.000
G1 X101.950 Y103.639 F600.000 E1.00870
G1 X101.976 Y103.688 F7800.000
G1 X102.152 Y103.850 F600.000 E1.01126
G1 X101.950 Y104.061 E1.01438
G1 F1800.000 E0.01438
G92 E0
G1 X104.800 Y105.143 F7800.000
G1 F1800.000 E1.00000
G1 X104.800 Y104.857 F600.000 E1.00306
G1 F1800.000 E0.00306
G92 E0
G1 Z0.600 F7800.000
G1 X103.988 Y105.812
G1 F1800.000 E1.00000
G1 X103.988 Y104.188 F600.000 E1.01737
G1 X106.012 Y104.188 E1.03902
G1 X106.012 Y105.812 E1.05640
G1 X104.087 Y105.812 E1.07699
G1 X103.329 Y106.471 F7800.000
G1 X103.329 Y104.171 F600.000 E1.10159
G1 X101.829 Y104.171 E1.11763
G1 X101.829 Y103.529 E1.12449
G1 X108.171 Y103.529 E1.19231
G1 X108.171 Y104.171 E1.19917
G1 X106.671 Y104.171 E1.21521
G1 X106.671 Y106.471 E1.23981
G1 X103.428 Y106.471 E1.27449
G1 X103.659 Y105.900 F7800.000
G1 F1800.000 E0.27449
G92 E0
G1 X107.750 Y103.850 F7800.000
G1 F1800.000 E1.00000
G1 X108.050 Y103.639 F600.000 E1.00392
G1 X107.848 Y103.850 F7800.000
G1 X108.024 Y104.013 F600.000 E1.00648
G1 X108.024 Y104.013 F7800.000
G1 X108.050 Y104.061 F600.000 E1.00707
G1 X107.750 Y103.850 F7800.000
G1 X107.652 Y103.850 F600.000 E1.00811
G1 X107.476 Y103.688 F7800.000
G1 X107.450 Y103.639 F600.000 E1.00870
G1 X107.476 Y103.688 F7800.000
G1 X107.652 Y103.850 F600.000 E1.01126
G1 X107.450 Y104.061 E1.01438
G1 F1800.000 E0.01438
G92 E0
G1 X102.550 Y104.061 F7800.000
G1 F1800.000 E1.00000
G1 X102.524 Y104.013 F600.000 E1.00058
G1 X102.524 Y104.013 F7800.000
G1 X102.348 Y103.850 F600.000 E1.00315
G1 X102.250 Y103.850 F7800.000
G1 X102.152 Y103.850 F600.000 E1.00419
G1 X102.250 Y103.850 F7800.000
G1 X102.550 Y103.639 F600.000 E1.00811
G1 X101.976 Y103.688 F7800.000
G1 X101.950 Y103.639 F600.000 E1.00870
G1 X101.976 Y103.688 F7800.000
G1 X102.152 Y103.850 F600.000 E1.01126
G1 X101.950 Y104.061 E1.01438
G1 F1800.000 E0.01438
G92 E0
G1 Z0.700 F7800.000
G1 X106.012 Y105.812
G1 F1800.000 E1.00000
G1 X103.988 Y105.812 F600.000 E1.02165
G1 X103.988 Y104.188 E1.03902
G1 X106.012 Y104.188 E1.06067
G1 X106.012 Y105.713 E1.07699
G1 X106.671 Y106.471 F7800.000
G1 X103.329 Y106.471 F600.000 E1.11273
G1 X103.329 Y104.171 E1.13732
G1 X101.829 Y104.171 E1.15337
G1 X101.829 Y103.529 E1.16023
G1 X108.171 Y103.529 E1.22805
G1 X108.171 Y104.171 E1.23491
G1 X106.671 Y104.171 E1.25095
G1 X106.671 Y106.372 E1.27449
G1 X106.100 Y106.141 F7800.000
G1 F1800.000 E0.27449
G92 E0
G1 X107.750 Y103.850 F7800.000
G1 F1800.000 E1.00000
G1 X108.050 Y103.639 F600.000 E1.00392
G1 X107.848 Y103.850 F7800.000
G1 X108.024 Y104.013 F600.000 E1.00648
G1 X108.024 Y104.013 F7800.000
G1 X108.050 Y104.061 F600.000 E1.00707
G1 X107.750 Y103.850 F7800.000
G1 X107.652 Y103.850 F600.000 E1.00811
G1 X107.476 Y103.688 F7800.000
G1 X107.450 Y103.639 F600.000 E1.00870
G1 X107.476 Y103.688 F7800.000
G1 X107.652 Y103.850 F600.000 E1.01126
G1 X107.450 Y104.061 E1.01438
G1 F1800.000 E0.01438
G92 E0
G1 X102.550 Y104.061 F7800.000
G1 F1800.000 E1.00000
G1 X102.524 Y104.013 F600.000 E1.00058
G1 X102.524 Y104.013 F7800.000
G1 X102.348 Y103.850 F600.000 E1.00315
G1 X102.250 Y103.850 F7800.000
G1 X102.152 Y103.850 F600.000 E1.00419
G1 X102.250 Y103.850 F7800.000
G1 X102.550 Y103.639 F600.000 E1.00811
G1 X101.976 Y103.688 F7800.000
G1 X101.950 Y103.639 F600.000 E1.00870
G1 X101.976 Y103.688 F7800.000
G1 X102.152 Y103.850 F600.000 E1.01126
G1 X101.950 Y104.061 E1.01438
G1 F1800.000 E0.01438
G92 E0
G1 X104.800 Y105.143 F7800.000
G1 F1800.000 E1.00000
G1 X104.800 Y104.857 F600.000 E1.00306
G1 F1800.000 E0.00306
G92 E0
G1 Z0.800 F7800.000
G1 X106.012 Y104.188
G1 F1800.000 E1.00000
