; generated by Slic3r 0.9.10b on 2013-07-12 at 00:47:08

; layer_height = 0.1
; perimeters = 3
; top_solid_layers = 3
; bottom_solid_layers = 3
; fill_density = 0.9
; perimeter_speed = 30
; infill_speed = 60
; travel_speed = 130
; nozzle_diameter = 0.4
; filament_diameter = 2.8
; extrusion_multiplier = 1
; perimeters extrusion width = 0.68mm
; infill extrusion width = 1.28mm
; solid infill extrusion width = 0.68mm
; top infill extrusion width = 0.68mm
; first layer extrusion width = 0.20mm

G21 ; set units to millimeters
M107
M104 S220 ; set temperature
G28 ; home all axes
G1 Z20 F2000 ; down some millimeters
M109 S220 ; wait for temperature to be reached
G90 ; use absolute coordinates
G92 E0
M82 ; use absolute distances for extrusion
G1 F1800.000 E-1.00000
G92 E0
G1 Z0.100 F7800.000
G1 X94.490 Y97.940
G1 F1800.000 E1.00000
G1 X95.510 Y97.110 F540.000 E1.00519
G1 X96.680 Y96.480 E1.01043
G1 X97.940 Y96.100 E1.01562
G1 X99.250 Y95.970 E1.02082
G1 X110.750 Y95.970 E1.06618
G1 X112.060 Y96.100 E1.07138
G1 X113.320 Y96.480 E1.07657
G1 X114.490 Y97.110 E1.08181
G1 X115.510 Y97.940 E1.08700
G1 X116.340 Y98.960 E1.09219
G1 X116.970 Y100.130 E1.09743
G1 X117.350 Y101.390 E1.10262
G1 X117.480 Y102.700 E1.10782
G1 X117.480 Y107.300 E1.12596
G1 X117.350 Y108.610 E1.13116
G1 X116.970 Y109.870 E1.13635
G1 X116.340 Y111.040 E1.14159
G1 X115.510 Y112.060 E1.14678
G1 X114.490 Y112.890 E1.15197
G1 X113.320 Y113.520 E1.15721
G1 X112.060 Y113.900 E1.16240
G1 X110.750 Y114.030 E1.16759
G1 X100.750 Y114.030 E1.20705
G1 X99.310 Y113.870 E1.21276
G1 X97.940 Y113.410 E1.21846
G1 X96.690 Y112.670 E1.22419
G1 X95.640 Y111.670 E1.22991
G1 X94.820 Y110.480 E1.23562
G1 X93.320 Y107.680 E1.24815
G1 X92.720 Y106.140 E1.25467
G1 X92.520 Y104.500 E1.26119
G1 X92.520 Y102.700 E1.26829
G1 X92.650 Y101.390 E1.27348
G1 X93.030 Y100.130 E1.27867
G1 X93.660 Y98.960 E1.28391
G1 X94.467 Y97.968 E1.28896
G1 X94.660 Y98.110 F7800.000
G1 X95.650 Y97.310 F540.000 E1.29398
G1 X96.770 Y96.710 E1.29899
G1 X97.980 Y96.340 E1.30398
G1 X99.250 Y96.210 E1.30902
G1 X110.750 Y96.210 E1.35439
G1 X112.020 Y96.340 E1.35943
G1 X113.230 Y96.710 E1.36442
G1 X114.350 Y97.310 E1.36943
G1 X115.340 Y98.110 E1.37445
G1 X116.140 Y99.100 E1.37947
G1 X116.740 Y100.220 E1.38449
G1 X117.110 Y101.430 E1.38948
G1 X117.240 Y102.700 E1.39451
G1 X117.240 Y107.300 E1.41266
G1 X117.110 Y108.570 E1.41770
G1 X116.740 Y109.780 E1.42269
G1 X116.140 Y110.900 E1.42770
G1 X115.340 Y111.890 E1.43272
G1 X114.350 Y112.690 E1.43774
G1 X113.230 Y113.290 E1.44276
G1 X112.020 Y113.660 E1.44775
G1 X110.750 Y113.790 E1.45279
G1 X100.750 Y113.790 E1.49224
G1 X99.360 Y113.640 E1.49775
G1 X98.040 Y113.190 E1.50325
G1 X96.840 Y112.470 E1.50877
G1 X95.820 Y111.520 E1.51427
G1 X95.030 Y110.360 E1.51981
G1 X93.530 Y107.560 E1.53234
G1 X92.960 Y106.080 E1.53860
G1 X92.760 Y104.500 E1.54488
G1 X92.760 Y102.700 E1.55198
G1 X92.890 Y101.430 E1.55702
G1 X93.260 Y100.220 E1.56201
G1 X93.860 Y99.100 E1.56702
G1 X94.637 Y98.138 E1.57190
G1 X94.840 Y98.290 F7800.000
G1 X95.780 Y97.510 F540.000 E1.57672
G1 X96.860 Y96.930 E1.58156
G1 X98.030 Y96.580 E1.58637
G1 X99.250 Y96.460 E1.59121
G1 X110.750 Y96.460 E1.63658
G1 X111.970 Y96.580 E1.64142
G1 X113.140 Y96.930 E1.64623
G1 X114.220 Y97.510 E1.65107
G1 X115.160 Y98.290 E1.65589
G1 X115.940 Y99.230 E1.66071
G1 X116.520 Y100.310 E1.66554
G1 X116.870 Y101.480 E1.67036
G1 X116.990 Y102.700 E1.67520
G1 X116.990 Y107.300 E1.69335
G1 X116.870 Y108.520 E1.69818
G1 X116.520 Y109.690 E1.70300
G1 X115.940 Y110.770 E1.70784
G1 X115.160 Y111.710 E1.71265
G1 X114.220 Y112.490 E1.71747
G1 X113.140 Y113.070 E1.72231
G1 X111.970 Y113.420 E1.72713
G1 X110.750 Y113.540 E1.73196
G1 X100.750 Y113.540 E1.77141
G1 X99.410 Y113.400 E1.77673
G1 X98.140 Y112.970 E1.78202
G1 X96.980 Y112.280 E1.78734
G1 X96.010 Y111.360 E1.79262
G1 X95.250 Y110.250 E1.79793
G1 X93.750 Y107.450 E1.81046
G1 X93.190 Y106.020 E1.81652
G1 X93.010 Y104.500 E1.82255
G1 X93.010 Y102.700 E1.82966
G1 X93.130 Y101.480 E1.83449
G1 X93.480 Y100.310 E1.83931
G1 X94.060 Y99.230 E1.84415
G1 X94.817 Y98.318 E1.84882
G1 F1800.000 E0.84882
G92 E0
G1 X99.857 Y103.307 F7800.000
G1 F1800.000 E1.00000
G1 X110.143 Y103.307 F540.000 E1.04058
G1 X110.143 Y106.693 E1.05393
G1 X109.357 Y106.693 E1.05703
G1 X109.357 Y103.893 E1.06808
G1 X105.543 Y103.893 E1.08313
G1 X105.543 Y106.693 E1.09417
G1 X101.357 Y106.693 E1.11068
G1 X101.357 Y103.893 E1.12173
G1 X99.857 Y103.893 E1.12765
G1 X99.857 Y103.344 E1.12981
G1 F1800.000 E0.12981
G92 E0
G1 X101.114 Y106.936 F7800.000
G1 F1800.000 E1.00000
G1 X101.114 Y104.136 F540.000 E1.01105
G1 X99.614 Y104.136 E1.01696
G1 X99.614 Y103.064 E1.02119
G1 X110.386 Y103.064 E1.06368
G1 X110.386 Y106.936 E1.07896
G1 X109.114 Y106.936 E1.08397
G1 X109.114 Y104.136 E1.09502
G1 X105.786 Y104.136 E1.10815
G1 X105.786 Y106.936 E1.11920
G1 X101.151 Y106.936 E1.13748
G1 X100.871 Y107.179 F7800.000
G1 X100.871 Y104.379 F540.000 E1.14853
G1 X99.371 Y104.379 E1.15444
G1 X99.371 Y102.821 E1.16059
G1 X110.629 Y102.821 E1.20500
G1 X110.629 Y107.179 E1.22219
G1 X108.871 Y107.179 E1.22912
G1 X108.871 Y104.379 E1.24017
G1 X106.029 Y104.379 E1.25138
G1 X106.029 Y107.179 E1.26243
G1 X100.908 Y107.179 E1.28263
G1 X100.993 Y106.968 F7800.000
G1 F1800.000 E0.28263
G92 E0
G1 X109.599 Y106.517 F7800.000
G1 F1800.000 E1.00000
G1 X109.599 Y103.483 F1080.000 E1.01214
G1 X109.846 Y103.483 E1.01313
G1 X109.846 Y106.517 E1.02526
G1 F1800.000 E0.02526
G92 E0
G1 X109.008 Y103.621 F7800.000
G1 F1800.000 E1.00000
G1 X109.008 Y103.579 F360.000 E1.00022
G1 X108.683 Y103.579 F7800.000
G1 X108.683 Y103.621 F360.000 E1.00045
G1 X108.358 Y103.621 F7800.000
G1 X108.358 Y103.579 F360.000 E1.00067
G1 X108.032 Y103.579 F7800.000
G1 X108.032 Y103.621 F360.000 E1.00089
G1 X107.707 Y103.621 F7800.000
G1 X107.707 Y103.579 F360.000 E1.00111
G1 X107.382 Y103.579 F7800.000
G1 X107.382 Y103.621 F360.000 E1.00134
G1 X107.056 Y103.621 F7800.000
G1 X107.056 Y103.579 F360.000 E1.00156
G1 X106.731 Y103.579 F7800.000
G1 X106.731 Y103.621 F360.000 E1.00178
G1 X106.406 Y103.621 F7800.000
G1 X106.406 Y103.579 F360.000 E1.00201
G1 X106.081 Y103.579 F7800.000
G1 X106.081 Y103.621 F360.000 E1.00223
G1 X105.755 Y103.621 F7800.000
G1 X105.755 Y103.579 F360.000 E1.00245
G1 X105.164 Y103.483 F7800.000
G1 X105.164 Y106.517 F1080.000 E1.01442
G1 X104.918 Y106.517 F7800.000
G1 X104.918 Y103.483 F1080.000 E1.02638
G1 X104.671 Y103.483 F7800.000
G1 X104.671 Y106.517 F1080.000 E1.03835
G1 X104.425 Y106.517 F7800.000
G1 X104.425 Y103.483 F1080.000 E1.05032
G1 X104.178 Y103.483 F7800.000
G1 X104.178 Y106.517 F1080.000 E1.06229
G1 X103.932 Y106.517 F7800.000
G1 X103.932 Y103.483 F1080.000 E1.07425
G1 X103.685 Y103.483 F7800.000
G1 X103.685 Y106.517 F1080.000 E1.08622
G1 X103.439 Y106.517 F7800.000
G1 X103.439 Y103.483 F1080.000 E1.09819
G1 X103.193 Y103.483 F7800.000
G1 X103.193 Y106.517 F1080.000 E1.11015
G1 X102.946 Y106.517 F7800.000
G1 X102.946 Y103.483 F1080.000 E1.12212
G1 X102.700 Y103.483 F7800.000
G1 X102.700 Y106.517 F1080.000 E1.13409
G1 X102.453 Y106.517 F7800.000
G1 X102.453 Y103.483 F1080.000 E1.14606
G1 X102.207 Y103.483 F7800.000
G1 X102.207 Y106.517 F1080.000 E1.15802
G1 X101.961 Y106.517 F7800.000
G1 X101.961 Y103.483 F1080.000 E1.16999
G1 X101.714 Y103.483 F7800.000
G1 X101.714 Y106.517 F1080.000 E1.18196
G1 F1800.000 E0.18196
G92 E0
G1 X100.226 Y103.621 F7800.000
G1 F1800.000 E1.00000
G1 X100.226 Y103.579 F360.000 E1.00023
G1 X100.551 Y103.579 E1.00194
G1 X100.551 Y103.621 E1.00217
G1 X100.876 Y103.621 E1.00389
G1 X100.876 Y103.579 E1.00411
G1 X101.202 Y103.579 E1.00583
G1 X101.202 Y103.621 E1.00606
M106 S255
M104 S215 ; set temperature
G1 F1800.000 E0.00606
G92 E0
G1 Z0.200 F7800.000
G1 X102.396 Y104.346
G1 F1800.000 E1.00000
G1 X104.504 Y104.346 F600.000 E1.02254
G1 X104.504 Y105.654 E1.03652
G1 X102.396 Y105.654 E1.05906
G1 X102.396 Y104.445 E1.07198
G1 X101.738 Y106.312 F7800.000
G1 X101.738 Y103.688 F600.000 E1.10005
G1 X105.162 Y103.688 E1.13667
G1 X105.162 Y106.312 E1.16474
G1 X101.837 Y106.312 E1.20031
G1 X101.079 Y106.971 F7800.000
G1 X101.079 Y104.171 F600.000 E1.23025
G1 X99.579 Y104.171 E1.24629
G1 X99.579 Y103.029 E1.25850
G1 X110.421 Y103.029 E1.37445
G1 X110.421 Y106.971 E1.41660
G1 X109.079 Y106.971 E1.43095
G1 X109.079 Y104.171 E1.46090
G1 X105.821 Y104.171 E1.49575
G1 X105.821 Y106.971 E1.52569
G1 X101.178 Y106.971 E1.57534
G1 X101.409 Y106.400 F7800.000
G1 F1800.000 E0.57534
G92 E0
G1 X109.752 Y105.591 F7800.000
G1 F1800.000 E1.00000
G1 X109.748 Y104.146 F600.000 E1.01697
G1 X109.273 Y103.629 F7800.000
G1 X105.627 Y103.629 F600.000 E1.03470
G1 F1800.000 E0.03470
G92 E0
G1 X104.038 Y105.178 F7800.000
G1 F1800.000 E1.00000
G1 X102.862 Y105.178 F600.000 E1.00592
G1 X102.862 Y104.868 E1.00748
G1 X104.038 Y104.868 E1.01340
G1 F1800.000 E0.01340
G92 E0
G1 X101.273 Y103.629 F7800.000
G1 F1800.000 E1.00000
G1 X100.044 Y103.629 F600.000 E1.00597
G1 F1800.000 E0.00597
G92 E0
G1 Z0.300 F7800.000
G1 X102.396 Y104.346
G1 F1800.000 E1.00000
G1 X104.504 Y104.346 F600.000 E1.02254
G1 X104.504 Y105.654 E1.03652
G1 X102.396 Y105.654 E1.05906
G1 X102.396 Y104.445 E1.07198
G1 X101.738 Y106.312 F7800.000
G1 X101.738 Y103.688 F600.000 E1.10005
G1 X105.162 Y103.688 E1.13667
G1 X105.162 Y106.312 E1.16474
G1 X101.837 Y106.312 E1.20031
G1 X101.079 Y106.971 F7800.000
G1 X101.079 Y104.171 F600.000 E1.23025
G1 X99.579 Y104.171 E1.24629
G1 X99.579 Y103.029 E1.25850
G1 X110.421 Y103.029 E1.37445
G1 X110.421 Y106.971 E1.41660
G1 X109.079 Y106.971 E1.43095
G1 X109.079 Y104.171 E1.46090
G1 X105.821 Y104.171 E1.49575
G1 X105.821 Y106.971 E1.52569
G1 X101.178 Y106.971 E1.57534
G1 X101.409 Y106.400 F7800.000
G1 X102.864 Y105.188
G1 X102.864 Y104.812 F600.000 E1.57719
G1 X103.165 Y104.812 E1.57866
G1 X103.165 Y105.188 E1.58051
G1 X103.466 Y105.188 E1.58198
G1 X103.466 Y104.812 E1.58382
G1 X103.768 Y104.812 E1.58530
G1 X103.768 Y105.188 E1.58714
G1 F1800.000 E0.58714
G92 E0
G1 X101.057 Y103.494 F7800.000
G1 F1800.000 E1.00000
G1 X101.057 Y103.706 F600.000 E1.00103
G1 X100.756 Y103.706 F7800.000
G1 X100.756 Y103.494 F600.000 E1.00205
G1 X100.455 Y103.494 F7800.000
G1 X100.455 Y103.706 F600.000 E1.00308
G1 X100.154 Y103.706 F7800.000
G1 X100.154 Y103.494 F600.000 E1.00411
G1 F1800.000 E0.00411
G92 E0
G1 X105.876 Y103.706 F7800.000
G1 F1800.000 E1.00000
G1 X105.876 Y103.494 F600.000 E1.00103
G1 X106.177 Y103.494 F7800.000
G1 X106.177 Y103.706 F600.000 E1.00205
G1 X106.478 Y103.706 F7800.000
G1 X106.478 Y103.494 F600.000 E1.00308
G1 X106.779 Y103.494 F7800.000
G1 X106.779 Y103.706 F600.000 E1.00411
G1 X107.081 Y103.706 F7800.000
G1 X107.081 Y103.494 F600.000 E1.00513
G1 X107.382 Y103.494 F7800.000
G1 X107.382 Y103.706 F600.000 E1.00616
G1 X107.683 Y103.706 F7800.000
G1 X107.683 Y103.494 F600.000 E1.00719
G1 X107.984 Y103.494 F7800.000
G1 X107.984 Y103.706 F600.000 E1.00821
G1 X108.285 Y103.706 F7800.000
G1 X108.285 Y103.494 F600.000 E1.00924
G1 X108.586 Y103.494 F7800.000
G1 X108.586 Y103.706 F600.000 E1.01027
G1 X108.888 Y103.706 F7800.000
G1 X108.888 Y103.494 F600.000 E1.01129
G1 X109.189 Y103.494 F7800.000
G1 X109.189 Y103.706 F600.000 E1.01232
G1 F1800.000 E0.01232
G92 E0
G1 Z0.400 F7800.000
G1 X104.504 Y104.346
G1 F1800.000 E1.00000
G1 X104.504 Y105.654 F600.000 E1.01398
G1 X102.396 Y105.654 E1.03652
G1 X102.396 Y104.346 E1.05050
G1 X104.405 Y104.346 E1.07198
G1 F1800.000 E0.07198
G92 E0
G1 X101.738 Y103.688 F7800.000
G1 F1800.000 E1.00000
G1 X105.162 Y103.688 F600.000 E1.03662
G1 X105.162 Y106.312 E1.06469
G1 X101.738 Y106.312 E1.10131
G1 X101.738 Y103.787 E1.12833
G1 X101.079 Y104.171 F7800.000
G1 X99.579 Y104.171 F600.000 E1.14437
G1 X99.579 Y103.029 E1.15658
G1 X110.421 Y103.029 E1.27252
G1 X110.421 Y106.971 E1.31468
G1 X109.079 Y106.971 E1.32902
G1 X109.079 Y104.171 E1.35897
G1 X105.821 Y104.171 E1.39382
G1 X105.821 Y106.971 E1.42376
G1 X101.079 Y106.971 E1.47447
G1 X101.079 Y104.270 E1.50336
G1 X101.079 Y103.512 F7800.000
G1 F1800.000 E0.50336
G92 E0
G1 X109.752 Y105.591 F7800.000
G1 F1800.000 E1.00000
G1 X109.748 Y105.591 F600.000 E1.00003
G1 X109.748 Y104.868 F7800.000
G1 X109.752 Y104.868 F600.000 E1.00007
G1 X109.752 Y104.146 F7800.000
G1 X109.748 Y104.146 F600.000 E1.00010
G1 X109.273 Y103.629 F7800.000
G1 X105.627 Y103.629 F600.000 E1.01783
G1 F1800.000 E0.01783
G92 E0
G1 X104.038 Y105.178 F7800.000
G1 F1800.000 E1.00000
G1 X102.862 Y105.178 F600.000 E1.00572
G1 X102.862 Y104.868 F7800.000
G1 X104.038 Y104.868 F600.000 E1.01145
G1 F1800.000 E0.01145
G92 E0
G1 X101.273 Y103.629 F7800.000
G1 F1800.000 E1.00000
G1 X100.044 Y103.629 F600.000 E1.00597
G1 F1800.000 E0.00597
G92 E0
G1 Z0.500 F7800.000
G1 X102.396 Y104.346
G1 F1800.000 E1.00000
G1 X104.504 Y104.346 F600.000 E1.02254
G1 X104.504 Y105.654 E1.03652
G1 X102.396 Y105.654 E1.05906
G1 X102.396 Y104.445 E1.07198
G1 F1800.000 E0.07198
G92 E0
G1 X105.162 Y106.312 F7800.000
G1 F1800.000 E1.00000
G1 X101.738 Y106.312 F600.000 E1.03662
G1 X101.738 Y103.688 E1.06469
G1 X105.162 Y103.688 E1.10131
G1 X105.162 Y106.213 E1.12833
G1 X105.821 Y106.971 F7800.000
G1 X101.079 Y106.971 F600.000 E1.17903
G1 X101.079 Y104.171 E1.20898
G1 X99.579 Y104.171 E1.22502
G1 X99.579 Y103.029 E1.23723
G1 X110.421 Y103.029 E1.35318
G1 X110.421 Y106.971 E1.39533
G1 X109.079 Y106.971 E1.40968
G1 X109.079 Y104.171 E1.43962
G1 X105.821 Y104.171 E1.47447
G1 X105.821 Y106.872 E1.50336
G1 X105.250 Y106.641 F7800.000
G1 F1800.000 E0.50336
G92 E0
G1 X102.864 Y105.188 F7800.000
G1 F1800.000 E1.00000
G1 X102.864 Y104.812 F600.000 E1.00183
G1 X103.165 Y104.812 F7800.000
G1 X103.165 Y105.188 F600.000 E1.00367
G1 X103.466 Y105.188 F7800.000
G1 X103.466 Y104.812 F600.000 E1.00550
G1 X103.768 Y104.812 F7800.000
G1 X103.768 Y105.188 F600.000 E1.00733
G1 F1800.000 E0.00733
G92 E0
G1 X105.876 Y103.706 F7800.000
G1 F1800.000 E1.00000
G1 X105.876 Y103.494 F600.000 E1.00103
G1 X106.177 Y103.494 F7800.000
G1 X106.177 Y103.706 F600.000 E1.00205
G1 X106.478 Y103.706 F7800.000
G1 X106.478 Y103.494 F600.000 E1.00308
G1 X106.779 Y103.494 F7800.000
G1 X106.779 Y103.706 F600.000 E1.00411
G1 X107.081 Y103.706 F7800.000
G1 X107.081 Y103.494 F600.000 E1.00513
G1 X107.382 Y103.494 F7800.000
G1 X107.382 Y103.706 F600.000 E1.00616
G1 X107.683 Y103.706 F7800.000
G1 X107.683 Y103.494 F600.000 E1.00719
G1 X107.984 Y103.494 F7800.000
G1 X107.984 Y103.706 F600.000 E1.00821
G1 X108.285 Y103.706 F7800.000
G1 X108.285 Y103.494 F600.000 E1.00924
G1 X108.586 Y103.494 F7800.000
G1 X108.586 Y103.706 F600.000 E1.01027
G1 X108.888 Y103.706 F7800.000
G1 X108.888 Y103.494 F600.000 E1.01129
G1 X109.189 Y103.494 F7800.000
G1 X109.189 Y103.706 F600.000 E1.01232
G1 F1800.000 E0.01232
G92 E0
G1 X101.057 Y103.494 F7800.000
G1 F1800.000 E1.00000
G1 X101.057 Y103.706 F600.000 E1.00103
G1 X100.756 Y103.706 F7800.000
G1 X100.756 Y103.494 F600.000 E1.00205
G1 X100.455 Y103.494 F7800.000
G1 X100.455 Y103.706 F600.000 E1.00308
G1 X100.154 Y103.706 F7800.000
G1 X100.154 Y103.494 F600.000 E1.00411
G1 F1800.000 E0.00411
G92 E0
G1 Z0.600 F7800.000
G1 X102.396 Y104.346
G1 F1800.000 E1.00000
G1 X104.504 Y104.346 F600.000 E1.02254
G1 X104.504 Y105.654 E1.03652
G1 X102.396 Y105.654 E1.05906
G1 X102.396 Y104.445 E1.07198
G1 X101.738 Y103.688 F7800.000
G1 X105.162 Y103.688 F600.000 E1.10860
G1 X105.162 Y106.312 E1.13667
G1 X101.738 Y106.312 E1.17330
G1 X101.738 Y103.787 E1.20031
G1 X101.079 Y104.171 F7800.000
G1 X99.579 Y104.171 F600.000 E1.21635
G1 X99.579 Y103.029 E1.22856
G1 X110.421 Y103.029 E1.34450
G1 X110.421 Y106.971 E1.38666
G1 X109.079 Y106.971 E1.40100
G1 X109.079 Y104.171 E1.43095
G1 X105.821 Y104.171 E1.46580
G1 X105.821 Y106.971 E1.49575
G1 X101.079 Y106.971 E1.54646
G1 X101.079 Y104.270 E1.57534
G1 X101.079 Y103.512 F7800.000
G1 F1800.000 E0.57534
G92 E0
G1 X109.752 Y105.591 F7800.000
G1 F1800.000 E1.00000
G1 X109.748 Y105.591 F600.000 E1.00003
G1 X109.748 Y104.868 F7800.000
G1 X109.752 Y104.868 F600.000 E1.00007
G1 X109.752 Y104.146 F7800.000
G1 X109.748 Y104.146 F600.000 E1.00010
G1 X109.273 Y103.629 F7800.000
G1 X105.627 Y103.629 F600.000 E1.01783
G1 F1800.000 E0.01783
G92 E0
