; generated by Slic3r 0.9.10b on 2013-07-11 at 20:42:34

; layer_height = 0.1
; perimeters = 3
; top_solid_layers = 3
; bottom_solid_layers = 3
; fill_density = 0.9
; perimeter_speed = 30
; infill_speed = 60
; travel_speed = 130
; nozzle_diameter = 0.4
; filament_diameter = 2.8
; extrusion_multiplier = 1
; perimeters extrusion width = 0.68mm
; infill extrusion width = 1.28mm
; solid infill extrusion width = 0.68mm
; top infill extrusion width = 0.68mm
; first layer extrusion width = 0.20mm

G21 ; set units to millimeters
M107
M104 S220 ; set temperature
G28 ; home all axes
G1 Z20 F2000 ; down some millimeters
M109 S220 ; wait for temperature to be reached
G90 ; use absolute coordinates
G92 E0
M82 ; use absolute distances for extrusion
G1 F1800.000 E-1.00000
G92 E0
G1 Z0.100 F7800.000
G1 X96.240 Y98.340
G1 F1800.000 E1.00000
G1 X97.260 Y97.510 F540.000 E1.00519
G1 X98.430 Y96.880 E1.01043
G1 X99.690 Y96.500 E1.01562
G1 X101.000 Y96.370 E1.02082
G1 X109.000 Y96.370 E1.05238
G1 X110.310 Y96.500 E1.05757
G1 X111.570 Y96.880 E1.06276
G1 X112.740 Y97.510 E1.06800
G1 X113.760 Y98.340 E1.07319
G1 X114.590 Y99.360 E1.07838
G1 X115.220 Y100.530 E1.08362
G1 X115.600 Y101.790 E1.08881
G1 X115.730 Y103.100 E1.09401
G1 X115.730 Y104.400 E1.09914
G1 X115.480 Y106.200 E1.10631
G1 X114.770 Y107.860 E1.11343
G1 X113.270 Y110.360 E1.12493
G1 X112.440 Y111.470 E1.13040
G1 X111.400 Y112.380 E1.13585
G1 X110.200 Y113.070 E1.14131
G1 X108.880 Y113.490 E1.14678
G1 X107.500 Y113.630 E1.15225
G1 X102.500 Y113.630 E1.17197
G1 X101.120 Y113.490 E1.17745
G1 X99.800 Y113.070 E1.18291
G1 X98.600 Y112.380 E1.18837
G1 X97.560 Y111.470 E1.19382
G1 X96.730 Y110.360 E1.19929
G1 X95.230 Y107.860 E1.21079
G1 X94.520 Y106.200 E1.21792
G1 X94.270 Y104.400 E1.22509
G1 X94.270 Y103.100 E1.23021
G1 X94.400 Y101.790 E1.23541
G1 X94.780 Y100.530 E1.24060
G1 X95.410 Y99.360 E1.24584
G1 X96.217 Y98.368 E1.25089
G1 X96.410 Y98.510 F7800.000
G1 X97.400 Y97.710 F540.000 E1.25591
G1 X98.520 Y97.110 E1.26092
G1 X99.730 Y96.740 E1.26591
G1 X101.000 Y96.610 E1.27095
G1 X109.000 Y96.610 E1.30251
G1 X110.270 Y96.740 E1.30755
G1 X111.480 Y97.110 E1.31254
G1 X112.600 Y97.710 E1.31755
G1 X113.590 Y98.510 E1.32257
G1 X114.390 Y99.500 E1.32759
G1 X114.990 Y100.620 E1.33261
G1 X115.360 Y101.830 E1.33760
G1 X115.490 Y103.100 E1.34263
G1 X115.490 Y104.400 E1.34776
G1 X115.250 Y106.130 E1.35465
G1 X114.560 Y107.740 E1.36156
G1 X113.060 Y110.240 E1.37306
G1 X112.260 Y111.300 E1.37830
G1 X111.260 Y112.190 E1.38359
G1 X110.100 Y112.840 E1.38883
G1 X108.830 Y113.250 E1.39410
G1 X107.500 Y113.390 E1.39937
G1 X102.500 Y113.390 E1.41910
G1 X101.170 Y113.250 E1.42437
G1 X99.900 Y112.840 E1.42964
G1 X98.740 Y112.190 E1.43488
G1 X97.740 Y111.300 E1.44017
G1 X96.940 Y110.240 E1.44540
G1 X95.440 Y107.740 E1.45691
G1 X94.750 Y106.130 E1.46382
G1 X94.510 Y104.400 E1.47071
G1 X94.510 Y103.100 E1.47584
G1 X94.640 Y101.830 E1.48087
G1 X95.010 Y100.620 E1.48586
G1 X95.610 Y99.500 E1.49088
G1 X96.387 Y98.538 E1.49575
G1 X96.590 Y98.690 F7800.000
G1 X97.530 Y97.910 F540.000 E1.50057
G1 X98.610 Y97.330 E1.50541
G1 X99.780 Y96.980 E1.51023
G1 X101.000 Y96.860 E1.51506
G1 X109.000 Y96.860 E1.54662
G1 X110.220 Y96.980 E1.55146
G1 X111.390 Y97.330 E1.55628
G1 X112.470 Y97.910 E1.56111
G1 X113.410 Y98.690 E1.56593
G1 X114.190 Y99.630 E1.57075
G1 X114.770 Y100.710 E1.57559
G1 X115.120 Y101.880 E1.58041
G1 X115.240 Y103.100 E1.58524
G1 X115.240 Y104.400 E1.59037
G1 X115.020 Y106.070 E1.59702
G1 X114.350 Y107.610 E1.60364
G1 X112.850 Y110.110 E1.61514
G1 X112.080 Y111.140 E1.62022
G1 X111.120 Y111.990 E1.62528
G1 X110.000 Y112.620 E1.63035
G1 X108.780 Y113.010 E1.63540
G1 X107.500 Y113.140 E1.64047
G1 X102.500 Y113.140 E1.66020
G1 X101.220 Y113.010 E1.66527
G1 X100.000 Y112.620 E1.67033
G1 X98.880 Y111.990 E1.67540
G1 X97.920 Y111.140 E1.68046
G1 X97.150 Y110.110 E1.68553
G1 X95.650 Y107.610 E1.69703
G1 X94.980 Y106.070 E1.70366
G1 X94.760 Y104.400 E1.71030
G1 X94.760 Y103.100 E1.71543
G1 X94.880 Y101.880 E1.72027
G1 X95.230 Y100.710 E1.72508
G1 X95.810 Y99.630 E1.72992
G1 X96.567 Y98.718 E1.73460
G1 F1800.000 E0.73460
G92 E0
G1 X103.107 Y103.707 F7800.000
G1 F1800.000 E1.00000
G1 X106.893 Y103.707 F540.000 E1.01493
G1 X106.893 Y106.293 E1.02513
G1 X103.107 Y106.293 E1.04007
G1 X103.107 Y103.744 E1.05012
G1 F1800.000 E0.05012
G92 E0
G1 X108.636 Y103.464 F7800.000
G1 F1800.000 E1.00000
G1 X108.636 Y104.036 F540.000 E1.00225
G1 X107.136 Y104.036 E1.00817
G1 X107.136 Y106.536 E1.01803
G1 X102.864 Y106.536 E1.03488
G1 X102.864 Y104.036 E1.04475
G1 X101.364 Y104.036 E1.05066
G1 X101.364 Y103.464 E1.05292
G1 X108.599 Y103.464 E1.08146
G1 X108.879 Y103.221 F7800.000
G1 X108.879 Y104.279 F540.000 E1.08563
G1 X107.379 Y104.279 E1.09155
G1 X107.379 Y106.779 E1.10141
G1 X102.621 Y106.779 E1.12018
G1 X102.621 Y104.279 E1.13004
G1 X101.121 Y104.279 E1.13596
G1 X101.121 Y103.221 E1.14013
G1 X108.842 Y103.221 E1.17059
G1 X108.757 Y103.432 F7800.000
G1 F1800.000 E0.17059
G92 E0
G1 X106.657 Y106.117 F7800.000
G1 F1800.000 E1.00000
G1 X106.657 Y103.883 F1080.000 E1.00892
G1 X106.411 Y103.883 E1.00990
G1 X106.411 Y106.117 E1.01882
G1 X106.165 Y106.117 E1.01981
G1 X106.165 Y103.883 E1.02873
G1 X105.919 Y103.883 E1.02971
G1 X105.919 Y106.117 E1.03863
G1 X105.673 Y106.117 E1.03961
G1 X105.673 Y103.883 E1.04853
G1 X105.427 Y103.883 E1.04952
G1 X105.427 Y106.117 E1.05844
G1 X105.181 Y106.117 E1.05942
G1 X105.181 Y103.883 E1.06834
G1 X104.935 Y103.883 E1.06932
G1 X104.935 Y106.117 E1.07824
G1 X104.689 Y106.117 E1.07923
G1 X104.689 Y103.883 E1.08815
G1 X104.443 Y103.883 E1.08913
G1 X104.443 Y106.117 E1.09805
G1 X104.197 Y106.117 E1.09903
G1 X104.197 Y103.883 E1.10795
G1 X103.951 Y103.883 E1.10894
G1 X103.951 Y106.117 E1.11786
G1 X103.705 Y106.117 E1.11884
G1 X103.705 Y103.883 E1.12776
G1 X103.460 Y103.883 E1.12874
G1 X103.460 Y106.117 E1.13766
G1 F1800.000 E0.13766
G92 E0
G1 X101.646 Y103.764 F7800.000
G1 F1800.000 E1.00000
G1 X101.646 Y103.736 F360.000 E1.00015
G1 X101.970 Y103.736 E1.00185
G1 X101.970 Y103.764 E1.00200
G1 X102.293 Y103.764 E1.00369
G1 X102.293 Y103.736 E1.00384
G1 X102.616 Y103.736 E1.00554
G1 X102.616 Y103.764 E1.00569
G1 F1800.000 E0.00569
G92 E0
G1 X107.465 Y103.764 F7800.000
G1 F1800.000 E1.00000
G1 X107.465 Y103.736 F360.000 E1.00015
G1 X107.788 Y103.736 F7800.000
G1 X107.788 Y103.764 F360.000 E1.00030
G1 X108.111 Y103.764 F7800.000
G1 X108.111 Y103.736 F360.000 E1.00045
M106 S255
M104 S215 ; set temperature
G1 F1800.000 E0.00045
G92 E0
G1 Z0.200 F7800.000
G1 X103.488 Y105.912
G1 F1800.000 E1.00000
G1 X103.488 Y104.088 F600.000 E1.01951
G1 X106.512 Y104.088 E1.05186
G1 X106.512 Y105.912 E1.07137
G1 X103.587 Y105.912 E1.10266
G1 X102.829 Y106.571 F7800.000
G1 X102.829 Y104.071 F600.000 E1.12939
G1 X101.329 Y104.071 E1.14544
G1 X101.329 Y103.429 E1.15230
G1 X108.671 Y103.429 E1.23081
G1 X108.671 Y104.071 E1.23767
G1 X107.171 Y104.071 E1.25372
G1 X107.171 Y106.571 E1.28045
G1 X102.928 Y106.571 E1.32583
G1 X103.159 Y106.000 F7800.000
G1 F1800.000 E0.32583
G92 E0
G1 X108.250 Y103.750 F7800.000
G1 F1800.000 E1.00000
G1 X108.550 Y103.539 F600.000 E1.00392
G1 X108.348 Y103.750 F7800.000
G1 X108.524 Y103.912 F600.000 E1.00648
G1 X108.524 Y103.912 F7800.000
G1 X108.550 Y103.961 F600.000 E1.00707
G1 X108.250 Y103.750 F7800.000
G1 X108.152 Y103.750 F600.000 E1.00811
G1 X107.976 Y103.587 F7800.000
G1 X107.950 Y103.539 F600.000 E1.00870
G1 X107.976 Y103.587 F7800.000
G1 X108.152 Y103.750 F600.000 E1.01126
G1 X107.950 Y103.961 E1.01438
G1 F1800.000 E0.01438
G92 E0
G1 X102.050 Y103.961 F7800.000
G1 F1800.000 E1.00000
G1 X102.024 Y103.912 F600.000 E1.00058
G1 X102.024 Y103.912 F7800.000
G1 X101.848 Y103.750 F600.000 E1.00315
G1 X101.750 Y103.750 F7800.000
G1 X101.652 Y103.750 F600.000 E1.00419
G1 X101.750 Y103.750 F7800.000
G1 X102.050 Y103.539 F600.000 E1.00811
G1 X101.476 Y103.587 F7800.000
G1 X101.450 Y103.539 F600.000 E1.00870
G1 X101.476 Y103.587 F7800.000
G1 X101.652 Y103.750 F600.000 E1.01126
G1 X101.450 Y103.961 E1.01438
G1 F1800.000 E0.01438
G92 E0
G1 Z0.300 F7800.000
G1 X106.512 Y105.912
G1 F1800.000 E1.00000
G1 X103.488 Y105.912 F600.000 E1.03235
G1 X103.488 Y104.088 E1.05186
G1 X106.512 Y104.088 E1.08420
G1 X106.512 Y105.813 E1.10266
G1 X107.171 Y106.571 F7800.000
G1 X102.829 Y106.571 F600.000 E1.14909
G1 X102.829 Y104.071 E1.17583
G1 X101.329 Y104.071 E1.19187
G1 X101.329 Y103.429 E1.19873
G1 X108.671 Y103.429 E1.27724
G1 X108.671 Y104.071 E1.28411
G1 X107.171 Y104.071 E1.30015
G1 X107.171 Y106.472 E1.32583
G1 X106.600 Y106.241 F7800.000
G1 F1800.000 E0.32583
G92 E0
G1 X108.250 Y103.750 F7800.000
G1 F1800.000 E1.00000
G1 X108.550 Y103.539 F600.000 E1.00392
G1 X108.348 Y103.750 F7800.000
G1 X108.524 Y103.912 F600.000 E1.00648
G1 X108.524 Y103.912 F7800.000
G1 X108.550 Y103.961 F600.000 E1.00707
G1 X108.250 Y103.750 F7800.000
G1 X108.152 Y103.750 F600.000 E1.00811
G1 X107.976 Y103.587 F7800.000
G1 X107.950 Y103.539 F600.000 E1.00870
G1 X107.976 Y103.587 F7800.000
G1 X108.152 Y103.750 F600.000 E1.01126
G1 X107.950 Y103.961 E1.01438
G1 F1800.000 E0.01438
G92 E0
G1 X102.050 Y103.961 F7800.000
G1 F1800.000 E1.00000
G1 X102.024 Y103.912 F600.000 E1.00058
G1 X102.024 Y103.912 F7800.000
G1 X101.848 Y103.750 F600.000 E1.00315
G1 X101.750 Y103.750 F7800.000
G1 X101.652 Y103.750 F600.000 E1.00419
G1 X101.750 Y103.750 F7800.000
G1 X102.050 Y103.539 F600.000 E1.00811
G1 X101.476 Y103.587 F7800.000
G1 X101.450 Y103.539 F600.000 E1.00870
G1 X101.476 Y103.587 F7800.000
G1 X101.652 Y103.750 F600.000 E1.01126
G1 X101.450 Y103.961 E1.01438
G1 F1800.000 E0.01438
G92 E0
G1 X105.114 Y105.073 F7800.000
G1 F1800.000 E1.00000
G1 X105.114 Y104.927 F600.000 E1.00244
G1 F1800.000 E0.00244
G92 E0
G1 Z0.400 F7800.000
G1 X106.512 Y105.912
G1 F1800.000 E1.00000
G1 X103.488 Y105.912 F600.000 E1.03235
G1 X103.488 Y104.088 E1.05186
G1 X106.512 Y104.088 E1.08420
G1 X106.512 Y105.813 E1.10266
G1 X107.171 Y106.571 F7800.000
G1 X102.829 Y106.571 F600.000 E1.14909
G1 X102.829 Y104.071 E1.17583
G1 X101.329 Y104.071 E1.19187
G1 X101.329 Y103.429 E1.19873
G1 X108.671 Y103.429 E1.27724
G1 X108.671 Y104.071 E1.28411
G1 X107.171 Y104.071 E1.30015
G1 X107.171 Y106.472 E1.32583
G1 X106.600 Y106.241 F7800.000
G1 F1800.000 E0.32583
G92 E0
G1 X108.250 Y103.750 F7800.000
G1 F1800.000 E1.00000
G1 X108.550 Y103.539 F600.000 E1.00392
G1 X108.348 Y103.750 F7800.000
G1 X108.524 Y103.912 F600.000 E1.00648
G1 X108.524 Y103.912 F7800.000
G1 X108.550 Y103.961 F600.000 E1.00707
G1 X108.250 Y103.750 F7800.000
G1 X108.152 Y103.750 F600.000 E1.00811
G1 X107.976 Y103.587 F7800.000
G1 X107.950 Y103.539 F600.000 E1.00870
G1 X107.976 Y103.587 F7800.000
G1 X108.152 Y103.750 F600.000 E1.01126
G1 X107.950 Y103.961 E1.01438
G1 F1800.000 E0.01438
G92 E0
G1 X102.050 Y103.961 F7800.000
G1 F1800.000 E1.00000
G1 X102.024 Y103.912 F600.000 E1.00058
G1 X102.024 Y103.912 F7800.000
G1 X101.848 Y103.750 F600.000 E1.00315
G1 X101.750 Y103.750 F7800.000
G1 X101.652 Y103.750 F600.000 E1.00419
G1 X101.750 Y103.750 F7800.000
G1 X102.050 Y103.539 F600.000 E1.00811
G1 X101.476 Y103.587 F7800.000
G1 X101.450 Y103.539 F600.000 E1.00870
G1 X101.476 Y103.587 F7800.000
G1 X101.652 Y103.750 F600.000 E1.01126
G1 X101.450 Y103.961 E1.01438
G1 F1800.000 E0.01438
G92 E0
G1 Z0.500 F7800.000
G1 X106.512 Y104.088
G1 F1800.000 E1.00000
G1 X106.512 Y105.912 F600.000 E1.01951
G1 X103.488 Y105.912 E1.05186
G1 X103.488 Y104.088 E1.07137
G1 X106.413 Y104.088 E1.10266
G1 X107.171 Y104.071 F7800.000
G1 X107.171 Y106.571 F600.000 E1.12939
G1 X102.829 Y106.571 E1.17583
G1 X102.829 Y104.071 E1.20256
G1 X101.329 Y104.071 E1.21861
G1 X101.329 Y103.429 E1.22547
G1 X108.671 Y103.429 E1.30398
G1 X108.671 Y104.071 E1.31084
G1 X107.270 Y104.071 E1.32583
G1 X106.512 Y104.071 F7800.000
G1 X108.250 Y103.750
G1 X108.550 Y103.539 F600.000 E1.32975
G1 X108.348 Y103.750 F7800.000
G1 X108.524 Y103.912 F600.000 E1.33231
G1 X108.524 Y103.912 F7800.000
G1 X108.550 Y103.961 F600.000 E1.33290
G1 X108.250 Y103.750 F7800.000
G1 X108.152 Y103.750 F600.000 E1.33394
G1 X107.976 Y103.587 F7800.000
G1 X107.950 Y103.539 F600.000 E1.33453
G1 X107.976 Y103.587 F7800.000
G1 X108.152 Y103.750 F600.000 E1.33709
G1 X107.950 Y103.961 E1.34021
G1 F1800.000 E0.34021
G92 E0
G1 X102.050 Y103.961 F7800.000
G1 F1800.000 E1.00000
G1 X102.024 Y103.912 F600.000 E1.00058
G1 X102.024 Y103.912 F7800.000
G1 X101.848 Y103.750 F600.000 E1.00315
G1 X101.750 Y103.750 F7800.000
G1 X101.652 Y103.750 F600.000 E1.00419
G1 X101.750 Y103.750 F7800.000
G1 X102.050 Y103.539 F600.000 E1.00811
G1 X101.476 Y103.587 F7800.000
G1 X101.450 Y103.539 F600.000 E1.00870
G1 X101.476 Y103.587 F7800.000
G1 X101.652 Y103.750 F600.000 E1.01126
G1 X101.450 Y103.961 E1.01438
G1 F1800.000 E0.01438
G92 E0
G1 X105.114 Y105.073 F7800.000
G1 F1800.000 E1.00000
G1 X105.114 Y104.927 F600.000 E1.00237
G1 F1800.000 E0.00237
G92 E0
G1 Z0.600 F7800.000
G1 X106.512 Y105.912
G1 F1800.000 E1.00000
G1 X103.488 Y105.912 F600.000 E1.03235
G1 X103.488 Y104.088 E1.05186
G1 X106.512 Y104.088 E1.08420
G1 X106.512 Y105.813 E1.10266
G1 X107.171 Y106.571 F7800.000
G1 X102.829 Y106.571 F600.000 E1.14909
G1 X102.829 Y104.071 E1.17583
G1 X101.329 Y104.071 E1.19187
G1 X101.329 Y103.429 E1.19873
G1 X108.671 Y103.429 E1.27724
G1 X108.671 Y104.071 E1.28411
G1 X107.171 Y104.071 E1.30015
G1 X107.171 Y106.472 E1.32583
G1 X106.600 Y106.241 F7800.000
G1 F1800.000 E0.32583
G92 E0
G1 X108.250 Y103.750 F7800.000
G1 F1800.000 E1.00000
G1 X108.550 Y103.539 F600.000 E1.00392
G1 X108.348 Y103.750 F7800.000
G1 X108.524 Y103.912 F600.000 E1.00648
G1 X108.524 Y103.912 F7800.000
G1 X108.550 Y103.961 F600.000 E1.00707
G1 X108.250 Y103.750 F7800.000
G1 X108.152 Y103.750 F600.000 E1.00811
G1 X107.976 Y103.587 F7800.000
G1 X107.950 Y103.539 F600.000 E1.00870
G1 X107.976 Y103.587 F7800.000
G1 X108.152 Y103.750 F600.000 E1.01126
G1 X107.950 Y103.961 E1.01438
G1 F1800.000 E0.01438
G92 E0
G1 X102.050 Y103.961 F7800.000
G1 F1800.000 E1.00000
G1 X102.024 Y103.912 F600.000 E1.00058
G1 X102.024 Y103.912 F7800.000
G1 X101.848 Y103.750 F600.000 E1.00315
G1 X101.750 Y103.750 F7800.000
G1 X101.652 Y103.750 F600.000 E1.00419
G1 X101.750 Y103.750 F7800.000
G1 X102.050 Y103.539 F600.000 E1.00811
G1 X101.476 Y103.587 F7800.000
G1 X101.450 Y103.539 F600.000 E1.00870
G1 X101.476 Y103.587 F7800.000
G1 X101.652 Y103.750 F600.000 E1.01126
G1 X101.450 Y103.961 E1.01438
G1 F1800.000 E0.01438
G92 E0
G1 Z0.700 F7800.000
G1 X103.488 Y105.912
G1 F1800.000 E1.00000
G1 X103.488 Y104.088 F600.000 E1.01951
G1 X106.512 Y104.088 E1.05186
G1 X106.512 Y105.912 E1.07137
G1 X103.587 Y105.912 E1.10266
G1 X102.829 Y106.571 F7800.000
G1 X102.829 Y104.071 F600.000 E1.12939
G1 X101.329 Y104.071 E1.14544
G1 X101.329 Y103.429 E1.15230
G1 X108.671 Y103.429 E1.23081
G1 X108.671 Y104.071 E1.23767
G1 X107.171 Y104.071 E1.25372
G1 X107.171 Y106.571 E1.28045
G1 X102.928 Y106.571 E1.32583
G1 X103.159 Y106.000 F7800.000
G1 F1800.000 E0.32583
G92 E0
G1 X108.250 Y103.750 F7800.000
G1 F1800.000 E1.00000
G1 X108.550 Y103.539 F600.000 E1.00392
G1 X108.348 Y103.750 F7800.000
G1 X108.524 Y103.912 F600.000 E1.00648
G1 X108.524 Y103.912 F7800.000
G1 X108.550 Y103.961 F600.000 E1.00707
G1 X108.250 Y103.750 F7800.000
G1 X108.152 Y103.750 F600.000 E1.00811
G1 X107.976 Y103.587 F7800.000
G1 X107.950 Y103.539 F600.000 E1.00870
G1 X107.976 Y103.587 F7800.000
G1 X108.152 Y103.750 F600.000 E1.01126
G1 X107.950 Y103.961 E1.01438
G1 F1800.000 E0.01438
G92 E0
G1 X102.050 Y103.961 F7800.000
G1 F1800.000 E1.00000
G1 X102.024 Y103.912 F600.000 E1.00058
G1 X102.024 Y103.912 F7800.000
G1 X101.848 Y103.750 F600.000 E1.00315
G1 X101.750 Y103.750 F7800.000
G1 X101.652 Y103.750 F600.000 E1.00419
G1 X101.750 Y103.750 F7800.000
G1 X102.050 Y103.539 F600.000 E1.00811
G1 X101.476 Y103.587 F7800.000
G1 X101.450 Y103.539 F600.000 E1.00870
G1 X101.476 Y103.587 F7800.000
G1 X101.652 Y103.750 F600.000 E1.01126
G1 X101.450 Y103.961 E1.01438
G1 F1800.000 E0.01438
G92 E0
G1 X105.114 Y105.073 F7800.000
G1 F1800.000 E1.00000
G1 X105.114 Y104.927 F600.000 E1.00237
G1 F1800.000 E0.00237
G92 E0
G1 Z0.800 F7800.000
