; generated by Slic3r 0.9.8-dev on 2013-03-18 at 16:36:44

; layer_height = 0.18
; perimeters = 3
; top_solid_layers = 3
; bottom_solid_layers = 5
; fill_density = 0.4
; perimeter_speed = 75
; infill_speed = 75
; travel_speed = 150
; scale = 1
; nozzle_diameter = 0.4
; filament_diameter = 2.78
; extrusion_multiplier = 1
; perimeters extrusion width = 0.56mm
; infill extrusion width = 0.56mm
; support material extrusion width = 0.56mm
; first layer extrusion width = 0.60mm

M107
M104 S215 ; set temperature
G28 ; home all axes
M92 E865.888; init extruder
M109 S215 ; wait for temperature to be reached
G90 ; use absolute coordinates
G21 ; set units to millimeters
G92 E0
M82 ; use absolute distances for extrusion
G1 Z0.300 F9000.000
G1 X135.975 Y124.120
G1 X135.555 Y124.310 F2250.000 E0.01269
G1 X134.875 Y124.580 E0.03284
G1 X134.155 Y124.820 E0.05373
G1 X83.625 Y139.980 E1.50626
G1 X82.955 Y140.160 E1.52536
G1 X81.965 Y140.360 E1.55317
G1 X81.505 Y140.420 E1.56594
G1 X80.595 Y140.480 E1.59105
G1 X79.945 Y140.480 E1.60895
G1 X79.485 Y140.460 E1.62163
G1 X78.505 Y140.360 E1.64875
G1 X78.045 Y140.280 E1.66160
G1 X77.335 Y140.120 E1.68164
G1 X76.375 Y139.820 E1.70934
G1 X75.935 Y139.650 E1.72232
G1 X75.195 Y139.320 E1.74463
G1 X74.785 Y139.110 E1.75732
G1 X73.845 Y138.530 E1.78773
G1 X73.465 Y138.260 E1.80056
G1 X72.645 Y137.600 E1.82954
G1 X72.305 Y137.280 E1.84240
G1 X71.815 Y136.770 E1.86187
G1 X71.295 Y136.150 E1.88415
G1 X71.015 Y135.780 E1.89693
G1 X70.445 Y134.900 E1.92580
G1 X70.215 Y134.490 E1.93874
G1 X69.855 Y133.760 E1.96115
G1 X69.675 Y133.340 E1.97373
G1 X69.315 Y132.300 E2.00403
G1 X69.195 Y131.850 E2.01686
G1 X68.995 Y130.860 E2.04466
G1 X68.935 Y130.400 E2.05744
G1 X68.875 Y129.610 E2.07925
G1 X67.595 Y80.630 E3.42829
G1 X67.655 Y79.640 E3.45560
G1 X67.715 Y79.180 E3.46838
G1 X67.915 Y78.190 E3.49618
G1 X68.035 Y77.740 E3.50901
G1 X68.315 Y76.900 E3.53339
G1 X68.485 Y76.470 E3.54612
G1 X68.855 Y75.660 E3.57064
G1 X69.075 Y75.250 E3.58345
G1 X69.635 Y74.360 E3.61240
G1 X69.905 Y73.990 E3.62501
G1 X70.515 Y73.250 E3.65141
G1 X70.835 Y72.910 E3.66427
G1 X71.515 Y72.280 E3.68979
G1 X71.875 Y71.980 E3.70270
G1 X72.645 Y71.410 E3.72907
G1 X73.035 Y71.160 E3.74183
G1 X74.015 Y70.630 E3.77250
G1 X74.435 Y70.440 E3.78520
G1 X75.115 Y70.170 E3.80534
G1 X75.555 Y70.020 E3.81814
G1 X76.565 Y69.750 E3.84693
G1 X77.025 Y69.660 E3.85983
G1 X78.065 Y69.530 E3.88869
G1 X78.955 Y69.500 E3.91321
G1 X80.175 Y69.560 E3.94684
G1 X132.505 Y74.670 E5.39451
G1 X133.495 Y74.850 E5.42222
G1 X133.945 Y74.960 E5.43497
G1 X134.885 Y75.250 E5.46206
G1 X135.325 Y75.420 E5.47504
G1 X136.065 Y75.750 E5.49735
G1 X136.475 Y75.960 E5.51004
G1 X137.305 Y76.460 E5.53671
G1 X137.975 Y76.950 E5.55957
G1 X138.335 Y77.240 E5.57230
G1 X139.115 Y77.950 E5.60134
G1 X139.435 Y78.290 E5.61419
G1 X139.965 Y78.920 E5.63686
G1 X140.245 Y79.290 E5.64964
G1 X140.815 Y80.170 E5.67850
G1 X141.045 Y80.580 E5.69145
G1 X141.405 Y81.310 E5.71386
G1 X141.585 Y81.730 E5.72644
G1 X141.945 Y82.770 E5.75674
G1 X142.065 Y83.220 E5.76956
G1 X142.265 Y84.210 E5.79737
G1 X142.325 Y84.670 E5.81015
G1 X142.395 Y85.900 E5.84407
G1 X142.395 Y114.120 E6.62106
G1 X142.335 Y115.110 E6.64837
G1 X142.275 Y115.570 E6.66114
G1 X142.145 Y116.280 E6.68101
G1 X141.935 Y117.080 E6.70379
G1 X141.795 Y117.530 E6.71676
G1 X141.405 Y118.550 E6.74683
G1 X141.205 Y118.970 E6.75964
G1 X140.735 Y119.810 E6.78614
G1 X140.485 Y120.200 E6.79889
G1 X139.945 Y120.950 E6.82434
G1 X139.475 Y121.500 E6.84426
G1 X139.155 Y121.840 E6.85711
G1 X138.475 Y122.470 E6.88264
G1 X138.115 Y122.770 E6.89554
G1 X137.345 Y123.340 E6.92192
G1 X136.955 Y123.590 E6.93467
G1 X136.049 Y124.080 E6.96305
G1 X135.975 Y124.120 E6.96535
G1 X135.745 Y123.610 F9000.000
G1 X135.325 Y123.800 F2250.000 E6.97804
G1 X134.695 Y124.050 E6.99670
G1 X133.995 Y124.280 E7.01699
G1 X83.465 Y139.440 E8.46951
G1 X82.805 Y139.620 E8.48835
G1 X81.895 Y139.800 E8.51389
G1 X81.435 Y139.860 E8.52666
G1 X80.815 Y139.920 E8.54381
G1 X79.965 Y139.930 E8.56722
G1 X79.505 Y139.910 E8.57990
G1 X78.595 Y139.810 E8.60510
G1 X78.135 Y139.730 E8.61796
G1 X77.485 Y139.580 E8.63633
G1 X76.575 Y139.300 E8.66254
G1 X76.135 Y139.130 E8.67553
G1 X75.455 Y138.820 E8.69610
G1 X75.045 Y138.610 E8.70879
G1 X74.165 Y138.080 E8.73707
G1 X73.785 Y137.810 E8.74991
G1 X73.025 Y137.190 E8.77691
G1 X72.685 Y136.870 E8.78977
G1 X72.235 Y136.400 E8.80768
G1 X71.745 Y135.810 E8.82880
G1 X71.465 Y135.440 E8.84157
G1 X70.935 Y134.630 E8.86823
G1 X70.705 Y134.220 E8.88117
G1 X70.365 Y133.540 E8.90210
G1 X70.185 Y133.120 E8.91468
G1 X69.855 Y132.150 E8.94289
G1 X69.735 Y131.700 E8.95572
G1 X69.555 Y130.790 E8.98126
G1 X69.495 Y130.330 E8.99403
G1 X69.435 Y129.600 E9.01420
G1 X68.155 Y80.630 E10.36297
G1 X68.215 Y79.710 E10.38835
G1 X68.275 Y79.250 E10.40112
G1 X68.455 Y78.340 E10.42666
G1 X68.575 Y77.890 E10.43949
G1 X68.825 Y77.100 E10.46230
G1 X68.995 Y76.670 E10.47503
G1 X69.345 Y75.930 E10.49757
G1 X69.565 Y75.520 E10.51038
G1 X70.085 Y74.690 E10.53735
G1 X70.355 Y74.320 E10.54996
G1 X70.925 Y73.630 E10.57460
G1 X71.245 Y73.290 E10.58746
G1 X71.875 Y72.700 E10.61122
G1 X72.235 Y72.400 E10.62413
G1 X72.945 Y71.880 E10.64836
G1 X73.335 Y71.630 E10.66111
G1 X74.245 Y71.140 E10.68957
G1 X74.665 Y70.950 E10.70226
G1 X75.295 Y70.700 E10.72092
G1 X75.735 Y70.550 E10.73372
G1 X76.665 Y70.300 E10.76024
G1 X77.125 Y70.210 E10.77314
G1 X78.105 Y70.080 E10.80036
G1 X78.725 Y70.060 E10.81744
G1 X79.725 Y70.080 E10.84498
G1 X131.905 Y75.170 E12.28849
G1 X132.445 Y75.230 E12.30345
G1 X133.365 Y75.390 E12.32916
G1 X133.815 Y75.500 E12.34191
G1 X134.685 Y75.770 E12.36700
G1 X135.125 Y75.940 E12.37998
G1 X135.805 Y76.250 E12.40056
G1 X136.215 Y76.460 E12.41324
G1 X136.995 Y76.920 E12.43818
G1 X137.625 Y77.380 E12.45965
G1 X137.985 Y77.670 E12.47238
G1 X138.705 Y78.330 E12.49927
G1 X139.025 Y78.670 E12.51213
G1 X139.515 Y79.260 E12.53325
G1 X139.795 Y79.630 E12.54602
G1 X140.325 Y80.440 E12.57267
G1 X140.555 Y80.850 E12.58562
G1 X140.895 Y81.530 E12.60655
G1 X141.075 Y81.950 E12.61913
G1 X141.405 Y82.920 E12.64734
G1 X141.525 Y83.370 E12.66016
G1 X141.705 Y84.280 E12.68571
G1 X141.765 Y84.740 E12.69848
G1 X141.835 Y85.600 E12.72224
G1 X141.835 Y114.120 E13.50749
G1 X141.775 Y115.040 E13.53287
G1 X141.715 Y115.500 E13.54564
G1 X141.605 Y116.160 E13.56407
G1 X141.405 Y116.910 E13.58544
G1 X141.265 Y117.360 E13.59841
G1 X140.895 Y118.310 E13.62648
G1 X140.695 Y118.730 E13.63929
G1 X140.265 Y119.510 E13.66382
G1 X140.015 Y119.900 E13.67657
G1 X139.505 Y120.610 E13.70064
G1 X138.745 Y121.460 E13.73203
G1 X138.115 Y122.050 E13.75580
G1 X137.755 Y122.350 E13.76870
G1 X137.045 Y122.870 E13.79293
G1 X136.655 Y123.120 E13.80569
G1 X135.819 Y123.571 E13.83184
G1 X135.745 Y123.610 E13.83414
G1 X135.515 Y123.100 F9000.000
G1 X134.515 Y123.530 F2250.000 E13.86411
G1 X134.075 Y123.680 E13.87691
G1 X83.115 Y138.970 E15.34181
G1 X82.665 Y139.090 E15.35463
G1 X81.825 Y139.250 E15.37818
G1 X81.365 Y139.310 E15.39095
G1 X80.785 Y139.360 E15.40698
G1 X79.995 Y139.370 E15.42873
G1 X79.535 Y139.350 E15.44141
G1 X78.695 Y139.260 E15.46467
G1 X77.625 Y139.050 E15.49469
G1 X76.775 Y138.780 E15.51925
G1 X76.335 Y138.610 E15.53223
G1 X75.705 Y138.330 E15.55121
G1 X75.295 Y138.120 E15.56390
G1 X74.485 Y137.630 E15.58996
G1 X74.105 Y137.360 E15.60280
G1 X73.415 Y136.780 E15.62762
G1 X72.645 Y136.030 E15.65721
G1 X72.185 Y135.480 E15.67695
G1 X71.905 Y135.110 E15.68973
G1 X71.415 Y134.360 E15.71440
G1 X71.185 Y133.950 E15.72734
G1 X70.875 Y133.320 E15.74667
G1 X70.695 Y132.900 E15.75925
G1 X70.385 Y132.010 E15.78520
G1 X70.265 Y131.560 E15.79802
G1 X70.105 Y130.720 E15.82157
G1 X70.045 Y130.260 E15.83434
G1 X69.995 Y129.580 E15.85311
G1 X68.705 Y80.630 E17.20134
G1 X68.765 Y79.780 E17.22480
G1 X68.825 Y79.320 E17.23757
G1 X68.985 Y78.480 E17.26112
G1 X69.105 Y78.030 E17.27394
G1 X69.345 Y77.310 E17.29484
G1 X69.515 Y76.880 E17.30757
G1 X69.835 Y76.190 E17.32851
G1 X70.055 Y75.780 E17.34132
G1 X70.535 Y75.010 E17.36630
G1 X70.805 Y74.640 E17.37891
G1 X71.335 Y74.020 E17.40137
G1 X71.655 Y73.680 E17.41423
G1 X72.225 Y73.130 E17.43604
G1 X72.585 Y72.830 E17.44894
G1 X73.245 Y72.350 E17.47141
G1 X73.635 Y72.100 E17.48416
G1 X74.475 Y71.650 E17.51040
G1 X75.475 Y71.220 E17.54037
G1 X75.915 Y71.070 E17.55317
G1 X76.775 Y70.840 E17.57768
G1 X77.235 Y70.750 E17.59059
G1 X77.925 Y70.660 E17.60975
G1 X78.725 Y70.610 E17.63182
G1 X80.065 Y70.660 E17.66874
G1 X131.855 Y75.720 E19.10148
G1 X132.385 Y75.780 E19.11616
G1 X133.235 Y75.930 E19.13993
G1 X133.685 Y76.040 E19.15268
G1 X134.485 Y76.290 E19.17576
G1 X134.925 Y76.460 E19.18875
G1 X135.555 Y76.740 E19.20773
G1 X135.965 Y76.950 E19.22041
G1 X136.865 Y77.510 E19.24960
G1 X137.635 Y78.100 E19.27631
G1 X138.295 Y78.720 E19.30124
G1 X139.075 Y79.590 E19.33341
G1 X139.355 Y79.960 E19.34619
G1 X139.845 Y80.710 E19.37085
G1 X140.075 Y81.120 E19.38380
G1 X140.385 Y81.750 E19.40313
G1 X140.565 Y82.170 E19.41571
G1 X140.875 Y83.060 E19.44166
G1 X140.995 Y83.510 E19.45448
G1 X141.155 Y84.350 E19.47803
G1 X141.215 Y84.810 E19.49080
G1 X141.265 Y85.390 E19.50683
G1 X141.285 Y85.900 E19.52088
G1 X141.285 Y114.120 E20.29787
G1 X141.225 Y114.970 E20.32133
G1 X141.165 Y115.430 E20.33411
G1 X141.055 Y116.030 E20.35090
G1 X140.875 Y116.750 E20.37134
G1 X140.735 Y117.200 E20.38431
G1 X140.395 Y118.070 E20.41003
G1 X140.195 Y118.490 E20.42284
G1 X139.795 Y119.210 E20.44552
G1 X139.545 Y119.600 E20.45827
G1 X139.065 Y120.270 E20.48096
G1 X138.335 Y121.070 E20.51078
G1 X137.765 Y121.620 E20.53259
G1 X137.405 Y121.920 E20.54549
G1 X136.745 Y122.400 E20.56796
G1 X136.355 Y122.650 E20.58072
G1 X135.589 Y123.061 E20.60466
G1 X135.515 Y123.100 E20.60696
G1 X114.273 Y103.742 F9000.000
G1 X113.903 Y104.067 F1500.000 E20.62052
G1 X113.479 Y104.319 E20.63410
G1 X113.016 Y104.485 E20.64765
G1 X112.694 Y104.546 E20.65667
G1 X112.366 Y104.567 E20.66572
G1 X111.876 Y104.521 E20.67926
G1 X111.403 Y104.383 E20.69282
G1 X110.964 Y104.160 E20.70639
G1 X110.577 Y103.859 E20.71989
G1 X110.251 Y103.489 E20.73346
G1 X110.000 Y103.065 E20.74704
G1 X109.833 Y102.602 E20.76059
G1 X109.756 Y102.117 E20.77411
G1 X109.772 Y101.625 E20.78767
G1 X109.879 Y101.144 E20.80123
G1 X110.074 Y100.693 E20.81477
G1 X110.351 Y100.286 E20.82830
G1 X110.700 Y99.937 E20.84190
G1 X111.107 Y99.661 E20.85544
G1 X111.557 Y99.465 E20.86896
G1 X112.038 Y99.358 E20.88253
G1 X112.530 Y99.343 E20.89608
G1 X112.856 Y99.384 E20.90511
G1 X113.174 Y99.465 E20.91417
G1 X113.626 Y99.661 E20.92771
G1 X114.032 Y99.937 E20.94124
G1 X114.381 Y100.286 E20.95484
G1 X114.658 Y100.693 E20.96837
G1 X114.853 Y101.144 E20.98191
G1 X114.935 Y101.462 E20.99096
G1 X114.976 Y101.788 E20.99999
G1 X114.960 Y102.280 E21.01355
G1 X114.853 Y102.761 E21.02711
G1 X114.658 Y103.212 E21.04065
G1 X114.481 Y103.489 E21.04970
G1 X114.328 Y103.679 E21.05641
G1 X114.273 Y103.742 E21.05871
G1 X113.866 Y103.360 F9000.000
G1 X113.575 Y103.617 F1500.000 E21.06938
G1 X113.242 Y103.814 E21.08006
G1 X112.877 Y103.945 E21.09072
G1 X112.624 Y103.993 E21.09783
G1 X112.366 Y104.010 E21.10494
G1 X111.981 Y103.973 E21.11560
G1 X111.608 Y103.865 E21.12627
G1 X111.263 Y103.689 E21.13694
G1 X110.958 Y103.452 E21.14757
G1 X110.702 Y103.162 E21.15825
G1 X110.504 Y102.828 E21.16893
G1 X110.373 Y102.464 E21.17959
G1 X110.313 Y102.082 E21.19023
G1 X110.325 Y101.694 E21.20090
G1 X110.409 Y101.316 E21.21157
G1 X110.563 Y100.961 E21.22222
G1 X110.780 Y100.641 E21.23287
G1 X111.055 Y100.367 E21.24357
G1 X111.375 Y100.149 E21.25422
G1 X111.730 Y99.995 E21.26487
G1 X112.108 Y99.911 E21.27554
G1 X112.495 Y99.899 E21.28620
G1 X112.751 Y99.931 E21.29331
G1 X113.002 Y99.995 E21.30043
G1 X113.357 Y100.149 E21.31109
G1 X113.677 Y100.367 E21.32174
G1 X113.952 Y100.641 E21.33243
G1 X114.169 Y100.961 E21.34308
G1 X114.323 Y101.316 E21.35374
G1 X114.387 Y101.567 E21.36086
G1 X114.419 Y101.823 E21.36797
G1 X114.407 Y102.210 E21.37863
G1 X114.323 Y102.588 E21.38930
G1 X114.169 Y102.943 E21.39995
G1 X113.921 Y103.298 E21.41185
G1 X113.866 Y103.360 E21.41416
G1 X113.460 Y102.979 F9000.000
G1 X113.248 Y103.166 F1500.000 E21.42193
G1 X113.005 Y103.310 E21.42971
G1 X112.739 Y103.405 E21.43749
G1 X112.366 Y103.452 E21.44784
G1 X112.085 Y103.426 E21.45561
G1 X111.814 Y103.347 E21.46338
G1 X111.562 Y103.219 E21.47116
G1 X111.339 Y103.046 E21.47893
G1 X111.152 Y102.834 E21.48671
G1 X111.009 Y102.591 E21.49449
G1 X110.913 Y102.325 E21.50226
G1 X110.869 Y102.046 E21.51003
G1 X110.878 Y101.764 E21.51780
G1 X110.939 Y101.489 E21.52558
G1 X111.051 Y101.230 E21.53335
G1 X111.210 Y100.996 E21.54112
G1 X111.410 Y100.796 E21.54890
G1 X111.643 Y100.638 E21.55668
G1 X111.902 Y100.525 E21.56445
G1 X112.178 Y100.464 E21.57222
G1 X112.460 Y100.455 E21.58000
G1 X112.830 Y100.525 E21.59035
G1 X113.089 Y100.638 E21.59812
G1 X113.322 Y100.796 E21.60589
G1 X113.522 Y100.996 E21.61368
G1 X113.681 Y101.230 E21.62145
G1 X113.793 Y101.489 E21.62922
G1 X113.863 Y101.858 E21.63957
G1 X113.854 Y102.140 E21.64735
G1 X113.793 Y102.416 E21.65512
G1 X113.681 Y102.675 E21.66289
G1 X113.515 Y102.916 E21.67096
G1 X113.460 Y102.979 E21.67326
G1 X113.609 Y103.516 F9000.000
G1 X116.966 Y109.201
G1 X116.502 Y109.475 F2250.000 E21.68811
G1 X116.021 Y109.720 E21.70295
G1 X115.526 Y109.934 E21.71781
G1 X115.019 Y110.117 E21.73265
G1 X114.501 Y110.268 E21.74750
G1 X113.975 Y110.385 E21.76235
G1 X113.442 Y110.470 E21.77720
G1 X112.905 Y110.520 E21.79205
G1 X112.366 Y110.537 E21.80690
G1 X111.827 Y110.520 E21.82175
G1 X111.290 Y110.470 E21.83660
G1 X110.757 Y110.385 E21.85145
G1 X110.231 Y110.268 E21.86630
G1 X109.713 Y110.117 E21.88115
G1 X109.206 Y109.935 E21.89600
G1 X108.711 Y109.720 E21.91085
G1 X107.680 Y109.195 E21.94268
G1 X81.782 Y131.201 E22.87840
G1 X81.367 Y131.454 E22.89180
G1 X81.067 Y131.578 E22.90074
G1 X80.593 Y131.690 E22.91413
G1 X80.107 Y131.712 E22.92753
G1 X79.625 Y131.642 E22.94093
G1 X79.316 Y131.546 E22.94986
G1 X78.879 Y131.331 E22.96327
G1 X78.614 Y131.144 E22.97219
G1 X78.265 Y130.805 E22.98559
G1 X78.071 Y130.544 E22.99454
G1 X77.911 Y130.262 E23.00347
G1 X77.740 Y129.806 E23.01687
G1 X77.657 Y129.327 E23.03027
G1 X77.666 Y128.840 E23.04366
G1 X77.723 Y128.521 E23.05261
G1 X77.819 Y128.211 E23.06154
G1 X77.953 Y127.915 E23.07048
G1 X78.123 Y127.639 E23.07942
G1 X78.440 Y127.269 E23.09282
G1 X104.378 Y105.215 E24.03023
G1 X104.051 Y104.087 E24.06256
G1 X103.933 Y103.561 E24.07741
G1 X103.849 Y103.028 E24.09226
G1 X103.798 Y102.491 E24.10711
G1 X103.781 Y101.952 E24.12196
G1 X103.798 Y101.413 E24.13681
G1 X103.849 Y100.876 E24.15166
G1 X104.016 Y99.818 E24.18116
G1 X77.599 Y83.066 E25.04242
G1 X77.318 Y82.863 E25.05197
G1 X77.081 Y82.640 E25.06091
G1 X76.874 Y82.390 E25.06985
G1 X76.700 Y82.116 E25.07878
G1 X76.562 Y81.823 E25.08773
G1 X76.461 Y81.514 E25.09666
G1 X76.400 Y81.195 E25.10560
G1 X76.385 Y80.709 E25.11900
G1 X76.461 Y80.228 E25.13239
G1 X76.561 Y79.919 E25.14134
G1 X76.699 Y79.626 E25.15027
G1 X76.873 Y79.351 E25.15921
G1 X77.080 Y79.101 E25.16815
G1 X77.316 Y78.879 E25.17709
G1 X77.579 Y78.688 E25.18603
G1 X77.864 Y78.531 E25.19497
G1 X78.165 Y78.412 E25.20390
G1 X78.640 Y78.306 E25.21730
G1 X78.964 Y78.285 E25.22624
G1 X79.288 Y78.305 E25.23518
G1 X79.607 Y78.366 E25.24412
G1 X79.916 Y78.466 E25.25305
G1 X80.210 Y78.604 E25.26199
G1 X106.724 Y95.412 E26.12634
G1 X107.766 Y94.703 E26.16103
G1 X108.230 Y94.429 E26.17587
G1 X108.711 Y94.184 E26.19072
G1 X109.206 Y93.970 E26.20557
G1 X109.713 Y93.787 E26.22042
G1 X110.231 Y93.637 E26.23527
G1 X110.757 Y93.519 E26.25012
G1 X111.290 Y93.435 E26.26497
G1 X111.827 Y93.384 E26.27982
G1 X112.366 Y93.367 E26.29467
G1 X112.905 Y93.384 E26.30952
G1 X113.442 Y93.435 E26.32437
G1 X113.975 Y93.519 E26.33922
G1 X114.501 Y93.637 E26.35407
G1 X115.019 Y93.787 E26.36892
G1 X115.526 Y93.970 E26.38376
G1 X116.905 Y94.567 E26.42514
G1 X129.343 Y83.994 E26.87459
G1 X129.621 Y83.786 E26.88414
G1 X129.903 Y83.626 E26.89308
G1 X130.359 Y83.455 E26.90648
G1 X130.838 Y83.373 E26.91988
G1 X131.163 Y83.368 E26.92882
G1 X131.644 Y83.438 E26.94221
G1 X131.954 Y83.534 E26.95115
