; generated by Slic3r 0.9.8-dev on 2013-03-17 at 02:00:38

; layer_height = 0.18
; perimeters = 3
; top_solid_layers = 3
; bottom_solid_layers = 5
; fill_density = 0.4
; perimeter_speed = 75
; infill_speed = 75
; travel_speed = 100
; scale = 1
; nozzle_diameter = 0.4
; filament_diameter = 2.78
; extrusion_multiplier = 1
; perimeters extrusion width = 0.56mm
; infill extrusion width = 0.56mm
; support material extrusion width = 0.56mm
; first layer extrusion width = 0.60mm

M107
M104 S215 ; set temperature
G28 ; home all axes
M92 E865.888; init extruder
M109 S215 ; wait for temperature to be reached
G90 ; use absolute coordinates
G21 ; set units to millimeters
G92 E0
M82 ; use absolute distances for extrusion
G1 Z0.300 F6000.000
G1 X149.480 Y132.860
G1 X60.510 Y132.860 F2250.000 E2.44964
G1 X59.660 Y132.780 E2.47315
G1 X59.370 Y132.730 E2.48125
G1 X58.540 Y132.520 E2.50482
G1 X57.730 Y132.220 E2.52861
G1 X57.220 Y131.970 E2.54425
G1 X56.720 Y131.690 E2.56002
G1 X56.240 Y131.360 E2.57606
G1 X55.580 Y130.810 E2.59972
G1 X55.180 Y130.410 E2.61529
G1 X54.800 Y129.970 E2.63130
G1 X54.300 Y129.270 E2.65498
G1 X54.020 Y128.770 E2.67076
G1 X53.770 Y128.260 E2.68640
G1 X53.470 Y127.450 E2.71018
G1 X53.260 Y126.620 E2.73376
G1 X53.210 Y126.330 E2.74186
G1 X53.150 Y125.760 E2.75764
G1 X53.130 Y125.480 E2.76537
G1 X53.130 Y84.510 E3.89341
G1 X53.210 Y83.660 E3.91692
G1 X53.320 Y83.090 E3.93290
G1 X53.470 Y82.540 E3.94860
G1 X53.770 Y81.730 E3.97238
G1 X54.020 Y81.220 E3.98802
G1 X54.300 Y80.720 E4.00380
G1 X54.630 Y80.240 E4.01983
G1 X55.180 Y79.580 E4.04349
G1 X55.580 Y79.180 E4.05906
G1 X56.240 Y78.630 E4.08272
G1 X56.720 Y78.300 E4.09876
G1 X57.470 Y77.890 E4.12229
G1 X58.000 Y77.660 E4.13820
G1 X58.810 Y77.390 E4.16171
G1 X59.660 Y77.210 E4.18563
G1 X60.230 Y77.150 E4.20141
G1 X60.510 Y77.130 E4.20914
G1 X149.480 Y77.130 E6.65878
G1 X150.330 Y77.210 E6.68229
G1 X150.620 Y77.260 E6.69039
G1 X151.450 Y77.470 E6.71396
G1 X152.260 Y77.770 E6.73774
G1 X152.770 Y78.020 E6.75338
G1 X153.270 Y78.300 E6.76916
G1 X153.750 Y78.630 E6.78520
G1 X154.410 Y79.180 E6.80885
G1 X154.810 Y79.580 E6.82443
G1 X155.190 Y80.020 E6.84044
G1 X155.690 Y80.720 E6.86412
G1 X155.970 Y81.220 E6.87990
G1 X156.220 Y81.730 E6.89554
G1 X156.520 Y82.540 E6.91932
G1 X156.730 Y83.370 E6.94289
G1 X156.780 Y83.660 E6.95100
G1 X156.840 Y84.230 E6.96678
G1 X156.860 Y84.510 E6.97451
G1 X156.860 Y125.480 E8.10255
G1 X156.780 Y126.330 E8.12605
G1 X156.670 Y126.900 E8.14204
G1 X156.520 Y127.450 E8.15773
G1 X156.220 Y128.260 E8.18152
G1 X155.970 Y128.770 E8.19715
G1 X155.690 Y129.270 E8.21293
G1 X155.360 Y129.750 E8.22897
G1 X154.810 Y130.410 E8.25263
G1 X154.410 Y130.810 E8.26820
G1 X153.750 Y131.360 E8.29186
G1 X153.270 Y131.690 E8.30789
G1 X152.520 Y132.100 E8.33143
G1 X151.990 Y132.330 E8.34733
G1 X151.180 Y132.600 E8.37084
G1 X150.330 Y132.780 E8.39477
G1 X149.563 Y132.854 E8.41597
G1 X149.480 Y132.860 E8.41827
G1 X149.470 Y132.300 F6000.000
G1 X60.520 Y132.300 F2250.000 E10.86736
G1 X59.690 Y132.220 E10.89032
G1 X59.140 Y132.110 E10.90577
G1 X58.600 Y131.960 E10.92120
G1 X57.820 Y131.650 E10.94431
G1 X57.080 Y131.260 E10.96734
G1 X56.400 Y130.780 E10.99026
G1 X55.770 Y130.220 E11.01346
G1 X55.210 Y129.590 E11.03667
G1 X54.730 Y128.910 E11.05959
G1 X54.340 Y128.170 E11.08262
G1 X54.030 Y127.390 E11.10573
G1 X53.820 Y126.580 E11.12877
G1 X53.770 Y126.300 E11.13660
G1 X53.710 Y125.750 E11.15183
G1 X53.690 Y125.470 E11.15956
G1 X53.690 Y84.520 E12.28705
G1 X53.770 Y83.690 E12.31001
G1 X53.880 Y83.140 E12.32546
G1 X54.030 Y82.600 E12.34089
G1 X54.340 Y81.820 E12.36400
G1 X54.590 Y81.320 E12.37939
G1 X55.040 Y80.620 E12.40230
G1 X55.390 Y80.180 E12.41778
G1 X55.770 Y79.770 E12.43317
G1 X56.180 Y79.390 E12.44856
G1 X56.620 Y79.040 E12.46404
G1 X57.080 Y78.730 E12.47932
G1 X57.820 Y78.340 E12.50235
G1 X58.600 Y78.030 E12.52546
G1 X58.870 Y77.950 E12.53321
G1 X59.690 Y77.770 E12.55633
G1 X60.240 Y77.710 E12.57156
G1 X60.520 Y77.690 E12.57929
G1 X149.470 Y77.690 E15.02838
G1 X150.300 Y77.770 E15.05134
G1 X150.850 Y77.880 E15.06678
G1 X151.390 Y78.030 E15.08221
G1 X152.170 Y78.340 E15.10532
G1 X152.910 Y78.730 E15.12835
G1 X153.590 Y79.210 E15.15127
G1 X154.220 Y79.770 E15.17448
G1 X154.780 Y80.400 E15.19769
G1 X155.260 Y81.080 E15.22060
G1 X155.650 Y81.820 E15.24364
G1 X155.960 Y82.600 E15.26675
G1 X156.170 Y83.410 E15.28979
G1 X156.220 Y83.690 E15.29762
G1 X156.280 Y84.240 E15.31285
G1 X156.300 Y84.520 E15.32058
G1 X156.300 Y125.470 E16.44807
G1 X156.220 Y126.300 E16.47103
G1 X156.110 Y126.850 E16.48647
G1 X155.960 Y127.390 E16.50190
G1 X155.650 Y128.170 E16.52501
G1 X155.400 Y128.670 E16.54040
G1 X154.950 Y129.370 E16.56332
G1 X154.600 Y129.810 E16.57880
G1 X154.220 Y130.220 E16.59419
G1 X153.810 Y130.600 E16.60958
G1 X153.370 Y130.950 E16.62506
G1 X152.910 Y131.260 E16.64033
G1 X152.170 Y131.650 E16.66336
G1 X151.390 Y131.960 E16.68647
G1 X150.850 Y132.110 E16.70190
G1 X150.300 Y132.220 E16.71735
G1 X149.553 Y132.294 E16.73801
G1 X149.470 Y132.300 E16.74031
G1 X149.450 Y131.740 F6000.000
G1 X60.800 Y131.750 F2250.000 E19.18114
G1 X60.270 Y131.730 E19.19574
G1 X60.010 Y131.700 E19.20295
G1 X59.230 Y131.560 E19.22477
G1 X58.470 Y131.320 E19.24671
G1 X57.750 Y131.000 E19.26840
G1 X57.520 Y130.870 E19.27568
G1 X56.860 Y130.430 E19.29752
G1 X56.650 Y130.270 E19.30479
G1 X56.260 Y129.920 E19.31922
G1 X55.720 Y129.340 E19.34103
G1 X55.400 Y128.910 E19.35579
G1 X55.120 Y128.470 E19.37015
G1 X54.990 Y128.240 E19.37743
G1 X54.770 Y127.760 E19.39196
G1 X54.580 Y127.270 E19.40643
G1 X54.430 Y126.760 E19.42107
G1 X54.330 Y126.240 E19.43565
G1 X54.260 Y125.720 E19.45010
G1 X54.240 Y125.190 E19.46470
G1 X54.240 Y84.800 E20.57677
G1 X54.260 Y84.270 E20.59138
G1 X54.330 Y83.750 E20.60582
G1 X54.430 Y83.230 E20.62040
G1 X54.500 Y82.980 E20.62755
G1 X54.670 Y82.470 E20.64235
G1 X54.990 Y81.750 E20.66405
G1 X55.400 Y81.080 E20.68567
G1 X55.720 Y80.650 E20.70043
G1 X56.070 Y80.260 E20.71486
G1 X56.450 Y79.890 E20.72946
G1 X57.080 Y79.400 E20.75144
G1 X57.520 Y79.120 E20.76580
G1 X57.750 Y78.990 E20.77307
G1 X58.470 Y78.670 E20.79476
G1 X59.230 Y78.430 E20.81671
G1 X59.750 Y78.330 E20.83129
G1 X60.270 Y78.260 E20.84573
G1 X60.800 Y78.240 E20.86034
G1 X149.190 Y78.240 E23.29401
G1 X149.720 Y78.260 E23.30861
G1 X149.980 Y78.290 E23.31582
G1 X150.760 Y78.430 E23.33764
G1 X151.520 Y78.670 E23.35958
G1 X152.240 Y78.990 E23.38128
G1 X152.470 Y79.120 E23.38855
G1 X153.130 Y79.560 E23.41039
G1 X153.340 Y79.720 E23.41766
G1 X153.730 Y80.070 E23.43209
G1 X154.270 Y80.650 E23.45391
G1 X154.590 Y81.080 E23.46867
G1 X154.870 Y81.520 E23.48302
G1 X155.000 Y81.750 E23.49030
G1 X155.220 Y82.230 E23.50484
G1 X155.410 Y82.720 E23.51931
G1 X155.560 Y83.230 E23.53394
G1 X155.660 Y83.750 E23.54852
G1 X155.730 Y84.270 E23.56297
G1 X155.750 Y84.800 E23.57757
G1 X155.750 Y125.190 E24.68965
G1 X155.730 Y125.720 E24.70425
G1 X155.660 Y126.240 E24.71869
G1 X155.560 Y126.760 E24.73327
G1 X155.490 Y127.010 E24.74042
G1 X155.320 Y127.520 E24.75522
G1 X155.000 Y128.240 E24.77692
G1 X154.590 Y128.910 E24.79854
G1 X154.430 Y129.130 E24.80603
G1 X154.100 Y129.540 E24.82053
G1 X153.730 Y129.920 E24.83513
G1 X153.340 Y130.270 E24.84956
G1 X152.910 Y130.590 E24.86431
G1 X152.240 Y131.000 E24.88594
G1 X151.760 Y131.220 E24.90048
G1 X151.270 Y131.410 E24.91495
G1 X150.760 Y131.560 E24.92959
G1 X149.980 Y131.700 E24.95141
G1 X149.534 Y131.737 E24.96374
G1 X149.450 Y131.740 E24.96604
G1 X143.652 Y95.044 F6000.000
G1 X143.403 Y95.083 F2250.000 E24.97299
G1 X142.922 Y95.114 E24.98626
G1 X122.878 Y95.114 E25.53815
G1 X122.397 Y95.083 E25.55142
G1 X121.901 Y94.989 E25.56531
G1 X121.422 Y94.833 E25.57919
G1 X121.191 Y94.733 E25.58612
G1 X120.748 Y94.490 E25.60002
G1 X120.341 Y94.194 E25.61389
G1 X120.151 Y94.027 E25.62084
G1 X119.806 Y93.659 E25.63472
G1 X119.510 Y93.252 E25.64859
G1 X119.382 Y93.034 E25.65555
G1 X119.167 Y92.577 E25.66944
G1 X118.900 Y91.835 E25.69115
G1 X118.633 Y92.578 E25.71288
G1 X118.418 Y93.034 E25.72675
G1 X118.290 Y93.251 E25.73371
G1 X117.994 Y93.659 E25.74759
G1 X117.648 Y94.027 E25.76148
G1 X117.260 Y94.348 E25.77536
G1 X116.834 Y94.618 E25.78923
G1 X116.609 Y94.733 E25.79618
G1 X116.378 Y94.833 E25.80312
G1 X115.899 Y94.989 E25.81700
G1 X115.403 Y95.083 E25.83089
G1 X114.922 Y95.114 E25.84416
G1 X94.648 Y95.107 E26.40238
G1 X94.148 Y95.044 E26.41626
G1 X93.901 Y94.989 E26.42321
G1 X93.422 Y94.833 E26.43708
G1 X92.921 Y94.592 E26.45241
G1 X92.540 Y94.348 E26.46485
G1 X92.341 Y94.193 E26.47179
G1 X91.973 Y93.848 E26.48567
G1 X91.807 Y93.659 E26.49262
G1 X91.510 Y93.251 E26.50650
G1 X91.267 Y92.809 E26.52038
G1 X91.167 Y92.578 E26.52733
G1 X90.900 Y91.836 E26.54904
G1 X90.633 Y92.578 E26.57075
G1 X90.418 Y93.034 E26.58462
G1 X90.116 Y93.501 E26.59995
G1 X89.827 Y93.848 E26.61239
G1 X89.649 Y94.027 E26.61933
G1 X89.260 Y94.348 E26.63322
G1 X88.834 Y94.618 E26.64710
G1 X88.609 Y94.733 E26.65405
G1 X88.378 Y94.833 E26.66099
G1 X87.898 Y94.989 E26.67487
G1 X87.403 Y95.083 E26.68875
G1 X86.922 Y95.114 E26.70202
G1 X66.878 Y95.114 E27.25392
G1 X66.397 Y95.083 E27.26719
G1 X66.148 Y95.044 E27.27413
G1 X65.659 Y94.918 E27.28801
G1 X65.374 Y94.812 E27.29640
G1 X64.966 Y94.618 E27.30884
G1 X64.749 Y94.490 E27.31578
G1 X64.341 Y94.193 E27.32966
G1 X63.973 Y93.848 E27.34355
G1 X63.652 Y93.460 E27.35742
G1 X63.510 Y93.251 E27.36437
G1 X63.267 Y92.809 E27.37825
G1 X63.167 Y92.578 E27.38520
G1 X63.082 Y92.341 E27.39214
G1 X62.956 Y91.852 E27.40602
G1 X62.917 Y91.603 E27.41297
G1 X62.885 Y91.100 E27.42685
G1 X62.917 Y90.597 E27.44073
G1 X63.011 Y90.102 E27.45461
G1 X63.082 Y89.859 E27.46156
G1 X63.267 Y89.391 E27.47544
G1 X63.382 Y89.166 E27.48239
G1 X63.510 Y88.949 E27.48933
G1 X63.806 Y88.541 E27.50321
G1 X63.973 Y88.352 E27.51015
G1 X64.341 Y88.006 E27.52404
G1 X64.749 Y87.710 E27.53792
G1 X64.966 Y87.582 E27.54486
G1 X65.191 Y87.467 E27.55181
G1 X65.659 Y87.282 E27.56569
G1 X66.148 Y87.156 E27.57957
G1 X66.397 Y87.117 E27.58652
G1 X66.878 Y87.086 E27.59979
G1 X86.922 Y87.086 E28.15168
G1 X87.403 Y87.117 E28.16495
G1 X87.898 Y87.211 E28.17883
G1 X88.378 Y87.367 E28.19271
G1 X88.609 Y87.467 E28.19965
G1 X88.834 Y87.582 E28.20660
G1 X89.260 Y87.852 E28.22047
G1 X89.648 Y88.173 E28.23437
G1 X89.827 Y88.352 E28.24131
G1 X90.116 Y88.699 E28.25375
G1 X90.418 Y89.166 E28.26908
G1 X90.633 Y89.622 E28.28295
G1 X90.900 Y90.364 E28.30466
G1 X91.167 Y89.622 E28.32637
G1 X91.382 Y89.166 E28.34026
G1 X91.510 Y88.949 E28.34720
G1 X91.806 Y88.541 E28.36108
G1 X92.152 Y88.173 E28.37497
G1 X92.341 Y88.006 E28.38191
G1 X92.749 Y87.710 E28.39579
G1 X93.191 Y87.467 E28.40968
G1 X93.422 Y87.367 E28.41662
G1 X93.901 Y87.211 E28.43050
G1 X94.397 Y87.117 E28.44438
G1 X94.878 Y87.086 E28.45765
G1 X115.152 Y87.093 E29.01587
G1 X115.403 Y87.117 E29.02282
G1 X115.847 Y87.200 E29.03526
G1 X116.378 Y87.367 E29.05058
G1 X116.834 Y87.582 E29.06446
G1 X117.260 Y87.852 E29.07833
G1 X117.459 Y88.006 E29.08528
G1 X117.827 Y88.352 E29.09917
G1 X117.994 Y88.541 E29.10611
G1 X118.290 Y88.949 E29.11999
G1 X118.418 Y89.166 E29.12695
G1 X118.633 Y89.622 E29.14082
G1 X118.900 Y90.365 E29.16255
G1 X119.167 Y89.623 E29.18426
G1 X119.382 Y89.166 E29.19815
G1 X119.510 Y88.948 E29.20511
G1 X119.806 Y88.541 E29.21898
G1 X120.151 Y88.173 E29.23286
G1 X120.341 Y88.006 E29.23982
G1 X120.748 Y87.710 E29.25368
G1 X121.191 Y87.467 E29.26758
G1 X121.422 Y87.367 E29.27452
G1 X121.901 Y87.211 E29.28839
G1 X122.397 Y87.117 E29.30228
G1 X122.878 Y87.086 E29.31555
G1 X142.922 Y87.086 E29.86744
G1 X143.403 Y87.117 E29.88071
G1 X143.847 Y87.200 E29.89315
G1 X144.141 Y87.282 E29.90154
G1 X144.378 Y87.367 E29.90848
G1 X144.834 Y87.582 E29.92237
G1 X145.216 Y87.822 E29.93480
G1 X145.459 Y88.007 E29.94319
G1 X145.827 Y88.352 E29.95707
G1 X145.993 Y88.541 E29.96401
G1 X146.290 Y88.949 E29.97790
G1 X146.418 Y89.166 E29.98484
G1 X146.633 Y89.622 E29.99872
G1 X146.789 Y90.102 E30.01261
G1 X146.883 Y90.596 E30.02648
G1 X146.907 Y90.848 E30.03344
G1 X146.902 Y91.405 E30.04876
G1 X146.844 Y91.853 E30.06120
G1 X146.789 Y92.098 E30.06813
G1 X146.633 Y92.578 E30.08202
G1 X146.533 Y92.809 E30.08896
G1 X146.290 Y93.251 E30.10284
G1 X146.148 Y93.460 E30.10979
G1 X145.993 Y93.659 E30.11673
G1 X145.649 Y94.026 E30.13060
G1 X145.459 Y94.194 E30.13757
G1 X145.051 Y94.490 E30.15143
G1 X144.834 Y94.618 E30.15838
G1 X144.378 Y94.833 E30.17227
G1 X144.141 Y94.918 E30.17921
G1 X143.734 Y95.026 E30.19079
G1 X143.652 Y95.044 E30.19309
G1 X143.548 Y94.496 F6000.000
G1 X143.333 Y94.530 F2250.000 E30.19908
G1 X142.913 Y94.557 E30.21066
G1 X122.886 Y94.557 E30.76207
G1 X122.467 Y94.530 E30.77365
G1 X122.252 Y94.496 E30.77963
G1 X121.832 Y94.388 E30.79159
G1 X121.627 Y94.315 E30.79757
G1 X121.234 Y94.130 E30.80952
G1 X121.047 Y94.019 E30.81551
G1 X120.696 Y93.764 E30.82746
G1 X120.380 Y93.467 E30.83941
G1 X120.236 Y93.304 E30.84540
G1 X119.981 Y92.953 E30.85734
G1 X119.771 Y92.572 E30.86930
G1 X119.685 Y92.372 E30.87529
G1 X119.551 Y91.960 E30.88724
G1 X119.470 Y91.534 E30.89919
G1 X119.449 Y91.317 E30.90517
G1 X119.449 Y90.883 E30.91713
G1 X119.470 Y90.666 E30.92312
G1 X119.551 Y90.240 E30.93506
G1 X119.685 Y89.828 E30.94701
G1 X119.771 Y89.628 E30.95300
G1 X119.963 Y89.278 E30.96398
G1 X120.236 Y88.896 E30.97690
G1 X120.533 Y88.580 E30.98886
G1 X120.696 Y88.436 E30.99485
G1 X121.047 Y88.181 E31.00679
G1 X121.428 Y87.972 E31.01875
G1 X121.627 Y87.885 E31.02473
G1 X122.040 Y87.751 E31.03668
G1 X122.467 Y87.670 E31.04864
G1 X122.887 Y87.643 E31.06023
G1 X142.913 Y87.643 E31.61163
G1 X143.333 Y87.670 E31.62322
G1 X143.548 Y87.704 E31.62920
G1 X143.968 Y87.812 E31.64115
G1 X144.173 Y87.885 E31.64713
G1 X144.566 Y88.070 E31.65909
G1 X144.932 Y88.303 E31.67104
G1 X145.104 Y88.436 E31.67702
G1 X145.420 Y88.733 E31.68898
G1 X145.564 Y88.896 E31.69496
G1 X145.799 Y89.218 E31.70594
G1 X146.028 Y89.628 E31.71887
G1 X146.115 Y89.827 E31.72484
G1 X146.249 Y90.240 E31.73680
G1 X146.296 Y90.452 E31.74277
G1 X146.347 Y90.848 E31.75377
G1 X146.351 Y91.317 E31.76668
G1 X146.330 Y91.534 E31.77267
G1 X146.249 Y91.960 E31.78462
G1 X146.115 Y92.373 E31.79658
G1 X145.930 Y92.766 E31.80853
G1 X145.819 Y92.953 E31.81451
G1 X145.564 Y93.304 E31.82647
G1 X145.420 Y93.467 E31.83245
G1 X145.104 Y93.764 E31.84441
G1 X144.753 Y94.019 E31.85635
G1 X144.566 Y94.130 E31.86233
G1 X144.173 Y94.315 E31.87430
G1 X143.629 Y94.478 E31.88991
G1 X143.548 Y94.496 E31.89221
G1 X143.443 Y93.949 F6000.000
G1 X142.905 Y94.000 F1125.000 E31.90711
G1 X122.895 Y94.000 E32.45804
G1 X122.536 Y93.977 E32.46794
G1 X122.179 Y93.909 E32.47797
G1 X121.832 Y93.796 E32.48799
G1 X121.346 Y93.549 E32.50303
G1 X120.915 Y93.214 E32.51805
G1 X120.665 Y92.949 E32.52808
G1 X120.442 Y92.639 E32.53859
G1 X120.203 Y92.167 E32.55314
G1 X120.051 Y91.643 E32.56817
G1 X120.000 Y91.100 E32.58319
G1 X120.051 Y90.557 E32.59822
G1 X120.203 Y90.033 E32.61325
G1 X120.442 Y89.561 E32.62780
G1 X120.665 Y89.251 E32.63831
G1 X120.915 Y88.986 E32.64834
G1 X121.346 Y88.651 E32.66336
G1 X121.832 Y88.404 E32.67840
G1 X122.339 Y88.255 E32.69294
G1 X122.536 Y88.223 E32.69844
G1 X122.895 Y88.200 E32.70834
G1 X142.905 Y88.200 E33.25927
G1 X143.264 Y88.223 E33.26916
G1 X143.621 Y88.291 E33.27919
G1 X144.119 Y88.469 E33.29374
G1 X144.454 Y88.651 E33.30425
G1 X144.885 Y88.986 E33.31928
G1 X145.236 Y89.382 E33.33382
G1 X145.441 Y89.703 E33.34433
G1 X145.658 Y90.204 E33.35936
G1 X145.777 Y90.736 E33.37439
G1 X145.800 Y91.100 E33.38442
G1 X145.749 Y91.644 E33.39945
G1 X145.596 Y92.168 E33.41448
G1 X145.349 Y92.654 E33.42950
G1 X145.135 Y92.949 E33.43953
G1 X144.749 Y93.335 E33.45456
G1 X144.454 Y93.549 E33.46459
G1 X143.968 Y93.797 E33.47962
G1 X143.525 Y93.931 E33.49235
G1 X143.443 Y93.949 E33.49465
G1 X143.244 Y94.469 F6000.000
G1 X143.152 Y96.093
G1 X143.404 Y96.117 F2250.000 E33.50161
G1 X143.898 Y96.211 E33.51548
G1 X144.377 Y96.367 E33.52935
G1 X144.609 Y96.467 E33.53631
G1 X145.051 Y96.710 E33.55019
G1 X145.260 Y96.852 E33.55714
G1 X145.459 Y97.006 E33.56407
G1 X145.827 Y97.352 E33.57796
G1 X145.994 Y97.541 E33.58491
G1 X146.290 Y97.949 E33.59878
G1 X146.418 Y98.166 E33.60573
