; generated by Slic3r 0.9.8-dev on 2013-03-18 at 17:01:49

; layer_height = 0.18
; perimeters = 3
; top_solid_layers = 3
; bottom_solid_layers = 5
; fill_density = 0.4
; perimeter_speed = 75
; infill_speed = 75
; travel_speed = 150
; scale = 1
; nozzle_diameter = 0.4
; filament_diameter = 2.78
; extrusion_multiplier = 1
; perimeters extrusion width = 0.56mm
; infill extrusion width = 0.56mm
; support material extrusion width = 0.56mm
; first layer extrusion width = 0.60mm

M107
M104 S215 ; set temperature
G28 ; home all axes
M92 E865.888; init extruder
M109 S215 ; wait for temperature to be reached
G90 ; use absolute coordinates
G21 ; set units to millimeters
G92 E0
M82 ; use absolute distances for extrusion
G1 Z0.300 F9000.000
G1 X117.490 Y117.060
G1 X116.670 Y117.860 F2250.000 E0.03154
G1 X116.210 Y118.260 E0.04833
G1 X115.380 Y118.920 E0.07752
G1 X114.960 Y119.220 E0.09173
G1 X113.690 Y120.030 E0.13321
G1 X113.050 Y120.390 E0.15343
G1 X112.190 Y120.800 E0.17966
G1 X111.640 Y121.040 E0.19618
G1 X110.600 Y121.430 E0.22676
G1 X109.570 Y121.750 E0.25646
G1 X109.030 Y121.890 E0.27182
G1 X108.070 Y122.090 E0.29882
G1 X107.470 Y122.190 E0.31557
G1 X106.350 Y122.310 E0.34658
G1 X105.730 Y122.350 E0.36369
G1 X104.260 Y122.350 E0.40416
G1 X103.640 Y122.310 E0.42127
G1 X102.520 Y122.190 E0.45228
G1 X101.920 Y122.090 E0.46903
G1 X100.960 Y121.890 E0.49603
G1 X100.420 Y121.750 E0.51139
G1 X99.390 Y121.430 E0.54108
G1 X98.350 Y121.040 E0.57167
G1 X97.490 Y120.660 E0.59755
G1 X96.940 Y120.390 E0.61442
G1 X96.300 Y120.030 E0.63464
G1 X95.540 Y119.560 E0.65924
G1 X94.610 Y118.920 E0.69033
G1 X94.130 Y118.550 E0.70701
G1 X93.320 Y117.860 E0.73631
G1 X92.930 Y117.490 E0.75111
G1 X92.130 Y116.670 E0.78265
G1 X91.440 Y115.860 E0.81195
G1 X91.070 Y115.380 E0.82864
G1 X90.430 Y114.450 E0.85972
G1 X89.960 Y113.690 E0.88432
G1 X89.600 Y113.050 E0.90454
G1 X89.330 Y112.500 E0.92141
G1 X88.950 Y111.640 E0.94730
G1 X88.560 Y110.600 E0.97788
G1 X88.240 Y109.570 E1.00758
G1 X88.100 Y109.030 E1.02294
G1 X87.900 Y108.070 E1.04994
G1 X87.800 Y107.470 E1.06668
G1 X87.680 Y106.350 E1.09770
G1 X87.640 Y105.730 E1.11480
G1 X87.640 Y104.260 E1.15528
G1 X87.680 Y103.640 E1.17238
G1 X87.800 Y102.520 E1.20340
G1 X87.900 Y101.920 E1.22015
G1 X88.100 Y100.960 E1.24715
G1 X88.240 Y100.420 E1.26251
G1 X88.560 Y99.390 E1.29220
G1 X88.930 Y98.400 E1.32130
G1 X89.350 Y97.440 E1.35015
G1 X89.610 Y96.940 E1.36567
G1 X89.900 Y96.460 E1.38111
G1 X91.350 Y94.290 E1.45297
G1 X91.690 Y93.820 E1.46894
G1 X92.060 Y93.380 E1.48477
G1 X92.880 Y92.540 E1.51709
G1 X93.320 Y92.130 E1.53365
G1 X94.130 Y91.440 E1.56295
G1 X94.610 Y91.070 E1.57963
G1 X95.540 Y90.430 E1.61072
G1 X96.300 Y89.960 E1.63532
G1 X96.890 Y89.630 E1.65393
G1 X97.430 Y89.360 E1.67055
G1 X98.400 Y88.930 E1.69977
G1 X99.390 Y88.560 E1.72887
G1 X100.420 Y88.240 E1.75856
G1 X100.960 Y88.100 E1.77392
G1 X101.920 Y87.900 E1.80092
G1 X102.520 Y87.800 E1.81767
G1 X103.640 Y87.680 E1.84869
G1 X104.260 Y87.640 E1.86579
G1 X105.730 Y87.640 E1.90627
G1 X106.350 Y87.680 E1.92337
G1 X107.470 Y87.800 E1.95439
G1 X108.070 Y87.900 E1.97113
G1 X109.030 Y88.100 E1.99813
G1 X109.570 Y88.240 E2.01349
G1 X110.600 Y88.560 E2.04319
G1 X111.640 Y88.950 E2.07377
G1 X112.500 Y89.330 E2.09966
G1 X113.050 Y89.600 E2.11653
G1 X113.690 Y89.960 E2.13675
G1 X114.450 Y90.430 E2.16135
G1 X115.380 Y91.070 E2.19243
G1 X115.860 Y91.440 E2.20912
G1 X116.670 Y92.130 E2.23842
G1 X117.060 Y92.500 E2.25322
G1 X117.860 Y93.320 E2.28476
G1 X118.550 Y94.130 E2.31406
G1 X118.920 Y94.610 E2.33074
G1 X119.560 Y95.540 E2.36183
G1 X120.030 Y96.300 E2.38643
G1 X120.390 Y96.940 E2.40665
G1 X120.660 Y97.490 E2.42352
G1 X121.040 Y98.350 E2.44940
G1 X121.430 Y99.390 E2.47999
G1 X121.750 Y100.420 E2.50968
G1 X121.890 Y100.960 E2.52504
G1 X122.090 Y101.920 E2.55204
G1 X122.190 Y102.520 E2.56879
G1 X122.310 Y103.640 E2.59980
G1 X122.350 Y104.260 E2.61691
G1 X122.350 Y105.730 E2.65738
G1 X122.310 Y106.350 E2.67449
G1 X122.190 Y107.470 E2.70550
G1 X122.020 Y108.430 E2.73235
G1 X121.750 Y109.570 E2.76460
G1 X121.580 Y110.150 E2.78125
G1 X121.220 Y111.180 E2.81129
G1 X120.890 Y112.000 E2.83562
G1 X120.300 Y113.130 E2.87072
G1 X118.900 Y115.340 E2.94275
G1 X118.250 Y116.210 E2.97265
G1 X117.547 Y116.999 E3.00175
G1 X117.490 Y117.060 E3.00405
G1 X117.100 Y116.670 F9000.000
G1 X116.310 Y117.440 F2250.000 E3.03442
G1 X115.850 Y117.840 E3.05121
G1 X114.650 Y118.760 E3.09284
G1 X113.400 Y119.560 E3.13370
G1 X112.810 Y119.890 E3.15231
G1 X112.260 Y120.160 E3.16918
G1 X110.990 Y120.700 E3.20718
G1 X109.990 Y121.050 E3.23635
G1 X109.410 Y121.220 E3.25299
G1 X108.320 Y121.470 E3.28378
G1 X107.380 Y121.640 E3.31009
G1 X106.300 Y121.760 E3.34000
G1 X105.720 Y121.790 E3.35599
G1 X104.270 Y121.790 E3.39592
G1 X103.690 Y121.760 E3.41191
G1 X102.610 Y121.640 E3.44183
G1 X102.010 Y121.540 E3.45858
G1 X101.070 Y121.340 E3.48504
G1 X100.580 Y121.220 E3.49893
G1 X99.580 Y120.910 E3.52775
G1 X98.570 Y120.530 E3.55746
G1 X97.730 Y120.160 E3.58274
G1 X97.180 Y119.890 E3.59961
G1 X96.590 Y119.560 E3.61822
G1 X95.340 Y118.760 E3.65908
G1 X94.140 Y117.840 E3.70071
G1 X93.680 Y117.440 E3.71750
G1 X93.320 Y117.100 E3.73113
G1 X92.550 Y116.310 E3.76151
G1 X92.150 Y115.850 E3.77829
G1 X91.230 Y114.650 E3.81992
G1 X90.430 Y113.400 E3.86078
G1 X90.100 Y112.810 E3.87940
G1 X89.830 Y112.260 E3.89627
G1 X89.290 Y110.990 E3.93426
G1 X88.940 Y109.990 E3.96343
G1 X88.770 Y109.410 E3.98008
G1 X88.520 Y108.320 E4.01087
G1 X88.350 Y107.380 E4.03717
G1 X88.230 Y106.300 E4.06709
G1 X88.200 Y105.720 E4.08308
G1 X88.200 Y104.270 E4.12300
G1 X88.230 Y103.690 E4.13899
G1 X88.350 Y102.610 E4.16891
G1 X88.450 Y102.010 E4.18566
G1 X88.650 Y101.070 E4.21212
G1 X88.770 Y100.580 E4.22601
G1 X89.080 Y99.580 E4.25484
G1 X89.440 Y98.620 E4.28306
G1 X89.850 Y97.680 E4.31130
G1 X90.090 Y97.210 E4.32583
G1 X90.360 Y96.770 E4.34004
G1 X91.810 Y94.600 E4.41190
G1 X92.130 Y94.160 E4.42688
G1 X92.480 Y93.750 E4.44173
G1 X93.280 Y92.930 E4.47327
G1 X93.680 Y92.550 E4.48846
G1 X94.140 Y92.150 E4.50524
G1 X95.340 Y91.230 E4.54688
G1 X96.590 Y90.430 E4.58774
G1 X97.140 Y90.130 E4.60499
G1 X98.060 Y89.680 E4.63319
G1 X98.620 Y89.440 E4.64996
G1 X99.580 Y89.080 E4.67819
G1 X100.580 Y88.770 E4.70702
G1 X101.070 Y88.650 E4.72091
G1 X102.010 Y88.450 E4.74737
G1 X102.610 Y88.350 E4.76411
G1 X103.690 Y88.230 E4.79403
G1 X104.270 Y88.200 E4.81002
G1 X105.720 Y88.200 E4.84995
G1 X106.300 Y88.230 E4.86594
G1 X107.380 Y88.350 E4.89586
G1 X107.980 Y88.450 E4.91260
G1 X108.920 Y88.650 E4.93907
G1 X109.410 Y88.770 E4.95296
G1 X110.410 Y89.080 E4.98178
G1 X111.420 Y89.460 E5.01149
G1 X112.260 Y89.830 E5.03677
G1 X112.810 Y90.100 E5.05364
G1 X113.400 Y90.430 E5.07225
G1 X114.650 Y91.230 E5.11311
G1 X115.850 Y92.150 E5.15474
G1 X116.310 Y92.550 E5.17153
G1 X116.670 Y92.890 E5.18516
G1 X117.440 Y93.680 E5.21553
G1 X117.840 Y94.140 E5.23232
G1 X118.760 Y95.340 E5.27395
G1 X119.560 Y96.590 E5.31481
G1 X119.890 Y97.180 E5.33343
G1 X120.160 Y97.730 E5.35030
G1 X120.700 Y99.000 E5.38829
G1 X121.050 Y100.000 E5.41746
G1 X121.220 Y100.580 E5.43411
G1 X121.470 Y101.670 E5.46490
G1 X121.640 Y102.610 E5.49120
G1 X121.760 Y103.690 E5.52112
G1 X121.790 Y104.270 E5.53711
G1 X121.790 Y105.720 E5.57703
G1 X121.760 Y106.300 E5.59302
G1 X121.640 Y107.380 E5.62294
G1 X121.470 Y108.320 E5.64924
G1 X121.220 Y109.410 E5.68003
G1 X121.050 Y109.990 E5.69667
G1 X120.700 Y110.990 E5.72584
G1 X120.370 Y111.790 E5.74967
G1 X119.830 Y112.830 E5.78194
G1 X118.430 Y115.040 E5.85397
G1 X117.830 Y115.850 E5.88172
G1 X117.157 Y116.609 E5.90965
G1 X117.100 Y116.670 E5.91195
G1 X116.710 Y116.280 F9000.000
G1 X116.280 Y116.710 F2250.000 E5.92869
G1 X115.480 Y117.420 E5.95814
G1 X114.340 Y118.300 E5.99779
G1 X113.830 Y118.640 E6.01467
G1 X113.110 Y119.080 E6.03790
G1 X112.560 Y119.390 E6.05529
G1 X112.010 Y119.660 E6.07216
G1 X110.800 Y120.180 E6.10842
G1 X110.220 Y120.390 E6.12540
G1 X108.800 Y120.800 E6.16610
G1 X107.890 Y120.990 E6.19169
G1 X107.290 Y121.090 E6.20844
G1 X106.240 Y121.210 E6.23754
G1 X105.710 Y121.240 E6.25215
G1 X104.280 Y121.240 E6.29153
G1 X103.750 Y121.210 E6.30614
G1 X102.700 Y121.090 E6.33524
G1 X102.100 Y120.990 E6.35199
G1 X101.190 Y120.800 E6.37758
G1 X99.770 Y120.390 E6.41828
G1 X99.190 Y120.180 E6.43526
G1 X97.980 Y119.660 E6.47152
G1 X97.430 Y119.390 E6.48839
G1 X96.880 Y119.080 E6.50578
G1 X96.160 Y118.640 E6.52901
G1 X95.650 Y118.300 E6.54589
G1 X94.810 Y117.660 E6.57496
G1 X94.510 Y117.420 E6.58554
G1 X93.710 Y116.710 E6.61499
G1 X93.280 Y116.280 E6.63173
G1 X92.570 Y115.480 E6.66118
G1 X91.690 Y114.340 E6.70084
G1 X91.350 Y113.830 E6.71771
G1 X90.910 Y113.110 E6.74094
G1 X90.600 Y112.560 E6.75833
G1 X90.330 Y112.010 E6.77520
G1 X89.810 Y110.800 E6.81146
G1 X89.600 Y110.220 E6.82844
G1 X89.190 Y108.800 E6.86914
G1 X89.000 Y107.890 E6.89473
G1 X88.900 Y107.290 E6.91148
G1 X88.780 Y106.240 E6.94058
G1 X88.750 Y105.710 E6.95520
G1 X88.750 Y104.280 E6.99457
G1 X88.780 Y103.750 E7.00918
G1 X88.900 Y102.700 E7.03828
G1 X89.000 Y102.100 E7.05503
G1 X89.190 Y101.190 E7.08063
G1 X89.600 Y99.770 E7.12132
G1 X89.950 Y98.840 E7.14868
G1 X90.350 Y97.920 E7.17630
G1 X90.570 Y97.490 E7.18960
G1 X92.420 Y94.700 E7.28177
G1 X92.890 Y94.130 E7.30211
G1 X93.680 Y93.320 E7.33326
G1 X94.050 Y92.970 E7.34729
G1 X94.510 Y92.570 E7.36407
G1 X95.650 Y91.690 E7.40372
G1 X96.160 Y91.350 E7.42060
G1 X96.880 Y90.910 E7.44383
G1 X97.390 Y90.630 E7.45985
G1 X98.280 Y90.190 E7.48719
G1 X99.190 Y89.810 E7.51434
G1 X99.770 Y89.600 E7.53132
G1 X101.190 Y89.190 E7.57202
G1 X102.100 Y89.000 E7.59761
G1 X102.700 Y88.900 E7.61436
G1 X103.750 Y88.780 E7.64346
G1 X104.280 Y88.750 E7.65808
G1 X105.710 Y88.750 E7.69745
G1 X106.240 Y88.780 E7.71206
G1 X107.290 Y88.900 E7.74116
G1 X107.890 Y89.000 E7.75791
G1 X108.800 Y89.190 E7.78351
G1 X110.220 Y89.600 E7.82420
G1 X110.800 Y89.810 E7.84118
G1 X112.010 Y90.330 E7.87745
G1 X112.560 Y90.600 E7.89432
G1 X113.110 Y90.910 E7.91170
G1 X113.830 Y91.350 E7.93493
G1 X114.340 Y91.690 E7.95181
G1 X115.180 Y92.330 E7.98088
G1 X115.480 Y92.570 E7.99146
G1 X116.280 Y93.280 E8.02091
G1 X116.710 Y93.710 E8.03766
G1 X117.420 Y94.510 E8.06711
G1 X118.300 Y95.650 E8.10676
G1 X118.640 Y96.160 E8.12363
G1 X119.080 Y96.880 E8.14687
G1 X119.390 Y97.430 E8.16425
G1 X119.660 Y97.980 E8.18112
G1 X120.180 Y99.190 E8.21738
G1 X120.390 Y99.770 E8.23437
G1 X120.800 Y101.190 E8.27506
G1 X120.990 Y102.100 E8.30066
G1 X121.090 Y102.700 E8.31740
G1 X121.210 Y103.750 E8.34650
G1 X121.240 Y104.280 E8.36112
G1 X121.240 Y105.710 E8.40049
G1 X121.210 Y106.240 E8.41511
G1 X121.090 Y107.290 E8.44420
G1 X120.990 Y107.890 E8.46095
G1 X120.800 Y108.800 E8.48655
G1 X120.390 Y110.220 E8.52724
G1 X120.180 Y110.800 E8.54423
G1 X119.860 Y111.570 E8.56719
G1 X119.360 Y112.530 E8.59699
G1 X117.960 Y114.740 E8.66902
G1 X117.410 Y115.490 E8.69463
G1 X116.767 Y116.219 E8.72139
G1 X116.710 Y116.280 E8.72369
G1 X110.570 Y111.540 F9000.000
G1 X110.046 Y111.946 F1500.000 E8.74193
G1 X109.600 Y112.249 E8.75677
G1 X109.136 Y112.523 E8.77162
G1 X108.655 Y112.768 E8.78647
G1 X108.160 Y112.982 E8.80132
G1 X107.653 Y113.165 E8.81617
G1 X107.135 Y113.315 E8.83102
G1 X106.609 Y113.433 E8.84587
G1 X106.076 Y113.517 E8.86072
G1 X105.539 Y113.568 E8.87557
G1 X105.000 Y113.585 E8.89042
G1 X104.461 Y113.568 E8.90527
G1 X103.924 Y113.517 E8.92012
G1 X103.391 Y113.433 E8.93497
G1 X102.865 Y113.315 E8.94982
G1 X102.347 Y113.165 E8.96467
G1 X101.840 Y112.982 E8.97952
G1 X101.345 Y112.768 E8.99437
G1 X100.864 Y112.523 E9.00922
G1 X100.400 Y112.249 E9.02407
G1 X99.954 Y111.946 E9.03892
G1 X99.528 Y111.615 E9.05377
G1 X99.123 Y111.258 E9.06862
G1 X98.742 Y110.877 E9.08347
G1 X98.385 Y110.472 E9.09832
G1 X98.054 Y110.046 E9.11317
G1 X97.751 Y109.600 E9.12801
G1 X97.477 Y109.136 E9.14286
G1 X97.232 Y108.655 E9.15771
G1 X97.018 Y108.160 E9.17256
G1 X96.835 Y107.653 E9.18741
G1 X96.685 Y107.135 E9.20226
G1 X96.567 Y106.609 E9.21711
G1 X96.483 Y106.076 E9.23196
G1 X96.432 Y105.539 E9.24681
G1 X96.415 Y105.000 E9.26166
G1 X96.432 Y104.461 E9.27651
G1 X96.483 Y103.924 E9.29136
G1 X96.567 Y103.391 E9.30621
G1 X96.765 Y102.504 E9.33124
G1 X99.680 Y104.765 E9.43280
G1 X104.481 Y108.028 E9.59264
G1 X109.479 Y110.984 E9.75250
G1 X110.495 Y111.502 E9.78390
G1 X110.570 Y111.540 E9.78620
G1 X110.828 Y112.044 F9000.000
G1 X110.374 Y112.396 F2250.000 E9.80202
G1 X109.899 Y112.719 E9.81783
G1 X109.404 Y113.012 E9.83365
G1 X108.893 Y113.272 E9.84946
G1 X108.366 Y113.500 E9.86527
G1 X107.825 Y113.695 E9.88109
G1 X107.274 Y113.855 E9.89690
G1 X106.713 Y113.981 E9.91271
G1 X106.146 Y114.070 E9.92853
G1 X105.574 Y114.124 E9.94434
G1 X105.000 Y114.142 E9.96015
G1 X104.426 Y114.124 E9.97597
G1 X103.854 Y114.070 E9.99178
G1 X103.287 Y113.981 E10.00760
G1 X102.726 Y113.855 E10.02341
G1 X102.175 Y113.695 E10.03922
G1 X101.634 Y113.500 E10.05504
G1 X101.107 Y113.272 E10.07085
G1 X100.596 Y113.012 E10.08666
G1 X100.101 Y112.719 E10.10248
G1 X99.626 Y112.396 E10.11829
G1 X99.172 Y112.044 E10.13411
G1 X98.742 Y111.665 E10.14992
G1 X98.335 Y111.258 E10.16573
G1 X97.956 Y110.828 E10.18155
G1 X97.604 Y110.374 E10.19736
G1 X97.281 Y109.899 E10.21317
G1 X96.988 Y109.404 E10.22899
G1 X96.728 Y108.893 E10.24480
G1 X96.500 Y108.366 E10.26061
G1 X96.305 Y107.825 E10.27643
G1 X96.145 Y107.274 E10.29224
G1 X96.019 Y106.713 E10.30806
G1 X95.930 Y106.146 E10.32387
G1 X95.876 Y105.574 E10.33968
G1 X95.858 Y105.000 E10.35550
G1 X95.876 Y104.426 E10.37131
G1 X95.930 Y103.854 E10.38712
G1 X96.019 Y103.287 E10.40294
G1 X96.145 Y102.726 E10.41875
G1 X96.305 Y102.175 E10.43456
G1 X96.511 Y101.602 E10.45132
G1 X100.008 Y104.314 E10.57315
G1 X104.780 Y107.558 E10.73203
G1 X109.747 Y110.495 E10.89092
G1 X111.545 Y111.412 E10.94649
G1 X110.890 Y111.989 E10.97054
G1 X110.828 Y112.044 E10.97284
G1 X111.183 Y112.474 F9000.000
G1 X110.701 Y112.847 F1125.000 E10.98962
G1 X110.197 Y113.190 E11.00639
G1 X109.673 Y113.500 E11.02317
G1 X109.130 Y113.777 E11.03995
G1 X108.571 Y114.019 E11.05673
G1 X107.997 Y114.225 E11.07350
G1 X107.412 Y114.395 E11.09028
G1 X106.818 Y114.528 E11.10706
G1 X106.216 Y114.623 E11.12384
G1 X105.609 Y114.681 E11.14062
G1 X105.000 Y114.700 E11.15739
G1 X104.391 Y114.681 E11.17417
G1 X103.784 Y114.623 E11.19095
G1 X103.182 Y114.528 E11.20773
G1 X102.588 Y114.395 E11.22451
G1 X102.003 Y114.225 E11.24128
G1 X101.429 Y114.019 E11.25806
G1 X100.870 Y113.777 E11.27484
G1 X100.327 Y113.500 E11.29162
G1 X99.803 Y113.190 E11.30839
G1 X99.299 Y112.847 E11.32517
G1 X98.817 Y112.474 E11.34195
G1 X98.360 Y112.071 E11.35873
G1 X97.929 Y111.640 E11.37550
G1 X97.526 Y111.183 E11.39228
G1 X97.153 Y110.701 E11.40906
G1 X96.810 Y110.197 E11.42584
G1 X96.500 Y109.673 E11.44262
G1 X96.223 Y109.130 E11.45939
G1 X95.981 Y108.571 E11.47617
G1 X95.775 Y107.997 E11.49295
G1 X95.605 Y107.412 E11.50973
G1 X95.472 Y106.818 E11.52650
G1 X95.377 Y106.216 E11.54328
G1 X95.319 Y105.609 E11.56006
G1 X95.300 Y105.000 E11.57684
G1 X95.319 Y104.391 E11.59361
G1 X95.377 Y103.784 E11.61039
G1 X95.472 Y103.182 E11.62717
G1 X95.605 Y102.588 E11.64395
G1 X95.775 Y102.003 E11.66073
G1 X95.981 Y101.429 E11.67750
G1 X96.287 Y100.723 E11.69868
G1 X100.335 Y103.863 E11.83975
G1 X105.079 Y107.087 E11.99767
G1 X110.016 Y110.007 E12.15559
G1 X112.427 Y111.236 E12.23011
G1 X112.071 Y111.640 E12.24495
G1 X111.640 Y112.071 E12.26173
G1 X111.246 Y112.419 E12.27621
G1 X111.183 Y112.474 E12.27851
G1 X110.663 Y112.274 F9000.000
G1 X113.218 Y107.471
G1 X111.806 Y106.751 F1500.000 E12.32215
G1 X107.069 Y103.951 E12.47365
G1 X102.519 Y100.858 E12.62514
G1 X99.429 Y98.461 E12.73279
G1 X99.954 Y98.054 E12.75107
G1 X100.400 Y97.751 E12.76592
G1 X100.864 Y97.477 E12.78077
G1 X101.345 Y97.232 E12.79562
G1 X101.840 Y97.018 E12.81047
G1 X102.347 Y96.835 E12.82532
G1 X102.865 Y96.685 E12.84017
G1 X103.391 Y96.567 E12.85502
G1 X103.924 Y96.483 E12.86987
G1 X104.461 Y96.432 E12.88472
G1 X105.000 Y96.415 E12.89957
G1 X105.539 Y96.432 E12.91442
G1 X106.076 Y96.483 E12.92927
G1 X106.609 Y96.567 E12.94412
G1 X107.135 Y96.685 E12.95897
G1 X107.653 Y96.835 E12.97382
G1 X108.160 Y97.018 E12.98867
